UniversalRobots/RTDE_Python_Client_Library/csv_data/jointData.csv
actual_q_0 actual_q_1 actual_q_2 actual_q_3 actual_q_4 actual_q_5 actual_TCP_pose_0 actual_TCP_pose_1 actual_TCP_pose_2 actual_TCP_pose_3 actual_TCP_pose_4 actual_TCP_pose_5
0.8103143572807312 -0.4692295354655762 -1.6005566120147705 -1.9313165150084437 1.564056158065796 -1.6832893530475062 0.10154898101203379 -0.08364025377174003 0.43505075591492376 -2.458806297506776 -1.2195527427292698 -0.95794333177142
0.8103262782096863 -0.4692414563945313 -1.600560188293457 -1.9313045940794886 1.5640403032302856 -1.6833203474627894 0.10155390291530764 -0.08363703628766872 0.43505131704914934 -2.4588004059938475 -1.2196064852108586 -0.9579552671590782
0.8102989196777344 -0.4692332309535523 -1.6005756855010986 -1.9313045940794886 1.5640438795089722 -1.683305565510885 0.10155162112185731 -0.08363933357127237 0.43504788065767774 -2.4588309425145547 -1.2195591312920488 -0.957947287802553
0.8102989196777344 -0.46921344221148686 -1.600541114807129 -1.9313198528685511 1.564056158065796 -1.6833327452289026 0.10154266432019689 -0.08364709991898736 0.4350540092445916 -2.4587835789375148 -1.2195842298756858 -0.9579926226950186
0.810329794883728 -0.4692450326732178 -1.600553035736084 -1.9313231907286585 1.5640283823013306 -1.683305565510885 0.10155465271213496 -0.08363778442418826 0.43505059248532235 -2.458823355986242 -1.2195939460418193 -0.9579409292344209
0.8102799654006958 -0.4692414563945313 -1.6005566120147705 -1.9313198528685511 1.5640403032302856 -1.683305565510885 0.10154945369307072 -0.08364233999909966 0.4350502290106737 -2.4588528890568226 -1.2195390294659783 -0.9579494896642613
0.8102989196777344 -0.4692295354655762 -1.6005566120147705 -1.9313045940794886 1.5640716552734375 -1.6833327452289026 0.1015467756919706 -0.0836407180468785 0.43505223685180466 -2.458781607537593 -1.2195920637321456 -0.95796200265771
0.8102918863296509 -0.4692450326732178 -1.600541114807129 -1.931307931939596 1.564056158065796 -1.6833203474627894 0.10154836090267691 -0.08364121138623049 0.4350551901759785 -2.458807601645741 -1.2195663911194983 -0.9579675928189098
0.8103143572807312 -0.4692295354655762 -1.600560188293457 -1.931307931939596 1.5640283823013306 -1.6832931677447718 0.1015513380595672 -0.08364148412298494 0.4350510180599858 -2.4588249656874472 -1.2195519634806253 -0.9579700527389967
0.810329794883728 -0.4692414563945313 -1.6005566120147705 -1.9312926731505335 1.5640716552734375 -1.683343235646383 0.1015518019088104 -0.08363501694272783 0.4350536062309507 -2.458751684382473 -1.2196405379062178 -0.9579566659593554
0.8103143572807312 -0.4692295354655762 -1.6005375385284424 -1.9313165150084437 1.564024806022644 -1.6832893530475062 0.10154878781962842 -0.0836446355354603 0.43505508712702023 -2.4588198347829024 -1.2195415392949356 -0.9579884850577031
0.8103108406066895 -0.4692259591868897 -1.600572109222412 -1.931296011010641 1.5640438795089722 -1.6832860151873987 0.1015508548377427 -0.08363997790783073 0.4350498297084762 -2.4588150909100217 -1.219539487238153 -0.9579623879030637
0.8103262782096863 -0.4692295354655762 -1.6005566120147705 -1.931307931939596 1.5640438795089722 -1.6833275000201624 0.10155087792193164 -0.08363973738571362 0.43505182634794193 -2.458786378919886 -1.219612500024481 -0.9579691985232408
0.8102954030036926 -0.4692450326732178 -1.600541114807129 -1.931338449517721 1.564075231552124 -1.6832893530475062 0.1015470898395771 -0.08363994754378502 0.43505138859073217 -2.458821004359428 -1.2195420382816544 -0.9579084205297111
0.8102954030036926 -0.46921713769946294 -1.6005876064300537 -1.931300779382223 1.5640438795089722 -1.6833236853228968 0.10154964498905508 -0.08364146162960612 0.4350458061889057 -2.45882160255123 -1.2195768222755332 -0.957962531046454
0.8103368282318115 -0.4692414563945313 -1.600572109222412 -1.9313112697997035 1.5640597343444824 -1.6833203474627894 0.10155485177993584 -0.08363330342923633 0.43504777915987847 -2.4587877559089497 -1.2196275253488875 -0.9579163969806503
0.810314416885376 -0.4692259591868897 -1.600572109222412 -1.9313198528685511 1.5640597343444824 -1.68333608308901 0.10154986774768426 -0.08363884578295958 0.4350468595350957 -2.4587959193875477 -1.2196213625267516 -0.9579346726643554
0.8103143572807312 -0.4692223829082032 -1.600537657737732 -1.9313045940794886 1.5640634298324585 -1.6833203474627894 0.1015449538496114 -0.0836435163308011 0.4350566054241123 -2.4587624900905434 -1.219582478057096 -0.9579919097346542
0.8103262782096863 -0.4692487281611939 -1.600553035736084 -1.9313045940794886 1.5640597343444824 -1.6833518187152308 0.10155317711419384 -0.08363520595508142 0.43505286598695825 -2.4587721105719096 -1.2196517373393116 -0.9579495488152124
0.8102834820747375 -0.46920986593280034 -1.600560188293457 -1.931307931939596 1.564075231552124 -1.683317009602682 0.10154180029483043 -0.08364568060372285 0.43505119824904637 -2.4587888273803196 -1.2195499029636434 -0.9579747057891859
0.810303807258606 -0.4692450326732178 -1.6005375385284424 -1.9313045940794886 1.5640907287597656 -1.6832965056048792 0.1015466652948773 -0.08363821985953347 0.43505641057041883 -2.458772631609469 -1.2195504528748422 -0.9579420040689076
0.8102954030036926 -0.4692259591868897 -1.6005793809890747 -1.9313012562193812 1.5640438795089722 -1.6833203474627894 0.1015503807882717 -0.08364068669124755 0.4350475277164769 -2.4588235935476326 -1.2195727058722847 -0.9579603684385355
0.8102918863296509 -0.46921344221148686 -1.6005250215530396 -1.9313165150084437 1.5640438795089722 -1.68333608308901 0.10154100306901452 -0.08365057759456446 0.4350580765127727 -2.45878537858903 -1.2195723969697092 -0.9580273717722508
0.8102989196777344 -0.4692295354655762 -1.6005566120147705 -1.9313112697997035 1.564075231552124 -1.6833203474627894 0.10154647293440697 -0.08364055755246938 0.4350514053609325 -2.4587878188832315 -1.2195782396011734 -0.9579482151038162
0.8103143572807312 -0.46920986593280034 -1.600553035736084 -1.9313231907286585 1.5640475749969482 -1.6833236853228968 0.10154521875049366 -0.08364535084494479 0.4350509261278513 -2.458789260872264 -1.2195919710483938 -0.9579782955312732
0.8103024363517761 -0.4692368072322388 -1.600541114807129 -1.9313198528685511 1.564075231552124 -1.683317009602682 0.10154625305928838 -0.08364073580816758 0.435053781980828 -2.4587863551487104 -1.2195778316709374 -0.9579459973659462
0.8102954030036926 -0.4692295354655762 -1.600572109222412 -1.9313198528685511 1.5640634298324585 -1.6833203474627894 0.10154873010133147 -0.08363980790993812 0.43504682458967814 -2.458817174906757 -1.2195807908080358 -0.9579286114699453
0.8102869987487793 -0.4692450326732178 -1.6005375385284424 -1.9313112697997035 1.564075231552124 -1.68333608308901 0.10154622463826876 -0.083640977700741 0.4350555824310199 -2.4587894349679993 -1.2195848826957116 -0.9579597283904192
0.8103024363517761 -0.4692295354655762 -1.600572109222412 -1.9313231907286585 1.5640597343444824 -1.6833236853228968 0.10154953151537266 -0.08363936174819488 0.43504640981531273 -2.4588153970997393 -1.2195937146621416 -0.957926264697323
0.8103262782096863 -0.4692487281611939 -1.6005756855010986 -1.931338449517721 1.564056158065796 -1.6833203474627894 0.10155578924039937 -0.08363293287492457 0.4350435161834483 -2.4588255423616103 -1.2196282987207778 -0.957876057104522
0.8102989196777344 -0.4692259591868897 -1.6005483865737915 -1.9313231907286585 1.5640475749969482 -1.6833203474627894 0.10154651487525826 -0.08364419809726871 0.43505182628539896 -2.4588113004860257 -1.2195741793317727 -0.9579677140105665
0.8102918267250061 -0.4692450326732178 -1.600560188293457 -1.9313231907286585 1.5640597343444824 -1.68333608308901 0.10155024692511266 -0.08363875242564854 0.4350489647589342 -2.458822051981892 -1.2195997714886202 -0.9579279770129002
0.8103262782096863 -0.4692450326732178 -1.6005876064300537 -1.9313165150084437 1.5640634298324585 -1.6833236853228968 0.10155622121539598 -0.08363151643289096 0.4350435766915089 -2.458808805755973 -1.2196291144328801 -0.957888211675105
0.8103024363517761 -0.4692295354655762 -1.600521445274353 -1.9313198528685511 1.564063310623169 -1.6833203474627894 0.10154327694047936 -0.0836454505452299 0.43505831451709104 -2.4587768164529287 -1.219571345580466 -0.9579876743606437
0.8103262782096863 -0.4692414563945313 -1.600560188293457 -1.9313198528685511 1.564056158065796 -1.6833275000201624 0.10155270028770505 -0.08363618164247433 0.4350494151211615 -2.458794656759437 -1.2196237368245029 -0.957927572290763
0.8102989196777344 -0.46919436872515874 -1.6005685329437256 -1.931307931939596 1.564075231552124 -1.6833203474627894 0.10154106181818906 -0.08364624789796474 0.43504945426998676 -2.458769713931861 -1.2195691576237837 -0.9579801354076366
0.8103108406066895 -0.4692295354655762 -1.600509524345398 -1.9312893352904261 1.5640403032302856 -1.6833203474627894 0.10154438303927465 -0.08364724794089495 0.43506482029036847 -2.458760332437257 -1.2195626772047625 -0.9580527360487262
0.810329794883728 -0.4692097467235108 -1.6005685329437256 -1.9313198528685511 1.5640597343444824 -1.6833017508136194 0.10154756126545894 -0.08364105984248714 0.43504782599635367 -2.458782510205544 -1.219585616092318 -0.9579454448049844
0.8103227615356445 -0.4692295354655762 -1.600541114807129 -1.9313231907286585 1.5641063451766968 -1.6832860151873987 0.10154443218519404 -0.08363822150634767 0.4350534308005738 -2.458751982429041 -1.2195621719099947 -0.9579152265321156
0.8103262782096863 -0.4692295354655762 -1.6005446910858154 -1.931326528588766 1.5640438795089722 -1.68333608308901 0.1015492734685021 -0.08364141707558609 0.43505221532488214 -2.4587876539669713 -1.2196263846011903 -0.9579634381161272
0.8103073239326477 -0.4692259591868897 -1.600572109222412 -1.9313012562193812 1.5640716552734375 -1.6833122412311 0.10154866316364655 -0.08363862316190568 0.43504917196333104 -2.4587881672524907 -1.219576787721973 -0.957944146358582
0.8102989196777344 -0.4692332309535523 -1.6005685329437256 -1.9313198528685511 1.5640438795089722 -1.6833203474627894 0.1015506184811648 -0.08364038231042757 0.4350476036942902 -2.4588308496020903 -1.2195818214327816 -0.957941427578266
0.810317873954773 -0.4692295354655762 -1.600560188293457 -1.931307931939596 1.5640789270401 -1.6833203474627894 0.10154827210269404 -0.08363791655460165 0.43505100908059985 -2.4587689209828816 -1.219599992355723 -0.9579403513528594
0.8102954030036926 -0.4692259591868897 -1.600541114807129 -1.9313198528685511 1.564056158065796 -1.6833236853228968 0.1015448143919593 -0.08364488799925798 0.4350538893220683 -2.4587984964066343 -1.2195724024819443 -0.957976145140827
0.810317873954773 -0.4692295354655762 -1.6005375385284424 -1.931307931939596 1.5640597343444824 -1.6832893530475062 0.10154684361307609 -0.08364197416784036 0.43505614914519664 -2.4587814663670198 -1.2195477389385898 -0.9579730667329893
0.8102799654006958 -0.46921713769946294 -1.6005566120147705 -1.9313165150084437 1.5640789270401 -1.6833203474627894 0.10154216985380154 -0.08364484440372813 0.4350508707189967 -2.458795748109884 -1.219555243163269 -0.9579591367087759
0.8103108406066895 -0.4692295354655762 -1.600572109222412 -1.9313165150084437 1.5640438795089722 -1.6833275000201624 0.10155135345359681 -0.08363944867723502 0.4350472434919771 -2.458815766363785 -1.219603531853295 -0.9579443310625818
0.8102918863296509 -0.4692368072322388 -1.600572109222412 -1.9313198528685511 1.5640403032302856 -1.6833203474627894 0.10155139328119209 -0.08364014156411369 0.4350467589652034 -2.4588446661351835 -1.2195758828404066 -0.9579372167353823
0.8102834820747375 -0.4692605298808594 -1.6005566120147705 -1.9313198528685511 1.5640320777893066 -1.6833203474627894 0.10155401916005344 -0.08363859077442626 0.43505004752275567 -2.458864293183202 -1.219568089067407 -0.9579353696776212
0.8102989196777344 -0.4691978257945557 -1.600560188293457 -1.9313198528685511 1.564067006111145 -1.6833203474627894 0.10154117121055348 -0.08364722563365969 0.4350498313589555 -2.458781455703579 -1.2195703692935966 -0.9579775378492339
0.8102954030036926 -0.4692295354655762 -1.6005566120147705 -1.9313317737975062 1.5640634298324585 -1.6832893530475062 0.10154676362139435 -0.08364186904540097 0.4350488555200321 -2.4588264606701755 -1.2195379633297352 -0.9579248137828351
0.8102954030036926 -0.4691823285869141 -1.600563883781433 -1.9312893352904261 1.5640634298324585 -1.6833203474627894 0.10153882701388955 -0.08365022275602327 0.43505294055878574 -2.458758632740072 -1.2195513636535218 -0.9580317818533373
0.8103108406066895 -0.4692295354655762 -1.600541114807129 -1.9312893352904261 1.564056158065796 -1.68333608308901 0.10154710116115948 -0.08364228167859777 0.43505765327744567 -2.458762489937573 -1.2195969716333586 -0.9580076718664711
0.810329794883728 -0.4692450326732178 -1.6005446910858154 -1.931338449517721 1.5640597343444824 -1.6833203474627894 0.10155142354199428 -0.08363699122759571 0.4350505802706053 -2.458795906500697 -1.219620930564079 -0.9579142420111122
0.8102989196777344 -0.4692295354655762 -1.6005566120147705 -1.9313231907286585 1.5640403032302856 -1.6833275000201624 0.10154867874162915 -0.083642895176532 0.4350499278783233 -2.4588227930119566 -1.2195867252869934 -0.9579605771974022
0.8102954030036926 -0.4692295354655762 -1.6005375385284424 -1.9313351116576136 1.5640320777893066 -1.683317009602682 0.10154653787043655 -0.08364628410160349 0.4350527712825213 -2.458831794033293 -1.219565081500681 -0.9579731873917869
0.8102834820747375 -0.4692259591868897 -1.6005375385284424 -1.9313503704466761 1.5640438795089722 -1.6833236853228968 0.1015439092199053 -0.08364763135596817 0.4350509043348325 -2.4588372431854504 -1.2195665749836548 -0.9579556536846231
0.8103108406066895 -0.4692295354655762 -1.600521445274353 -1.9313198528685511 1.5640403032302856 -1.68333608308901 0.10154550938021659 -0.08364605851747595 0.43505831860726885 -2.458783268374662 -1.219598412425751 -0.9580059233577058
0.8102869987487793 -0.4692295354655762 -1.6005446910858154 -1.9313231907286585 1.5640475749969482 -1.683305565510885 0.10154577485138884 -0.08364513774532512 0.43505263009628603 -2.4588268394428803 -1.2195409829612083 -0.9579671084386017
0.8103143572807312 -0.4692450326732178 -1.600553035736084 -1.9313198528685511 1.5640597343444824 -1.683317009602682 0.10155130985685301 -0.08363732743119029 0.43505100232340893 -2.458803185715646 -1.2195956662781309 -0.9579296987782646
0.8103143572807312 -0.4692259591868897 -1.600572109222412 -1.9313012562193812 1.5640475749969482 -1.6833017508136194 0.1015508522217287 -0.08363943843661155 0.4350491762312362 -2.4588066145061815 -1.2195669188712828 -0.9579566634727331
0.8103143572807312 -0.46921880662951665 -1.600541114807129 -1.9313045940794886 1.564075231552124 -1.6833203474627894 0.10154388373756935 -0.08364306748505115 0.435055853596567 -2.458752418903308 -1.2195842065416205 -0.9579836756361522
0.8102680444717407 -0.4692450326732178 -1.600572109222412 -1.9313112697997035 1.5640597343444824 -1.6833203474627894 0.1015497972834434 -0.0836395545877743 0.43504774485283026 -2.458848024462834 -1.2195520621978413 -0.9579300723364903
0.8102918863296509 -0.4692295354655762 -1.600572109222412 -1.9313231907286585 1.5640438795089722 -1.683317009602682 0.10154970307769046 -0.08364144017186487 0.43504641263413524 -2.4588402193318437 -1.2195706037056564 -0.9579385325026446
0.8103108406066895 -0.4692605298808594 -1.600553035736084 -1.931307931939596 1.5640634298324585 -1.68333608308901 0.10155391230784158 -0.08363415005830074 0.4350523366899935 -2.4587982355939992 -1.2196191094113722 -0.9579286720027412
0.8102989196777344 -0.46920986593280034 -1.600521445274353 -1.9313045940794886 1.5640438795089722 -1.6833236853228968 0.10154058205779526 -0.08365092666462849 0.43506040547195934 -2.458771173157257 -1.219557026052739 -0.9580451844804967
0.8103024363517761 -0.4692605298808594 -1.600553035736084 -1.931307931939596 1.5640634298324585 -1.68333608308901 0.10155320942154064 -0.08363500354031773 0.4350523366899935 -2.458805301801289 -1.2196097401025225 -0.9579308675992041
0.8103143572807312 -0.4692295354655762 -1.600553035736084 -1.9313165150084437 1.5640634298324585 -1.6832860151873987 0.101548070597551 -0.08364024007875609 0.4350515656835279 -2.458798966885881 -1.2195481283233818 -0.9579415899681384
0.8102989196777344 -0.4692027133754273 -1.6005566120147705 -1.9312855205931605 1.5640438795089722 -1.6833203474627894 0.1015435702355082 -0.08364779692798119 0.43505487270287396 -2.4587785635585915 -1.2195555104917708 -0.9580335719600055
0.8102918863296509 -0.4692450326732178 -1.6005375385284424 -1.9312974415221156 1.5640403032302856 -1.683317009602682 0.10154909000961826 -0.08364256190320163 0.4350573096954027 -2.458812711845609 -1.2195546911545292 -0.957994855850112
0.8102954030036926 -0.4691942495158692 -1.6005375385284424 -1.9313351116576136 1.5640789270401 -1.6832965056048792 0.1015365331232446 -0.0836505504568107 0.43505310092548777 -2.4587758533290063 -1.2195325157825654 -0.9579769388974206
0.8103262782096863 -0.4692295354655762 -1.6005793809890747 -1.9313045940794886 1.564056158065796 -1.6833236853228968 0.10155281271001204 -0.0836360707001658 0.4350470758063085 -2.4587906825325048 -1.219615824396272 -0.9579361585073731
0.8102989196777344 -0.46919794500384526 -1.6005375385284424 -1.9313045940794886 1.5640438795089722 -1.683305565510885 0.10154017588251779 -0.08365135642787708 0.4350568699903177 -2.458780887198342 -1.2195340930829068 -0.9580354459706223
0.8102954030036926 -0.4692295354655762 -1.6005375385284424 -1.9313231907286585 1.5640356540679932 -1.68333608308901 0.10154641623878868 -0.08364593789947684 0.4350542543211224 -2.4588134292308594 -1.2195871417080277 -0.9579899342777749
0.8103108406066895 -0.46921344221148686 -1.6005756855010986 -1.9312893352904261 1.564056158065796 -1.683343235646383 0.10154808645690833 -0.08364125217217265 0.435049967319274 -2.4587723874903964 -1.2196128789245675 -0.9579873663452203
0.810317873954773 -0.46921344221148686 -1.6005446910858154 -1.9313317737975062 1.564075231552124 -1.6833518187152308 0.10154329273134222 -0.0836436345828788 0.4350517111512319 -2.4587548192821096 -1.2196391838358116 -0.9579605175546912
0.8103143572807312 -0.4692450326732178 -1.600541114807129 -1.9313198528685511 1.5640716552734375 -1.68333608308901 0.1015490940485795 -0.08363806419157213 0.4350537037555384 -2.458777739289912 -1.2196190246094043 -0.9579405285203634
0.8103262782096863 -0.4692450326732178 -1.6005876064300537 -1.9313317737975062 1.5640597343444824 -1.6833203474627894 0.10155631819955788 -0.08363190361416542 0.4350416782498084 -2.4588235821498587 -1.219629335718726 -0.9578716553845945
0.8103262782096863 -0.4692295354655762 -1.6005446910858154 -1.9313198528685511 1.5640525817871094 -1.683317009602682 0.10154875997500339 -0.08364079767180577 0.4350530446356909 -2.458782968977395 -1.2195997533826322 -0.9579602865224379
0.8103143572807312 -0.4692295354655762 -1.6005494594573975 -1.9313231907286585 1.5640634298324585 -1.6833275000201624 0.10154757857340113 -0.08364075493272277 0.43505154587867156 -2.458785356546544 -1.2196049653754588 -0.9579487117839648
0.8102954030036926 -0.4692450326732178 -1.600521445274353 -1.9313231907286585 1.5640320777893066 -1.6832893530475062 0.10154775859524229 -0.08364500119904306 0.43505775614817843 -2.458833743460855 -1.2195236013068869 -0.9579809751354139
0.8102989196777344 -0.4692223829082032 -1.6005494594573975 -1.9313231907286585 1.564056158065796 -1.6833203474627894 0.10154537406454583 -0.08364425246050464 0.4350516157172684 -2.4588023285602745 -1.2195746123443283 -0.9579646269195115
0.8103024363517761 -0.4692368072322388 -1.6005375385284424 -1.9313165150084437 1.564067006111145 -1.6833584944354456 0.10154640535976805 -0.08364167312012437 0.4350550099145063 -2.4587728941188134 -1.2196299825768129 -0.9579709728683616
0.8102954030036926 -0.4692295354655762 -1.600541114807129 -1.931307931939596 1.5640634298324585 -1.6833236853228968 0.10154514543336793 -0.0836435730800611 0.4350553374425513 -2.458786664516627 -1.2195706024008228 -0.957980991463755
0.810329794883728 -0.4692259591868897 -1.600541114807129 -1.9313231907286585 1.5640475749969482 -1.683298412953512 0.10154822911957265 -0.08364197412639525 0.43505347541747685 -2.458788691623612 -1.2195766418677936 -0.9579626457728057
0.8102834820747375 -0.4691942495158692 -1.6005566120147705 -1.9313012562193812 1.5640283823013306 -1.683305565510885 0.10154150309437043 -0.08365224307320797 0.43505299807348774 -2.4588152033781294 -1.2195186480836715 -0.9580360283159809
0.8102954030036926 -0.4692414563945313 -1.600509524345398 -1.9313198528685511 1.5640438795089722 -1.68333608308901 0.1015448847898115 -0.08364644622981009 0.4350609072117603 -2.458793214659346 -1.2195817414530832 -0.9580074136509313
0.8103298544883728 -0.46919794500384526 -1.600541114807129 -1.9313417873778285 1.564075231552124 -1.683305565510885 0.10154074423766007 -0.08364614698755121 0.43505142430872923 -2.4587560841211857 -1.2195873256973166 -0.9579561887540822
0.8103108406066895 -0.4692450326732178 -1.6005375385284424 -1.9313317737975062 1.5640438795089722 -1.6833203474627894 0.1015501032621057 -0.08364075278318497 0.4350530360623772 -2.4588158463869947 -1.2195926827013401 -0.9579470450015034
0.8102989196777344 -0.46919794500384526 -1.6005483865737915 -1.9313198528685511 1.5640475749969482 -1.6832860151873987 0.10154107701054839 -0.08364991444620024 0.4350525100872664 -2.458802944663881 -1.2195173315239087 -0.9579963857594351
0.8103143572807312 -0.46919436872515874 -1.600541114807129 -1.9313389263548792 1.5640789270401 -1.6833203474627894 0.10153853180087119 -0.08364819129772466 0.4350518139806773 -2.4587560018254804 -1.2195882634571709 -0.9579692031709437
0.810317873954773 -0.4692533773234864 -1.600528597831726 -1.9313198528685511 1.5640789270401 -1.6833398977862757 0.1015490397090677 -0.0836371011409072 0.43505646116510244 -2.4587643318833012 -1.2196277419387311 -0.9579404495463993
0.8102989196777344 -0.4692450326732178 -1.600553035736084 -1.9313198528685511 1.564075231552124 -1.6833122412311 0.10154898847645696 -0.08363791078532656 0.43505099958512883 -2.4588048511671112 -1.2195743710068492 -0.9579214843074777
0.8102989196777344 -0.4692414563945313 -1.6005250215530396 -1.9313231907286585 1.5640475749969482 -1.6833203474627894 0.10154675121742318 -0.08364394555088439 0.4350569766103841 -2.458805928181264 -1.2195715011525277 -0.9579771530760789
0.8103108406066895 -0.4692450326732178 -1.6005685329437256 -1.9313351116576136 1.5640597343444824 -1.6832931677447718 0.10155271736475258 -0.08363589491121504 0.4350455885851298 -2.4588361242783408 -1.2195702460754017 -0.9578874786614999
0.8103108406066895 -0.4692259591868897 -1.6005446910858154 -1.9313231907286585 1.5640634298324585 -1.6833203474627894 0.10154601675399023 -0.08364244363630381 0.435052661555426 -2.458785334621009 -1.219588587051859 -0.9579577797733984
0.8103143572807312 -0.46921344221148686 -1.6005756855010986 -1.9313198528685511 1.5640634298324585 -1.6833203474627894 0.10154759997347464 -0.08364073792052486 0.43504616781125854 -2.45879271160074 -1.2195976516604174 -0.957938690229975
0.8103143572807312 -0.4692332309535523 -1.6005566120147705 -1.9313165150084437 1.5640634298324585 -1.6832893530475062 0.10154921920959359 -0.08363903341676111 0.4350507191981512 -2.458802659168205 -1.2195550936475499 -0.9579337320577702
0.8103333115577698 -0.4692295354655762 -1.600553035736084 -1.9313045940794886 1.5640511512756348 -1.6833017508136194 0.10155058827862681 -0.08363897613405269 0.43505305154122026 -2.4587793530170816 -1.2195844553176796 -0.9579637687012761
0.8103143572807312 -0.4692259591868897 -1.600541114807129 -1.9313198528685511 1.5640944242477417 -1.6833122412311 0.10154385592987769 -0.08364053275355562 0.4350538825816798 -2.458754497938847 -1.2195838909944923 -0.9579410367934711
0.8102763891220093 -0.4692450326732178 -1.600572109222412 -1.931307931939596 1.5640597343444824 -1.6833203474627894 0.1015505277409811 -0.08363867384766221 0.4350481602815271 -2.458838737221926 -1.2195602144324422 -0.9579318972469941
0.8102799654006958 -0.4692259591868897 -1.600572109222412 -1.9313198528685511 1.5640634298324585 -1.6833089033709925 0.10154674054527454 -0.0836421095430833 0.43504685888060035 -2.458832052546985 -1.2195469799196648 -0.9579339489150164
0.8102954030036926 -0.4692450326732178 -1.6005685329437256 -1.9313351116576136 1.564075231552124 -1.683305565510885 0.10155039600985903 -0.08363647828351724 0.43504558584670555 -2.4588312868223086 -1.219572021148322 -0.9578837485737883
0.8102954030036926 -0.4692450326732178 -1.600560188293457 -1.9313198528685511 1.564075231552124 -1.683343235646383 0.10154954835256703 -0.08363737156450803 0.4350493774493259 -2.4588009436467 -1.2196145438555615 -0.957921914586214
0.8102989196777344 -0.4692259591868897 -1.6005685329437256 -1.9313112697997035 1.5640634298324585 -1.6833203474627894 0.1015479825033949 -0.08364054723560052 0.4350487381924024 -2.4588035022147023 -1.2195793132433321 -0.9579465778700231
0.8102834820747375 -0.46921344221148686 -1.600541114807129 -1.9313112697997035 1.5640789270401 -1.6833089033709925 0.10153994298183767 -0.08364713554403229 0.4350550734737856 -2.458780471689084 -1.2195354325535503 -0.9579845606977055
0.8103143572807312 -0.4692223829082032 -1.600560188293457 -1.931326528588766 1.5640438795089722 -1.6833275000201624 0.1015487300714226 -0.083642153502404 0.43504876931439374 -2.4588066218041758 -1.219604402199499 -0.9579542958336777
0.8102989196777344 -0.4692259591868897 -1.600560188293457 -1.9313198528685511 1.5640597343444824 -1.6833203474627894 0.10154714821437966 -0.08364191342764499 0.4350495630750471 -2.4588067817620254 -1.2195788743545055 -0.9579489200646295
0.8102954030036926 -0.4692332309535523 -1.600541114807129 -1.9313317737975062 1.5640789270401 -1.683317009602682 0.1015446046578831 -0.0836420683354413 0.4350523319310281 -2.4587948151941497 -1.219573435312961 -0.9579352027078306
0.8103073239326477 -0.4692414563945313 -1.6005446910858154 -1.9313198528685511 1.5640475749969482 -1.6833203474627894 0.10154983524446004 -0.08364059376297062 0.43505293125378164 -2.4588100025964197 -1.2195864239746839 -0.9579553513791336
0.8103143572807312 -0.4692295354655762 -1.600541114807129 -1.931338449517721 1.5640475749969482 -1.6833236853228968 0.10154748759694254 -0.08364296014317749 0.4350515420379959 -2.4588049183863143 -1.2195998783161464 -0.9579506800635098
0.8103262782096863 -0.4692332309535523 -1.6005566120147705 -1.9313198528685511 1.5640475749969482 -1.6833089033709925 0.1015512377482576 -0.0836388632252131 0.4350503065832554 -2.458800925095684 -1.2195934319514545 -0.9579429765707157
0.8102799654006958 -0.4692378801158448 -1.6005685329437256 -1.931326528588766 1.5640716552734375 -1.68333608308901 0.10154802952812114 -0.08363965533115575 0.4350467233248513 -2.4588250196001065 -1.2195898907398481 -0.9579171795118862
0.8103024363517761 -0.4692605298808594 -1.600521445274353 -1.9313198528685511 1.5640597343444824 -1.683305565510885 0.10154956711011345 -0.08363931620237583 0.4350580180825166 -2.458806562710423 -1.2195615142214882 -0.957949136012449
0.8102954030036926 -0.4692295354655762 -1.6005446910858154 -1.9313351116576136 1.5640320777893066 -1.6833275000201624 0.10154739189973278 -0.08364538774000087 0.4350511491866838 -2.4588326974061627 -1.2195816185342494 -0.9579673420926988
0.8103143572807312 -0.4692295354655762 -1.600541114807129 -1.9312893352904261 1.5640597343444824 -1.6833203474627894 0.10154715756071656 -0.08364169741570576 0.4350576526432215 -2.458762466013013 -1.2195802803565357 -0.9580001028136598
0.8102799654006958 -0.4692450326732178 -1.6005375385284424 -1.9313198528685511 1.5640438795089722 -1.683343235646383 0.10154763690550792 -0.08364376907276087 0.4350545197392756 -2.458825023683703 -1.2195849127255358 -0.957975393340972
0.8103262782096863 -0.4692378801158448 -1.6005446910858154 -1.9313198528685511 1.5640597343444824 -1.68333608308901 0.10154991391481114 -0.08363863064933799 0.4350529633796297 -2.4587753738415974 -1.2196293062368269 -0.9579501723335078
0.810303807258606 -0.4692259591868897 -1.6005446910858154 -1.9313045940794886 1.5640597343444824 -1.6833203474627894 0.10154585523096972 -0.08364320688703401 0.43505497675216104 -2.458781721769468 -1.2195737796890098 -0.9579845531170207
0.8103073239326477 -0.46920986593280034 -1.6005566120147705 -1.931326528588766 1.564075231552124 -1.6833203474627894 0.10154318641679343 -0.0836438935139168 0.435049694754296 -2.458777733932945 -1.2195861613769015 -0.9579513292545088
0.8102799654006958 -0.4692062896541138 -1.6005685329437256 -1.9313198528685511 1.5640597343444824 -1.683343235646383 0.10154271827860287 -0.08364682931195963 0.43504785912278093 -2.4588063356716416 -1.219584640168292 -0.9579734525014931
0.8103108406066895 -0.4692332309535523 -1.600541114807129 -1.9312893352904261 1.5640597343444824 -1.6833398977862757 0.10154758504756267 -0.08364129603233562 0.4350576172237183 -2.458760535187726 -1.219603895277667 -0.9580016924685801
0.8103143572807312 -0.4692414563945313 -1.600572109222412 -1.9312926731505335 1.5640789270401 -1.6833203474627894 0.10155187768880544 -0.08363418065265273 0.435050090305441 -2.4587777452778314 -1.2195989396601474 -0.9579309545590614
0.8102989196777344 -0.4692642253688355 -1.6005756855010986 -1.9313198528685511 1.5640597343444824 -1.6833275000201624 0.10155647069398012 -0.08363211770462745 0.4350456813437624 -2.4588407121077447 -1.2196068206072914 -0.9578862383245921
0.8102610111236572 -0.4692062896541138 -1.6005793809890747 -1.931326528588766 1.5640438795089722 -1.683317009602682 0.10154341702440872 -0.08364846830942735 0.4350445708834345 -2.458857568847506 -1.2195318832234505 -0.9579617765384815
0.810317873954773 -0.46921344221148686 -1.6005375385284424 -1.9313198528685511 1.5640475749969482 -1.6833327452289026 0.1015443933347394 -0.08364616861256285 0.43505482180805954 -2.458772470455447 -1.2196028541155017 -0.9579980567850693
0.8103262782096863 -0.4692569536021729 -1.6005375385284424 -1.9313165150084437 1.564067006111145 -1.6833518187152308 0.10155233343912566 -0.0836351170204559 0.4350548167527155 -2.4587691037541113 -1.2196544613457705 -0.9579388096519778
0.8102989196777344 -0.4692295354655762 -1.600553035736084 -1.9313112697997035 1.5640438795089722 -1.6833551565753382 0.10154813010217169 -0.08364299715034848 0.43505222197542615 -2.4587987381344316 -1.219619101853562 -0.9579838593899941
0.810317873954773 -0.4692414563945313 -1.600553035736084 -1.931307931939596 1.564075231552124 -1.6833203474627894 0.10154999153894172 -0.08363660093867545 0.4350525175569934 -2.4587752952810895 -1.2196010662434802 -0.9579372470256888
0.8102989196777344 -0.4692295354655762 -1.6005322933197021 -1.9313351116576136 1.5640789270401 -1.68333608308901 0.10154309135954871 -0.08364360856034868 0.4350539524968072 -2.4587783716039358 -1.2195998737146883 -0.9579502887325805
0.8103024363517761 -0.4692295354655762 -1.6005566120147705 -1.931307931939596 1.564075231552124 -1.6833236853228968 0.10154679957885021 -0.08364016711491032 0.43505182079109217 -2.45878132635031 -1.2195854951568503 -0.9579521731709724
0.8102954030036926 -0.4692487281611939 -1.600553035736084 -1.9313165150084437 1.564075231552124 -1.6833203474627894 0.10154944848706068 -0.08363747609907257 0.4350513795723703 -2.45880498379061 -1.2195814545507127 -0.9579240884249518
0.8102918863296509 -0.46920986593280034 -1.6005566120147705 -1.931296011010641 1.564075231552124 -1.6833275000201624 0.10154219232013606 -0.08364515639762794 0.43505349298056 -2.458767236859409 -1.2195680417285357 -0.9579938464472272
0.8103108406066895 -0.46921344221148686 -1.600560188293457 -1.931338449517721 1.5640597343444824 -1.683317009602682 0.10154552001315927 -0.0836434576112102 0.43504736850137776 -2.4588021494345003 -1.2195898211458536 -0.9579376505585052
0.8102954030036926 -0.4692414563945313 -1.600541114807129 -1.931338449517721 1.5640597343444824 -1.6833203474627894 0.10154742169888169 -0.0836416658887981 0.4350514256155862 -2.4588199472923487 -1.2195801505840456 -0.9579318138752347
0.8103143572807312 -0.4692378801158448 -1.600560188293457 -1.9313131771483363 1.564024806022644 -1.6832893530475062 0.10155315414594346 -0.08364005097903787 0.4350502858739332 -2.458838693733015 -1.2195509552695938 -0.9579552824991813
0.8102989196777344 -0.4692259591868897 -1.6005483865737915 -1.9312893352904261 1.5640597343444824 -1.683305565510885 0.10154603625108866 -0.08364308773191365 0.43505603778094537 -2.4587835664018893 -1.2195444627520335 -0.957995839440618
0.8102989196777344 -0.4692450326732178 -1.6005566120147705 -1.9313198528685511 1.5640789270401 -1.683317009602682 0.10154916981131593 -0.08363722788846514 0.43505018786782684 -2.458802354643698 -1.2195825525199808 -0.9579158136753351
0.8103108406066895 -0.46920986593280034 -1.6005756855010986 -1.9313165150084437 1.5640634298324585 -1.683317009602682 0.10154664002460845 -0.0836417956899304 0.43504661751786305 -2.458792224588544 -1.2195868745208691 -0.9579470358148866
0.8103108406066895 -0.4692295354655762 -1.6005566120147705 -1.931307931939596 1.5640789270401 -1.6833203474627894 0.10154725683920315 -0.0836390789628671 0.4350518201406127 -2.4587723959430896 -1.2195909325560654 -0.9579464818096823
0.8103262782096863 -0.4692259591868897 -1.6005566120147705 -1.9313470325865687 1.5640438795089722 -1.6833398977862757 0.10154979874564618 -0.08364086191566618 0.4350469941705357 -2.45880585302894 -1.2196414253812757 -0.9579298181624738
0.8103143572807312 -0.4692223829082032 -1.6005446910858154 -1.9313198528685511 1.5640634298324585 -1.6832893530475062 0.10154564506767219 -0.08364278721538204 0.43505311125606344 -2.4587894102462107 -1.2195484814547963 -0.9579570619006627
0.8103262782096863 -0.4692450326732178 -1.600563883781433 -1.9313198528685511 1.5640475749969482 -1.6833203474627894 0.10155441041013563 -0.0836355296783593 0.43504854424091444 -2.4588095895552167 -1.219615316597226 -0.9579230670080521
0.8103262782096863 -0.46920986593280034 -1.6005566120147705 -1.9313231907286585 1.5640597343444824 -1.6833089033709925 0.10154583454985472 -0.08364291980712815 0.4350501129228662 -2.458776981603831 -1.219588436711034 -0.9579583938323619
0.8102918863296509 -0.4692295354655762 -1.600541114807129 -1.9313045940794886 1.564056158065796 -1.68333608308901 0.1015453671888957 -0.08364435874625684 0.43505575416226844 -2.458788810181963 -1.2195811026956673 -0.9579943164911451
0.8103108406066895 -0.4692295354655762 -1.600564956665039 -1.9313198528685511 1.5640597343444824 -1.6833327452289026 0.10154941296017325 -0.0836393713097487 0.4350484473755263 -2.4587977505369585 -1.2196116714713583 -0.957939026647628
0.8103143572807312 -0.4692259591868897 -1.6005446910858154 -1.9313198528685511 1.5640403032302856 -1.683305565510885 0.10154788079923402 -0.08364352213819407 0.4350530810971174 -2.458805285385015 -1.2195680219608445 -0.957973422178237
0.8102954030036926 -0.4692295354655762 -1.6005685329437256 -1.9313231907286585 1.5640634298324585 -1.6832965056048792 0.1015482705827768 -0.08364028941661698 0.4350472202274285 -2.4588260390617207 -1.2195486798506003 -0.9579226708517898
0.8103108406066895 -0.4692487281611939 -1.600553035736084 -1.9313198528685511 1.5640597343444824 -1.6832931677447718 0.10155173734214729 -0.08363692608022802 0.4350509668816288 -2.4588176919282683 -1.21956096337728 -0.9579199515256112
0.8102989196777344 -0.4692295354655762 -1.6005756855010986 -1.9313165150084437 1.5640597343444824 -1.6832860151873987 0.10154972941478344 -0.08363920401760298 0.4350464296040326 -2.4588305190129693 -1.2195380834585616 -0.9579210588189608
0.8102799654006958 -0.4692450326732178 -1.600572109222412 -1.931338449517721 1.564075231552124 -1.6832931677447718 0.10154949932170115 -0.08363763116832701 0.4350443593436288 -2.4588536721564003 -1.2195405176189378 -0.9578762449069862
0.8102954030036926 -0.4692259591868897 -1.600560188293457 -1.9313231907286585 1.5640597343444824 -1.683305565510885 0.10154682156028058 -0.08364230386988122 0.4350491476454621 -2.458817609233693 -1.2195562381469802 -0.9579419721558626
0.8103108406066895 -0.4692259591868897 -1.6005566120147705 -1.9313165150084437 1.5640634298324585 -1.6833327452289026 0.10154750513439217 -0.08364088301025513 0.4350507889076651 -2.4587842238287685 -1.2196070106013133 -0.957954718825417
0.8103108406066895 -0.4692450326732178 -1.6005446910858154 -1.9313231907286585 1.5640475749969482 -1.6833398977862757 0.10155079520601887 -0.08363953596948714 0.43505248153473963 -2.4588043480474684 -1.219618990428202 -0.9579512411968455
0.8102989196777344 -0.4692414563945313 -1.600541114807129 -1.9313045940794886 1.5640475749969482 -1.6832893530475062 0.10154885390339104 -0.08364174302062233 0.43505564142030434 -2.4588159867204262 -1.2195289184675435 -0.9579720499059636
0.8103024363517761 -0.4692332309535523 -1.600541114807129 -1.931307931939596 1.5640597343444824 -1.683305565510885 0.10154670101875504 -0.0836423351252617 0.43505530267846176 -2.45879326142534 -1.219554797124201 -0.957972606078399
0.8102954030036926 -0.46921344221148686 -1.600553035736084 -1.9313351116576136 1.564056158065796 -1.6833518187152308 0.10154364496770094 -0.08364611540634136 0.43504940666026437 -2.4587978224439566 -1.2196152683247812 -0.9579659071178593
0.8102989196777344 -0.4692378801158448 -1.600563883781433 -1.9313351116576136 1.5640403032302856 -1.683317009602682 0.1015510602983298 -0.08364039031928527 0.43504671503517983 -2.458845522900366 -1.2195820616018873 -0.9579247850566734
0.8103108406066895 -0.4692295354655762 -1.6005566120147705 -1.931338449517721 1.5640789270401 -1.6833203474627894 0.10154695958565631 -0.08363938374524355 0.4350480219277521 -2.45879316284209 -1.219601454737599 -0.9579098666172416
0.8103143572807312 -0.4692414563945313 -1.600553035736084 -1.9313165150084437 1.5640634298324585 -1.6832893530475062 0.10155039837112687 -0.08363779337797098 0.43505145139308793 -2.4588058253113254 -1.219556680159499 -0.9579281485846229
0.8103108406066895 -0.4692295354655762 -1.600553035736084 -1.9313198528685511 1.5640597343444824 -1.6832893530475062 0.1015479896187951 -0.08364086524906528 0.43505115090809826 -2.4588060593132117 -1.2195492904839524 -0.9579419996812522
0.8102954030036926 -0.4692295354655762 -1.6005375385284424 -1.9312926731505335 1.5640438795089722 -1.6833122412311 0.10154616661540725 -0.08364511074481934 0.4350580510789592 -2.4587947288364997 -1.2195458092961706 -0.9580144810574532
0.810317873954773 -0.46919436872515874 -1.6005566120147705 -1.9312855205931605 1.5640475749969482 -1.6833275000201624 0.10154328057958983 -0.08364735021764369 0.43505495196906935 -2.458751102997749 -1.219583961476539 -0.9580378842267202
0.8102989196777344 -0.46921344221148686 -1.600564956665039 -1.9313045940794886 1.5640283823013306 -1.6833275000201624 0.10154750614603861 -0.08364572390339274 0.43505050633711956 -2.4588149550023 -1.2195758800816363 -0.9580006594157787
0.8102954030036926 -0.4692332309535523 -1.600528597831726 -1.9313284359373988 1.564075231552124 -1.6833236853228968 0.10154338827144263 -0.08364383837511374 0.435055586674736 -2.458784608893502 -1.2195764361097126 -0.9579586002248074
0.8103143572807312 -0.4692223829082032 -1.6005756855010986 -1.9312893352904261 1.5640634298324585 -1.68333608308901 0.10154964300547246 -0.08363859816495445 0.43504988031885067 -2.4587720756604656 -1.2196113265624282 -0.9579686812624755
0.810303807258606 -0.4692368072322388 -1.6005566120147705 -1.9313575230040492 1.5640634298324585 -1.6833203474627894 0.10154863563679892 -0.08363978038431966 0.4350455810730696 -2.4588301305417546 -1.2196003467897 -0.9578910896414627
0.8103024363517761 -0.4692605298808594 -1.6005494594573975 -1.931326528588766 1.5640634298324585 -1.683281723652975 0.10155260125576085 -0.08363563746383113 0.4350508332335391 -2.458836109851316 -1.2195418753596599 -0.9578986466235305
0.8102989196777344 -0.4692450326732178 -1.6005876064300537 -1.9313231907286585 1.5640438795089722 -1.683317009602682 0.10155516772857903 -0.0836356033274 0.43504274930995807 -2.458855431819697 -1.219589012702436 -0.9578994842687331
0.8103024363517761 -0.46921713769946294 -1.6005685329437256 -1.9312855205931605 1.5640597343444824 -1.6832965056048792 0.10154705050090147 -0.08364197827386805 0.43505202816224486 -2.458789171951224 -1.2195387496870838 -0.95798353943776
0.8102989196777344 -0.469267801647522 -1.6005793809890747 -1.9313198528685511 1.5640634298324585 -1.6833203474627894 0.10155736456732525 -0.0836306859096276 0.4350448082258983 -2.4588452493524793 -1.2196002408882654 -0.9578730160833403
0.8103143572807312 -0.46919436872515874 -1.600572109222412 -1.9313198528685511 1.5640716552734375 -1.68333608308901 0.10154290178162631 -0.08364457831300287 0.43504716017307465 -2.458764352017093 -1.2196123086251007 -0.957964156586262
0.8103108406066895 -0.46919436872515874 -1.600553035736084 -1.9313165150084437 1.5640438795089722 -1.6833236853228968 0.10154220914967566 -0.08364905672373046 0.4350519060788259 -2.4587802438453537 -1.2195799083828605 -0.9580084549153229
0.8103024363517761 -0.4692295354655762 -1.6005685329437256 -1.9313165150084437 1.564067006111145 -1.68333608308901 0.10154868614033867 -0.0836392813584941 0.43504805045318107 -2.458797562878117 -1.21960794649613 -0.9579366438461381
0.810317873954773 -0.4692259591868897 -1.600553035736084 -1.9313231907286585 1.5640475749969482 -1.683317009602682 0.10154865537865948 -0.08364169069355881 0.43505077191747044 -2.458799798559078 -1.2195924088214771 -0.9579563093705735
0.8103108406066895 -0.4692450326732178 -1.600553035736084 -1.9313198528685511 1.5640597343444824 -1.6833203474627894 0.1015510157310075 -0.08363768455353916 0.43505100232340893 -2.4588048780320446 -1.219596231767597 -0.9579314895394462
0.8103452324867249 -0.4692414563945313 -1.6005685329437256 -1.9312893352904261 1.5640716552734375 -1.6833398977862757 0.10155454881839747 -0.08363192189507364 0.4350513180917605 -2.458745825882795 -1.2196561741660497 -0.9579414557993694
0.8102834820747375 -0.4692414563945313 -1.600528597831726 -1.9313231907286585 1.5640475749969482 -1.6833275000201624 0.10154588696826194 -0.08364506499839644 0.43505616556333404 -2.4588186370216114 -1.2195651226704496 -0.9579787619419895
0.8102954030036926 -0.4692414563945313 -1.6005566120147705 -1.9313231907286585 1.5640634298324585 -1.6833236853228968 0.10154917503486413 -0.08363933668087387 0.4350498094701255 -2.458815737591327 -1.219585211530602 -0.9579297675188393
0.8102989196777344 -0.46920986593280034 -1.6005446910858154 -1.9313045940794886 1.5640283823013306 -1.6832893530475062 0.10154438799238744 -0.08364899767564112 0.4350551365339514 -2.458813148333089 -1.2195164834474446 -0.9580193133264353
0.8103143572807312 -0.4692450326732178 -1.600572109222412 -1.9313198528685511 1.5640789270401 -1.68333608308901 0.10155231124397343 -0.08363371812826373 0.43504667321945634 -2.458792716174986 -1.2196306788233409 -0.9578981608897877
0.8102954030036926 -0.46921344221148686 -1.6005876064300537 -1.931307931939596 1.5640634298324585 -1.6833398977862757 0.10154755407997829 -0.0836410497025768 0.43504494794104465 -2.458801258410406 -1.2196027487812384 -0.9579487429480354
0.8102989196777344 -0.4692259591868897 -1.600572109222412 -1.9313045940794886 1.5640438795089722 -1.68333608308901 0.10154977416881933 -0.08364127419286732 0.4350487614599106 -2.458811989194292 -1.2195964471139533 -0.9579682847008498
0.810317873954773 -0.4692259591868897 -1.6005446910858154 -1.9313231907286585 1.564075231552124 -1.6833236853228968 0.1015458204794589 -0.08364097982519125 0.4350526594716907 -2.4587681650094115 -1.2196026835672613 -0.9579484358973894
0.8102954030036926 -0.46919436872515874 -1.600541114807129 -1.9313165150084437 1.5640597343444824 -1.6833236853228968 0.10153844037255036 -0.08365111122034012 0.4350546066961841 -2.458771671762808 -1.2195610130157406 -0.9580155419502677
0.8102954030036926 -0.4692368072322388 -1.600541114807129 -1.931338449517721 1.5640597343444824 -1.683317009602682 0.10154651384928721 -0.08364262008469409 0.4350514701826274 -2.4588180438862737 -1.219574078893337 -0.9579365242409272
0.8102989196777344 -0.4692295354655762 -1.6005375385284424 -1.9313045940794886 1.5640789270401 -1.6833203474627894 0.10154401484898617 -0.08364264650384158 0.4350565611878323 -2.458767141747132 -1.2195699911793996 -0.9579764963725264
0.810329794883728 -0.4692295354655762 -1.600572109222412 -1.931307931939596 1.564056158065796 -1.6833122412311 0.10155220610766696 -0.08363665821666355 0.43504830955423157 -2.458789374099672 -1.2196030367109227 -0.9579369739583774
0.8102989196777344 -0.4692295354655762 -1.600563883781433 -1.9313231907286585 1.5640634298324585 -1.6833203474627894 0.10154800961426769 -0.08364051492674716 0.4350482746107228 -2.458810880998279 -1.2195830586914596 -0.9579335616249853
0.8103108406066895 -0.4692450326732178 -1.6005446910858154 -1.9313198528685511 1.5640475749969482 -1.683317009602682 0.10155082771864934 -0.08363950263336936 0.4350528969641426 -2.458810747031607 -1.2195870782896576 -0.9579492665277177
0.8103108406066895 -0.4692295354655762 -1.6005566120147705 -1.931307931939596 1.5640634298324585 -1.6833203474627894 0.10154828706169967 -0.08364006329288357 0.43505182287479915 -2.4587855163228545 -1.2195886087227474 -0.9579574836879564
0.8102989196777344 -0.4692642253688355 -1.600560188293457 -1.9313198528685511 1.5640475749969482 -1.683317009602682 0.10155542874310854 -0.08363483203179012 0.43504919821341387 -2.4588444140079093 -1.2195856167181514 -0.9579107329228119
0.8103108406066895 -0.4692378801158448 -1.6005911827087402 -1.9313231907286585 1.5640525817871094 -1.6832893530475062 0.10155461658759105 -0.08363485975416385 0.4350420053054374 -2.458846083091266 -1.219565216866326 -0.957887262724143
0.8102989196777344 -0.46920986593280034 -1.6005375385284424 -1.931296011010641 1.5640789270401 -1.683343235646383 0.10154025744876545 -0.08364659790292109 0.4350578178843525 -2.4587392282824965 -1.2195910836657924 -0.958016391846288
0.8103024363517761 -0.4692450326732178 -1.6005566120147705 -1.931338449517721 1.5640475749969482 -1.683343235646383 0.10155136695345196 -0.08363904793718838 0.4350478788866714 -2.458828661308206 -1.2196234318363093 -0.9579216909048828
0.8103108406066895 -0.4692259591868897 -1.6005793809890747 -1.9313198528685511 1.5640475749969482 -1.6833203474627894 0.10155124517411296 -0.08363906999548547 0.43504521252388145 -2.4588201400217247 -1.219596882784277 -0.9579313993702261
0.8103213906288147 -0.4692450326732178 -1.6005756855010986 -1.9312893352904261 1.5640716552734375 -1.6833275000201624 0.10155410715766608 -0.0836327127472066 0.4350496616277952 -2.4587778825979845 -1.2196165908211758 -0.9579315659439295
0.8102954030036926 -0.4692295354655762 -1.600553035736084 -1.9313131771483363 1.5640597343444824 -1.6833203474627894 0.10154676341157659 -0.0836423662327006 0.43505198176806753 -2.458802755445106 -1.2195714339446395 -0.9579621400942177
0.8102989196777344 -0.4692259591868897 -1.600572109222412 -1.9312926731505335 1.5640320777893066 -1.68333608308901 0.10155067480074235 -0.08364190478388736 0.43505024724819363 -2.4588138688376655 -1.2195905667586318 -0.9579909658998267
0.810329794883728 -0.46919794500384526 -1.6005685329437256 -1.9313045940794886 1.5640597343444824 -1.6832893530475062 0.10154540542027521 -0.08364332972909426 0.43504983818201215 -2.4587687810444465 -1.2195596671803686 -0.9579746829302206
0.8102954030036926 -0.4692533773234864 -1.6005446910858154 -1.931338449517721 1.564075231552124 -1.6833327452289026 0.10154914631191728 -0.08363778672042672 0.43505049751111613 -2.4588126912646318 -1.2196044210410177 -0.9579054442446914
0.8102918863296509 -0.46922071397814946 -1.6005840301513672 -1.9313198528685511 1.5640283823013306 -1.683317009602682 0.10155046656140038 -0.08364270780375493 0.4350442118591377 -2.4588531860254634 -1.2195681834045182 -0.9579498216137463
0.810279905796051 -0.4692523044398804 -1.600560188293457 -1.9313231907286585 1.5640789270401 -1.6833236853228968 0.101549393994787 -0.08363725147227634 0.43504889161744215 -2.4588254766038204 -1.2195751767534793 -0.9579054958909841
0.8103143572807312 -0.4692450326732178 -1.6005446910858154 -1.9313470325865687 1.5640634298324585 -1.6833203474627894 0.10154980308817993 -0.08363840994092483 0.4350495113715454 -2.45881159810829 -1.219607233730926 -0.9579053534328641
0.8102989196777344 -0.4692450326732178 -1.600541114807129 -1.9313165150084437 1.564056158065796 -1.6833203474627894 0.10154886558243242 -0.08364058286969103 0.4350541219273728 -2.4588075289174123 -1.2195771915961349 -0.9579554572577489
0.8103108406066895 -0.4692487281611939 -1.600541114807129 -1.9313045940794886 1.5640597343444824 -1.6833275000201624 0.1015504626315557 -0.0836382676242309 0.43505556953707225 -2.4587861746945157 -1.2195977804898552 -0.9579615381896828
0.8102954030036926 -0.4692295354655762 -1.6005756855010986 -1.931307931939596 1.5640511512756348 -1.6832893530475062 0.10155008946292049 -0.08364002059143996 0.43504749937412907 -2.4588336371646555 -1.2195344024031718 -0.9579392410124496
0.8103143572807312 -0.4692450326732178 -1.6005566120147705 -1.9313231907286585 1.5640320777893066 -1.683343235646383 0.10155354286361451 -0.08363866926852484 0.43504978075616146 -2.458821375517809 -1.219629136844526 -0.9579478864821251
0.8102989196777344 -0.4692259591868897 -1.6005685329437256 -1.931307931939596 1.5640634298324585 -1.6833236853228968 0.1015480150143939 -0.08364051390201319 0.43504915362215857 -2.458799966432091 -1.2195826483424284 -0.9579514547129914
0.8102954030036926 -0.4692332309535523 -1.600572109222412 -1.9313351116576136 1.5640438795089722 -1.6833275000201624 0.10155060268578048 -0.08364044368504808 0.4350448935240058 -2.4588439187103273 -1.219593994135822 -0.957921613901557
0.8103024363517761 -0.4692259591868897 -1.6005566120147705 -1.931300779382223 1.564067006111145 -1.6833308378802698 0.10154671769886667 -0.083641352156098 0.4350527467326172 -2.458778276746527 -1.2195901885204834 -0.957972757064823
0.8103143572807312 -0.4692259591868897 -1.6005375385284424 -1.9313231907286585 1.5640597343444824 -1.6833203474627894 0.10154570254077477 -0.08364321764673696 0.43505428430254717 -2.4587806294709016 -1.2195895153972576 -0.9579680702244674
0.8103262782096863 -0.4692450326732178 -1.6005566120147705 -1.931338449517721 1.5640634298324585 -1.6833327452289026 0.10155230703268714 -0.08363561970048176 0.435047876071845 -2.458799166065217 -1.2196382895277214 -0.9579014663947214
0.8103024363517761 -0.4692523044398804 -1.600541114807129 -1.931307931939596 1.5640634298324585 -1.6833327452289026 0.10155017988681644 -0.08363818566879375 0.43505511915708117 -2.45879283338745 -1.2195983854820136 -0.9579541818273006
0.8103143572807312 -0.4692332309535523 -1.6005756855010986 -1.9313198528685511 1.5640634298324585 -1.6833203474627894 0.10155146400347059 -0.08363667647515496 0.4350459780806325 -2.4588061950549225 -1.2196044010822569 -0.9579149294975634
0.8102989196777344 -0.4692450326732178 -1.600541114807129 -1.9313351116576136 1.564075231552124 -1.683305565510885 0.10154741648976597 -0.0836395570959797 0.43505180401962634 -2.458809635047625 -1.2195665970850307 -0.9579157421995363
0.8102954030036926 -0.4692295354655762 -1.600563883781433 -1.9313012562193812 1.564075231552124 -1.6833236853228968 0.10154714458302631 -0.08363990336762836 0.4350510024935216 -2.458787655371895 -1.219577830949022 -0.9579532914722727
0.8103333115577698 -0.4692295354655762 -1.600541114807129 -1.9313198528685511 1.5640475749969482 -1.6833327452289026 0.10154925408988755 -0.08364084965422042 0.43505385657621 -2.4587728947572423 -1.2196267725713326 -0.9579704074278429
0.8103143572807312 -0.4692295354655762 -1.600521445274353 -1.9313198528685511 1.5640438795089722 -1.6833203474627894 0.10154556579539478 -0.08364547425775104 0.43505831796907 -2.4587832444201854 -1.2195817210073618 -0.957998354531157
0.8102989196777344 -0.4692259591868897 -1.6005566120147705 -1.9312855205931605 1.5640438795089722 -1.6833203474627894 0.10154810951969238 -0.08364302587672631 0.4350546499515125 -2.4587944032151934 -1.2195634395262478 -0.9580056606961213
0.8102954030036926 -0.46920986593280034 -1.600553035736084 -1.9313231907286585 1.5640597343444824 -1.6833122412311 0.10154282498744241 -0.08364650320394991 0.43505092396771233 -2.4587992377725256 -1.2195572833444976 -0.9579716253907632
0.8103143572807312 -0.4692605298808594 -1.6005756855010986 -1.9313131771483363 1.5640788078308105 -1.6833203474627894 0.10155583724608713 -0.08363003019030968 0.4350465443033044 -2.458807233284413 -1.2196137154351725 -0.9578792433619187
0.8103073239326477 -0.46919794500384526 -1.6005446910858154 -1.9313012562193812 1.5640283823013306 -1.6833122412311 0.10154279566921594 -0.08365055766781558 0.4350556661348222 -2.458787018575915 -1.219551396586695 -0.9580414155550405
0.810329794883728 -0.46921713769946294 -1.6005566120147705 -1.9313198528685511 1.564024806022644 -1.6832860151873987 0.10154990307634831 -0.083643255397272 0.43505046491018423 -2.4588149491562574 -1.219557687403607 -0.957971566154155
0.810329794883728 -0.4692487281611939 -1.6005446910858154 -1.9313198528685511 1.564075231552124 -1.6833275000201624 0.10155129605522932 -0.0836350626765303 0.43505285662925314 -2.4587699397343092 -1.219627714951846 -0.9579229838464763
0.8103073239326477 -0.4692259591868897 -1.6005375385284424 -1.9313231907286585 1.564075231552124 -1.6832860151873987 0.10154408402971607 -0.0836429475148408 0.4350542815643599 -2.458786427519652 -1.2195378572756363 -0.957949935765666
0.810279905796051 -0.4692259591868897 -1.600553035736084 -1.931307931939596 1.5640475749969482 -1.6832965056048792 0.10154562819652588 -0.08364539388261494 0.43505267102686496 -2.4588291039854813 -1.2195172622374355 -0.9579791795258885
0.8102989196777344 -0.4692259591868897 -1.600572109222412 -1.9313351116576136 1.5640403032302856 -1.683305565510885 0.10154971462604342 -0.08364180615544953 0.4350449638893694 -2.458847343934158 -1.2195654184903646 -0.9579262355535518
0.8102954030036926 -0.4692368072322388 -1.600560188293457 -1.9313131771483363 1.564056158065796 -1.6832898298846644 0.10154927513942809 -0.08364020457964699 0.4350502905633715 -2.4588271748685897 -1.2195348007903541 -0.957939388989831
0.8103262782096863 -0.4692332309535523 -1.6005566120147705 -1.9313351116576136 1.5640367269515991 -1.6832893530475062 0.10155181026687005 -0.08363970466302548 0.4350484094146899 -2.458827898615408 -1.2195707916406124 -0.9579272631199716
0.8102954030036926 -0.4692414563945313 -1.6005756855010986 -1.9313198528685511 1.5640634298324585 -1.6833275000201624 0.10155148487668891 -0.08363691313480032 0.43504589918405895 -2.458825026388038 -1.2195956884031016 -0.9579118732286334
0.8103143572807312 -0.46919794500384526 -1.600560188293457 -1.9313351116576136 1.5640511512756348 -1.6833203474627894 0.10154339118605958 -0.08364679301345887 0.43504793391649166 -2.458792364070301 -1.2195905038265176 -0.9579663097024754
0.8103143572807312 -0.4692295354655762 -1.600553035736084 -1.9313231907286585 1.5640403032302856 -1.683305565510885 0.10154954297318317 -0.08364177568305217 0.43505073893532975 -2.4588156836176998 -1.2195732371295867 -0.9579551067291912
0.8103179335594177 -0.4692414563945313 -1.6005685329437256 -1.9313198528685511 1.564075231552124 -1.6833089033709925 0.10155173070801726 -0.08363477184191914 0.4350475192507812 -2.4587982593846056 -1.2195951445120132 -0.9579013363403194
0.8102954030036926 -0.4692332309535523 -1.600521445274353 -1.9313045940794886 1.5640511512756348 -1.6833203474627894 0.10154436715483334 -0.08364602626054454 0.4350601803841045 -2.4587851586957954 -1.2195576800723864 -0.9580120144363188
0.8103108406066895 -0.4692295354655762 -1.600541114807129 -1.9313012562193812 1.5640475749969482 -1.68333608308901 0.10154755566871727 -0.08364294586203705 0.4350561711192474 -2.45877786887543 -1.2195997950461381 -0.9579994625088417
0.8102989196777344 -0.46919794500384526 -1.600572109222412 -1.9313351116576136 1.5640634298324585 -1.6833236853228968 0.10154270702024137 -0.08364608672692789 0.4350452282586191 -2.458801812370724 -1.219583684000654 -0.9579481884814984
0.8102799654006958 -0.4692368072322388 -1.600541114807129 -1.9313317737975062 1.5640825033187866 -1.6833203474627894 0.10154377403397963 -0.08364267478353968 0.4350522970238934 -2.4588059392027137 -1.219562466890255 -0.9579332750453494
0.8102869987487793 -0.4692450326732178 -1.6005566120147705 -1.9313198528685511 1.564056158065796 -1.6833203474627894 0.10154968636740658 -0.08363988469046804 0.4350501918909161 -2.458830389990889 -1.2195703346279265 -0.9579359641290015
0.8103143572807312 -0.46920986593280034 -1.6005685329437256 -1.9313198528685511 1.564024806022644 -1.6832893530475062 0.1015486152422247 -0.08364482158069705 0.43504783108688183 -2.4588298380095504 -1.2195465460522095 -0.9579708931228014
0.8103143572807312 -0.4692332309535523 -1.6005948781967163 -1.9313131771483363 1.5640438795089722 -1.6833022276507776 0.10155512018444807 -0.08363544640718817 0.43504245962267996 -2.4588381548236296 -1.219581357167204 -0.957909046237091
0.810317873954773 -0.4692295354655762 -1.6005685329437256 -1.9313198528685511 1.564024806022644 -1.6833203474627894 0.10155275015419386 -0.08364042745075238 0.43504764254397327 -2.458828543292245 -1.2195988319946258 -0.9579544540766312
0.8103143572807312 -0.4692295354655762 -1.6005756855010986 -1.9313165150084437 1.5640403032302856 -1.6833275000201624 0.10155231231934342 -0.08363887053483167 0.43504643306106616 -2.458818275863807 -1.2196081351568786 -0.957941658341211
0.8103143572807312 -0.4692414563945313 -1.6005566120147705 -1.9313231907286585 1.5640475749969482 -1.6833203474627894 0.10155181432993099 -0.08363841892696763 0.43504981228484874 -2.4588144888368677 -1.2195994792285973 -0.9579351994829514
0.810317873954773 -0.4692414563945313 -1.600560188293457 -1.9313351116576136 1.5640438795089722 -1.683305565510885 0.10155266498080986 -0.08363796743134215 0.4350475182036543 -2.4588308109325023 -1.2195883084906334 -0.9579144468747751
0.8103143572807312 -0.4692295354655762 -1.600560188293457 -1.9312926731505335 1.564075231552124 -1.6833203474627894 0.10154837224596683 -0.08363835602423172 0.4350529088416014 -2.4587646228521924 -1.2195902565732617 -0.9579622011281796
0.8103227615356445 -0.46921713769946294 -1.600541114807129 -1.9313351116576136 1.5640634298324585 -1.6833203474627894 0.10154474819520659 -0.08364361092416189 0.4350520734434278 -2.4587749745349217 -1.2196017593416693 -0.9579552474143904
0.8102834820747375 -0.4692450326732178 -1.6005756855010986 -1.9313198528685511 1.5640511512756348 -1.6833203474627894 0.10155200240547914 -0.08363816966469498 0.43504586705356263 -2.4588505908672267 -1.2195721642387367 -0.9579175414252108
0.8103024363517761 -0.4692368072322388 -1.6005446910858154 -1.9312893352904261 1.5640511512756348 -1.6833203474627894 0.10154857805204912 -0.08364151242831111 0.43505677341091686 -2.4587871490955857 -1.2195694028027098 -0.9579962867802898
0.810279905796051 -0.4692295354655762 -1.6005375385284424 -1.9313198528685511 1.5640789270401 -1.6833203474627894 0.10154227586704738 -0.08364472957983962 0.4350546620750086 -2.458793511682855 -1.2195540551862596 -0.9579631566611156
0.8102918863296509 -0.4692259591868897 -1.6005494594573975 -1.9312893352904261 1.5640597343444824 -1.683305565510885 0.10154557606599696 -0.0836436674809769 0.4350557944650921 -2.4587902113861233 -1.219536987514336 -0.9579963892353883
0.8102918267250061 -0.4692450326732178 -1.600572109222412 -1.9313045940794886 1.5640475749969482 -1.6833017508136194 0.10155265973118116 -0.08363784514683514 0.4350485778705693 -2.458840825191169 -1.2195494572941672 -0.9579356430144255
0.8103108406066895 -0.4692295354655762 -1.6005446910858154 -1.9313165150084437 1.5640789270401 -1.6833203474627894 0.10154574988438064 -0.08364065863364598 0.43505345540789264 -2.458770108237826 -1.219589828884085 -0.9579504933506329
0.8103262782096863 -0.4692450326732178 -1.6005375385284424 -1.931307931939596 1.5640438795089722 -1.6833236853228968 0.1015516266740977 -0.08363894698330239 0.435056003418156 -2.4587853779287427 -1.2196061577328285 -0.9579724894779529
0.8102989196777344 -0.4692332309535523 -1.600560188293457 -1.9313198528685511 1.5640789270401 -1.683317009602682 0.10154729229438342 -0.08363920190097562 0.4350494899726045 -2.458796751808978 -1.2195797463665876 -0.957925691367678
0.8103143572807312 -0.4692259591868897 -1.600553035736084 -1.9313198528685511 1.5640597343444824 -1.683317009602682 0.10154758542459653 -0.0836412421467236 0.43505118518721086 -2.4587901894969466 -1.219589160729668 -0.9579526005792945
0.8103108406066895 -0.46919794500384526 -1.600560188293457 -1.9313198528685511 1.5640634298324585 -1.6833394209491175 0.1015424293764167 -0.0836462178498677 0.4350498308496268 -2.458767316663868 -1.2196087972855232 -0.9579818023335959
0.8103143572807312 -0.4692378801158448 -1.6005566120147705 -1.9313045940794886 1.5640634298324585 -1.683305565510885 0.10155024314852235 -0.08363796015485488 0.43505215829946514 -2.458791573551097 -1.219574358015137 -0.9579466881891423
0.8102918863296509 -0.4692295354655762 -1.6005685329437256 -1.9313317737975062 1.5640634298324585 -1.6832965056048792 0.10154789283043533 -0.08364073225926066 0.4350461519820532 -2.4588348364394 -1.219547718602402 -0.9579132915145937
0.8103024363517761 -0.4692450326732178 -1.600553035736084 -1.931307931939596 1.5640634298324585 -1.683317009602682 0.10155018326831619 -0.08363818422536504 0.435052485345308 -2.458801967767369 -1.2195788202131777 -0.9579444924937977
0.8102989196777344 -0.4692450326732178 -1.6005446910858154 -1.9313131771483363 1.564063310623169 -1.6833203474627894 0.1015488496241704 -0.08363964704246851 0.43505372502988127 -2.458801640473587 -1.2195783321887956 -0.957950091408123
0.8103108406066895 -0.4692487281611939 -1.6005566120147705 -1.9313351116576136 1.5640597343444824 -1.6833327452289026 0.1015520156787357 -0.08363663033070463 0.43504825671123926 -2.4588155212150533 -1.2196206347091965 -0.9579076903968203
0.810317873954773 -0.4692332309535523 -1.600563883781433 -1.9313131771483363 1.5640597343444824 -1.6832898298846644 0.10155065974972044 -0.08363796638345587 0.4350494861205849 -2.458805337506811 -1.2195604284615589 -0.9579308374437068
0.8103073239326477 -0.4692259591868897 -1.600560188293457 -1.931326528588766 1.564056158065796 -1.68333608308901 0.1015480238752462 -0.08364135382340802 0.4350487328503202 -2.458801325315122 -1.219611157526717 -0.9579453646383759
0.8102989196777344 -0.4692414563945313 -1.600553035736084 -1.9313231907286585 1.564056158065796 -1.6833022276507776 0.10154952556728793 -0.0836398896233424 0.43505062182331394 -2.4588246270684793 -1.2195579841455688 -0.9579326982814564
0.8103143572807312 -0.4692295354655762 -1.600560188293457 -1.931338449517721 1.5640597343444824 -1.6833203474627894 0.10154895660683376 -0.0836397975112882 0.4350472142581545 -2.458808893712662 -1.2196037166518716 -0.9579182803404456
0.8102989196777344 -0.46919436872515874 -1.600541114807129 -1.9313198528685511 1.5640283823013306 -1.6832893530475062 0.10154078620929435 -0.08365277889771174 0.43505419685458924 -2.458810533751837 -1.2195152399728124 -0.9580239062463946
0.8103143572807312 -0.4692605298808594 -1.6005566120147705 -1.9313045940794886 1.564056158065796 -1.68333608308901 0.10155514933707485 -0.08363377329430224 0.43505194233064326 -2.4588016024656545 -1.2196220077166982 -0.9579326275551923
0.8102989196777344 -0.4692332309535523 -1.6005876064300537 -1.931338449517721 1.5640475749969482 -1.6832860151873987 0.10155246892053252 -0.08363794316688816 0.4350409627832855 -2.458866386011018 -1.2195491464370973 -0.9578846269456347
0.8102834224700928 -0.4692487281611939 -1.600572109222412 -1.9312926731505335 1.5640634298324585 -1.6833017508136194 0.10155174060894949 -0.08363681402312731 0.4350500232762651 -2.458828873898539 -1.219539615486041 -0.9579364485219682
0.8103108406066895 -0.4692569536021729 -1.6005840301513672 -1.9313231907286585 1.5640634298324585 -1.6833236853228968 0.10155676582289583 -0.08363115243708018 0.4350434425166908 -2.45883201197809 -1.2196170526109353 -0.9578742138966316
0.8103143572807312 -0.4692295354655762 -1.6005250215530396 -1.9313231907286585 1.5640597343444824 -1.68333608308901 0.10154490632611154 -0.08364405232415953 0.4350570886817616 -2.4587685705648576 -1.2196076168401218 -0.9579829123174491
0.8103143572807312 -0.4692295354655762 -1.6005566120147705 -1.9313503704466761 1.5640597343444824 -1.6832893530475062 0.10154841347551628 -0.08364036476777273 0.43504654164334644 -2.4588263083635895 -1.2195649523122645 -0.9579001731387281
0.8103333115577698 -0.4692295354655762 -1.6005756855010986 -1.931326528588766 1.5640475749969482 -1.6833203474627894 0.1015533166522059 -0.08363658381807518 0.43504518547820625 -2.458805706439967 -1.2196241962886951 -0.9579176612514918
0.8102954030036926 -0.46925683439288335 -1.6005446910858154 -1.931307931939596 1.5640634298324585 -1.683305565510885 0.10155090321734903 -0.08363752199070074 0.43505426464373587 -2.458814567722488 -1.2195567796641227 -0.9579391863518685
0.8103108406066895 -0.4692368072322388 -1.600553035736084 -1.931338449517721 1.5640403032302856 -1.6832898298846644 0.10155052013333128 -0.08364079272758307 0.4350487701198651 -2.458839939339303 -1.219555909917305 -0.9579248757284448
0.8102954030036926 -0.4692259591868897 -1.600563883781433 -1.931326528588766 1.5640320777893066 -1.6833236853228968 0.101549068783239 -0.08364363080198653 0.43504789904999697 -2.4588389516055638 -1.2195788541891477 -0.9579578991217008
0.8102989196777344 -0.4692450326732178 -1.6005566120147705 -1.9312893352904261 1.5640716552734375 -1.6833203474627894 0.10154995046830952 -0.08363738500068912 0.43505398736285883 -2.4587864797949535 -1.2195754260064204 -0.9579584634032321
0.8103143572807312 -0.4692332309535523 -1.6005566120147705 -1.931307931939596 1.564056158065796 -1.6833203474627894 0.10154978621676636 -0.08363940958191252 0.43505178873507394 -2.4587912340760614 -1.219592699220312 -0.9579572901424269
0.8102954030036926 -0.4692223829082032 -1.600572109222412 -1.931307931939596 1.5640634298324585 -1.6833203474627894 0.1015474495477885 -0.08364115682710546 0.4350483768448863 -2.4588041892896726 -1.2195742410299693 -0.9579515026463271
0.810317873954773 -0.4692223829082032 -1.600572109222412 -1.9313165150084437 1.5640403032302856 -1.6833203474627894 0.10155078281926191 -0.08364042958850999 0.43504731270873415 -2.458810716512201 -1.2195987840632716 -0.9579517522013616
0.8102989196777344 -0.4692295354655762 -1.6005756855010986 -1.9313231907286585 1.5640634298324585 -1.6833327452289026 0.10154941871660522 -0.08363903596811699 0.4350455980919778 -2.458814231550463 -1.219603743440592 -0.9579226338439014
0.8103108406066895 -0.4692450326732178 -1.6005685329437256 -1.9313351116576136 1.5640597343444824 -1.6833270231830042 0.10155271736475258 -0.08363589491121504 0.4350455885851298 -2.4588232991311165 -1.2196157471080296 -0.9578963230440438
0.8102989196777344 -0.4692450326732178 -1.600563883781433 -1.9313012562193812 1.5640320777893066 -1.6833122412311 0.10155333357457363 -0.08363910664857155 0.43505086154208644 -2.4588361283455153 -1.2195651853911949 -0.9579614109783388
0.8103262782096863 -0.4692450326732178 -1.600572109222412 -1.931307931939596 1.5640403032302856 -1.6832860151873987 0.10155599201426352 -0.08363484167659213 0.4350481637385407 -2.4588262480048915 -1.2195667776259904 -0.957923689562705
0.8102954030036926 -0.4692295354655762 -1.6005566120147705 -1.9313389263548792 1.5640597343444824 -1.68333608308901 0.1015469396074409 -0.08364217521567532 0.43504796596965994 -2.458816755192722 -1.219602679517355 -0.957931063726107
0.8103108406066895 -0.4692295354655762 -1.6005339622497559 -1.9313351116576136 1.564056158065796 -1.683305565510885 0.10154580136544175 -0.08364363512155848 0.4350535780331034 -2.4588003238865848 -1.2195693034460333 -0.9579533620251186
0.8103227615356445 -0.4692295354655762 -1.6005566120147705 -1.9313165150084437 1.5640475749969482 -1.6833236853228968 0.10155025452686445 -0.08363994549300696 0.4350507574408151 -2.4587934928321875 -1.2196069665263438 -0.9579561991344928
0.8103143572807312 -0.4692295354655762 -1.600541114807129 -1.9313012562193812 1.5640634298324585 -1.6832931677447718 0.10154679582304002 -0.08364158169943506 0.4350561683047497 -2.4587777451202943 -1.2195484166737305 -0.9579760752669663
0.8102989196777344 -0.4692223829082032 -1.6005446910858154 -1.9313231907286585 1.5640634298324585 -1.6833270231830042 0.10154432130486547 -0.08364438815569858 0.4350526958255857 -2.4587903919141256 -1.219583049508809 -0.9579669324759141
0.8103073239326477 -0.4692295354655762 -1.600553035736084 -1.9313045940794886 1.5640597343444824 -1.6833203474627894 0.10154784408875167 -0.08364106998916024 0.43505305001751265 -2.4587868918213682 -1.219581764210833 -0.9579693236200811
0.8102799654006958 -0.4692605298808594 -1.600541114807129 -1.931307931939596 1.5640634298324585 -1.6833203474627894 0.10154990667367753 -0.08363877938721648 0.4350550402639144 -2.4588220273320522 -1.2195594772772096 -0.9579469369831414
0.8102989196777344 -0.4692295354655762 -1.6005566120147705 -1.9313231907286585 1.5640634298324585 -1.6833122412311 0.10154714136866706 -0.08364142621569229 0.4350499237668348 -2.4588089933583666 -1.2195696856503284 -0.9579401727362575
0.8103333711624146 -0.4692259591868897 -1.600541114807129 -1.9313165150084437 1.564056158065796 -1.683317009602682 0.10154802266560244 -0.08364099914032236 0.43505430475269213 -2.458766830740566 -1.2196046071569644 -0.9579684860168005
0.8102954030036926 -0.4692295354655762 -1.6005375385284424 -1.9313198528685511 1.5640634298324585 -1.6833203474627894 0.10154460232191422 -0.08364414029393324 0.43505466480919847 -2.4587936025317996 -1.2195690078360084 -0.9579701094855038
0.8103143572807312 -0.4692450326732178 -1.600541114807129 -1.9313231907286585 1.5640403032302856 -1.6832893530475062 0.10155114574374675 -0.08364008891527092 0.4350532938907652 -2.4588242558283864 -1.2195526705003625 -0.9579465730776915
0.8102989196777344 -0.4692450326732178 -1.600575566291809 -1.931326528588766 1.5640475749969482 -1.683305565510885 0.10155345202629089 -0.08363691072417356 0.4350450638702187 -2.458850700068881 -1.2195712331181892 -0.9579043193142682
0.8102989196777344 -0.4692295354655762 -1.6005250215530396 -1.9312926731505335 1.564056158065796 -1.6833270231830042 0.10154414992379908 -0.08364554243246398 0.43506088754855476 -2.458767242556364 -1.2195671713849108 -0.9580237323493184
0.8103073239326477 -0.4692414563945313 -1.6005446910858154 -1.9312893352904261 1.5640525817871094 -1.68333608308901 0.1015497996147122 -0.08363997101307769 0.43505672858352074 -2.4587790358525083 -1.2195978000485834 -0.9579925231543546
0.8102989196777344 -0.4692487281611939 -1.6005685329437256 -1.9313231907286585 1.564056158065796 -1.683305565510885 0.1015527958393053 -0.08363645512169726 0.43504703743917555 -2.4588388843332822 -1.219570232311595 -0.9579062362922389
0.8103143572807312 -0.4692368072322388 -1.600541114807129 -1.9313198528685511 1.5640634298324585 -1.6833203474627894 0.10154803468316662 -0.08364027487987719 0.43505378406456396 -2.4587850595650877 -1.2195938376640585 -0.9579521332626459
0.8102989196777344 -0.4692487281611939 -1.6005566120147705 -1.9313045940794886 1.5640438795089722 -1.683343235646383 0.10155236991587832 -0.08363854316799686 0.4350520577358419 -2.4588142269872444 -1.2196085439256157 -0.9579614165527498
0.8103262782096863 -0.4692487281611939 -1.6005756855010986 -1.931338449517721 1.5640634298324585 -1.6832898298846644 0.10155530582454168 -0.08363247100094887 0.4350435148945746 -2.458830947002034 -1.2195883738474174 -0.9578629222986647
0.8103143572807312 -0.4692295354655762 -1.6005566120147705 -1.931277414361471 1.5640634298324585 -1.6832898298846644 0.10154887836857063 -0.08363940148098481 0.43505562110046947 -2.45877335192447 -1.2195409920747846 -0.9579852060404291
0.8103108406066895 -0.4692450326732178 -1.600553035736084 -1.9313198528685511 1.5640438795089722 -1.6833327452289026 0.10155206971516714 -0.08363869161209801 0.43505100514219114 -2.4588136047542304 -1.2196105168486069 -0.9579459841537824
0.8103298544883728 -0.4692450326732178 -1.600541114807129 -1.9313045940794886 1.5640438795089722 -1.6832965056048792 0.10155238529611563 -0.08363810227856885 0.4350556077906606 -2.4587928339978986 -1.2195736840116813 -0.9579641660504844
0.8103108406066895 -0.4692259591868897 -1.6005685329437256 -1.9313198528685511 1.564067006111145 -1.6833203474627894 0.10154865822336284 -0.08363919524993138 0.4350476693126974 -2.4587962922729396 -1.2195960987196142 -0.9579306265080134
0.8102954030036926 -0.4692295354655762 -1.600541114807129 -1.9313198528685511 1.564056158065796 -1.683343235646383 0.10154551274376894 -0.08364415399612887 0.4350538550503378 -2.4587935275348722 -1.2195998973797366 -0.9579769587028767
0.8102989196777344 -0.4692295354655762 -1.600572109222412 -1.9313541851439417 1.5640597343444824 -1.68333608308901 0.10154893539837734 -0.08364002849186049 0.4350425522690045 -2.4588347481812294 -1.2196171432446745 -0.9578932341027293
0.8103108406066895 -0.4692450326732178 -1.600572109222412 -1.9313198528685511 1.5640634298324585 -1.6833203474627894 0.1015530473533974 -0.08363505958406567 0.4350466759538143 -2.458814754588561 -1.2196032868432305 -0.9579059704945077
0.8103143572807312 -0.46920164049182134 -1.6005685329437256 -1.931307931939596 1.5640634298324585 -1.6833089033709925 0.101544557590803 -0.0836439374642828 0.4350493866933316 -2.458776015904665 -1.2195716975736017 -0.9579727590584988
0.8102989196777344 -0.4692605298808594 -1.600560188293457 -1.9313012562193812 1.5640403032302856 -1.6833203474627894 0.10155537170179815 -0.0836358666228125 0.43505154950282615 -2.458834133444772 -1.2195813397687518 -0.9579435173035269
0.8102989196777344 -0.4692450326732178 -1.600560188293457 -1.931307931939596 1.564067006111145 -1.6833327452289026 0.1015505054075733 -0.08363741784123566 0.43505086257587017 -2.4588008129214196 -1.2195990220495971 -0.9579383975780541
0.8102989196777344 -0.4692332309535523 -1.600541114807129 -1.9313198528685511 1.5640283823013306 -1.6832898298846644 0.10154837494117336 -0.08364480269980605 0.43505382458888675 -2.4588368340024087 -1.2195291365759096 -0.9579773690717424
0.8103108406066895 -0.4692450326732178 -1.6005566120147705 -1.9313231907286585 1.564056158065796 -1.6833203474627894 0.10155164795274524 -0.08363749687322446 0.4350497764620572 -2.4588126156836028 -1.2195980654192151 -0.9579257307193625
0.8102834820747375 -0.4692332309535523 -1.6005840301513672 -1.9313351116576136 1.5640716552734375 -1.6833270231830042 0.1015491825188658 -0.08363839612862266 0.4350421850201051 -2.45883873428846 -1.2195882903532147 -0.9578905752046719
0.8103073239326477 -0.4692259591868897 -1.600553035736084 -1.9313198528685511 1.5640634298324585 -1.6833327452289026 0.10154675147797482 -0.08364172163691877 0.4350511845327314 -2.458787013477346 -1.219603022098742 -0.9579559256794111
0.8103143572807312 -0.4692295354655762 -1.600541114807129 -1.931307931939596 1.564075231552124 -1.6833203474627894 0.1015459462628108 -0.08364089874687111 0.4350553353588857 -2.4587620008578788 -1.2195890167861403 -0.9579667888207545
0.8103143572807312 -0.4692450326732178 -1.600528597831726 -1.931338449517721 1.564075231552124 -1.6833294073687952 0.10154718065623893 -0.0836395914154236 0.43505422727800436 -2.458781360451482 -1.2196127347276169 -0.957928958206011
0.8102989196777344 -0.4692450326732178 -1.6005566120147705 -1.9312926731505335 1.5640634298324585 -1.6832898298846644 0.10155046476348209 -0.08363794079073916 0.4350535733858417 -2.4588072748488243 -1.2195343287198923 -0.9579523248896685
0.8103298544883728 -0.4692295354655762 -1.600572109222412 -1.9313045940794886 1.5640438795089722 -1.6833203474627894 0.10155305986109799 -0.0836373987159193 0.43504872716824106 -2.458794377100541 -1.2196110056242517 -0.9579517979711951
0.8103262782096863 -0.4692295354655762 -1.6005566120147705 -1.9313198528685511 1.5640511512756348 -1.683305565510885 0.10155027840658934 -0.08363939455510742 0.43505034137467397 -2.4587966437241713 -1.2195882217380076 -0.9579440027759979
0.8103108406066895 -0.4692062896541138 -1.6005756855010986 -1.9313351116576136 1.5640475749969482 -1.683317009602682 0.10154681455225517 -0.08364372246519805 0.4350443400697372 -2.4588158658288966 -1.219589689612205 -0.9579402733237292
0.8102989196777344 -0.4692523044398804 -1.600553035736084 -1.931307931939596 1.5640597343444824 -1.6832931677447718 0.10155155477328745 -0.08363728360254058 0.43505241625461455 -2.45882203919599 -1.2195447828702561 -0.957933074614058
0.8103108406066895 -0.4692295354655762 -1.600551962852478 -1.9313436947264613 1.5640634298324585 -1.6833203474627894 0.1015473836127424 -0.0836410030980083 0.43504842621799333 -2.458806682505076 -1.2195993551881696 -0.9579201559505152
0.8102954030036926 -0.46921344221148686 -1.600553035736084 -1.931277414361471 1.5640597343444824 -1.6833270231830042 0.10154396905218527 -0.08364531221789684 0.4350565870511976 -2.458764924168377 -1.2195625855230958 -0.9580261157226752
0.8103262782096863 -0.4692332309535523 -1.600572109222412 -1.931307931939596 1.5640634298324585 -1.6833327452289026 0.10155215016093916 -0.08363579499087548 0.43504827282710196 -2.458780924959854 -1.2196290236746725 -0.957933649838639
0.8102954030036926 -0.46924980104479985 -1.600572109222412 -1.9313045940794886 1.5640438795089722 -1.6833203474627894 0.10155413562197677 -0.08363673804593313 0.43504853278034167 -2.458837151793973 -1.2195795102165587 -0.957936464946385
0.8102989196777344 -0.4692295354655762 -1.6005375385284424 -1.9313231907286585 1.5640597343444824 -1.6833236853228968 0.10154510962808555 -0.08364405125239725 0.4350542500331946 -2.4587947815480424 -1.2195780110108465 -0.957968681490778
0.8103108406066895 -0.46919794500384526 -1.6005566120147705 -1.9313198528685511 1.5640525817871094 -1.6832745710956019 0.10154272350581374 -0.08364735508777776 0.43505064381334135 -2.4587986267580915 -1.2195187954875903 -0.9579768531567096
0.810303807258606 -0.4692223829082032 -1.6005446910858154 -1.9312926731505335 1.5640475749969482 -1.683317009602682 0.10154608126754097 -0.08364459422660478 0.43505649686731585 -2.458782731357416 -1.2195621397052527 -0.9580109100019468
0.8103073239326477 -0.4692368072322388 -1.6005446910858154 -1.9313198528685511 1.5640634298324585 -1.6833203474627894 0.1015478734183885 -0.08364054091501189 0.43505297301025014 -2.458793411600588 -1.2195872156832823 -0.9579496779376789
0.8102989196777344 -0.4692295354655762 -1.600560188293457 -1.9313198528685511 1.5640634298324585 -1.6833122412311 0.10154760088876974 -0.08364094470396644 0.43504952813701886 -2.458809160490873 -1.219569753694679 -0.9579398846454236
0.8102954030036926 -0.4692332309535523 -1.6005793809890747 -1.9313231907286585 1.5640475749969482 -1.6833275000201624 0.10155134139398386 -0.08363917860861866 0.43504472735773286 -2.4588376362745583 -1.2195929163470558 -0.957924564494773
0.8103262782096863 -0.46921713769946294 -1.600541114807129 -1.9313351116576136 1.564075231552124 -1.6833327452289026 0.10154425777711756 -0.0836425042299118 0.435052071359669 -2.4587573295270726 -1.2196241114360424 -0.9579491893604288
0.8102989196777344 -0.4692368072322388 -1.600541114807129 -1.9313045940794886 1.5640634298324585 -1.683305565510885 0.1015468920691589 -0.08364169016523654 0.43505568317498916 -2.4587932548452445 -1.2195514997478734 -0.9579706120290158
0.8102954030036926 -0.4692295354655762 -1.6005375385284424 -1.9312974415221156 1.5640980005264282 -1.6833022276507776 0.10154252238798217 -0.08364172070638257 0.43505744805605395 -2.4587559465441564 -1.219542113066391 -0.957967721617271
0.8103108406066895 -0.4692295354655762 -1.6005446910858154 -1.9313231907286585 1.5640789270401 -1.68333608308901 0.1015456848689013 -0.08364072529559965 0.43505262454740856 -2.4587686900822137 -1.2196132786508584 -0.9579465950374608
0.8102834820747375 -0.46922071397814946 -1.6005756855010986 -1.9313417873778285 1.5640716552734375 -1.683343235646383 0.10154567697562826 -0.08364207739193247 0.43504336669053584 -2.4588229171673373 -1.2196052683103518 -0.9579118474756932
0.8103143572807312 -0.4692414563945313 -1.600563883781433 -1.9313231907286585 1.5640597343444824 -1.6833136717425745 0.1015518742255822 -0.0836367353120665 0.43504816095351345 -2.4588116815470036 -1.219594808891642 -0.9579160942971087
0.8102989196777344 -0.46920986593280034 -1.6005375385284424 -1.9313351116576136 1.5640789270401 -1.6832893530475062 0.10153987674348187 -0.08364698823723374 0.43505295139883726 -2.458786246898114 -1.2195321496095366 -0.9579554006808397
0.8102954030036926 -0.4692332309535523 -1.6005446910858154 -1.9313165150084437 1.5640789270401 -1.6833327452289026 0.10154518029009478 -0.08364146777790626 0.4350534199874885 -2.4587809094663804 -1.219590541289325 -0.957953328646332
0.8102834820747375 -0.4692295354655762 -1.600560188293457 -1.9313045940794886 1.5640403032302856 -1.6832898298846644 0.10154799563240811 -0.08364382895334832 0.43505143135627583 -2.458839824734421 -1.2195136932777944 -0.9579727885479831
0.8103108406066895 -0.4692295354655762 -1.600572109222412 -1.9313231907286585 1.5640367269515991 -1.6832893530475062 0.10155176390062857 -0.08363996967133241 0.4350464139115154 -2.4588408148375267 -1.2195534923300106 -0.9579314336804369
0.810279905796051 -0.4692450326732178 -1.6005375385284424 -1.931282182733053 1.5640475749969482 -1.683305565510885 0.10154775311334782 -0.08364316427247626 0.4350592075127936 -2.4588105791265944 -1.2195217835239194 -0.9580081410912026
0.8103143572807312 -0.4692223829082032 -1.6005685329437256 -1.9313284359373988 1.564075231552124 -1.6832898298846644 0.10154762361317324 -0.08363913541082181 0.4350466338998111 -2.4588013360144885 -1.2195619775977093 -0.9579098913003065
0.8102763891220093 -0.4692414563945313 -1.6005375385284424 -1.9313231907286585 1.5640789270401 -1.683317009602682 0.10154427709634009 -0.08364267336304163 0.43505413238712287 -2.4588081267791932 -1.2195508651717688 -0.9579448848378717
0.8102989196777344 -0.4692414563945313 -1.600572109222412 -1.9313198528685511 1.5640438795089722 -1.68333608308901 0.10155265164339583 -0.08363824597215114 0.4350467137337831 -2.4588329317882405 -1.2196069944293475 -0.9579313687712891
0.8102989196777344 -0.4692295354655762 -1.6005375385284424 -1.9313165150084437 1.5640283823013306 -1.68333608308901 0.1015472588005317 -0.0836459760325453 0.4350550864849527 -2.458812086148757 -1.2195876696964025 -0.9580021875520772
0.8103024363517761 -0.46920986593280034 -1.600564956665039 -1.9313231907286585 1.5640438795089722 -1.6833022276507776 0.10154589066273148 -0.08364530212099863 0.4350482232950177 -2.4588186689921265 -1.2195533518153265 -0.9579641180273738
0.8102989196777344 -0.4692450326732178 -1.6005446910858154 -1.9313351116576136 1.5640475749969482 -1.6833017508136194 0.10154968201209814 -0.08364086560776653 0.43505099785956897 -2.4588369333516256 -1.219558542152205 -0.9579300868617586
0.8103024363517761 -0.4692295354655762 -1.6005446910858154 -1.9313012562193812 1.5640320777893066 -1.6833513418780726 0.10154830992336675 -0.08364433545669975 0.4350553628364656 -2.4587947141120745 -1.219609828259699 -0.9580123535643018
0.8103108406066895 -0.4692605298808594 -1.6005756855010986 -1.931326528588766 1.564056158065796 -1.6832745710956019 0.10155691875045808 -0.08363195936670978 0.43504488659622764 -2.458855792198934 -1.219549480235532 -0.9578682638523465
0.8103143572807312 -0.4692223829082032 -1.6005446910858154 -1.9313422642149867 1.5640597343444824 -1.6833394209491175 0.1015456724623508 -0.08364324574350467 0.4350503225946242 -2.4587888237474766 -1.2196229444350208 -0.9579458772068447
0.8103143572807312 -0.4692569536021729 -1.6005446910858154 -1.9313045940794886 1.5640438795089722 -1.6833122412311 0.10155384393286389 -0.08363678112967528 0.43505468240301615 -2.458810464381019 -1.2195828406790814 -0.9579537195487662
0.8103024363517761 -0.4692259591868897 -1.6005685329437256 -1.9313231907286585 1.5640475749969482 -1.6833122412311 0.10154921449937468 -0.08364131624595456 0.43504725733068783 -2.4588251514069115 -1.2195740721250026 -0.9579404942293173
0.8103108406066895 -0.4692259591868897 -1.600541114807129 -1.9313165150084437 1.5640511512756348 -1.68333608308901 0.10154647099910985 -0.08364360507058481 0.4350543056421507 -2.458782787877188 -1.2196043730963766 -0.9579829101689626
0.8102989196777344 -0.4692259591868897 -1.600560188293457 -1.9313198528685511 1.5640597343444824 -1.6833203474627894 0.10154714821437966 -0.08364191342764499 0.4350495630750471 -2.4588067817620254 -1.2195788743545055 -0.9579489200646295
0.8102834820747375 -0.46920986593280034 -1.6005685329437256 -1.9312855205931605 1.5640597343444824 -1.683305565510885 0.10154404511869117 -0.08364539545634056 0.4350520978567492 -2.458796721380583 -1.2195273149903778 -0.9579995900121155
0.8102954030036926 -0.4692378801158448 -1.6005911827087402 -1.9313165150084437 1.5640597343444824 -1.6833122412311 0.101552915025726 -0.08363590649199387 0.43504283489124146 -2.4588397939713267 -1.219577538137052 -0.9579002067427307
0.810317873954773 -0.4692259591868897 -1.600553035736084 -1.9313231907286585 1.564056158065796 -1.68333608308901 0.1015480847969227 -0.08364114552302554 0.43505077039157025 -2.458785306553395 -1.2196193300187887 -0.957955199041445
0.8102989196777344 -0.4692259591868897 -1.6005250215530396 -1.9312893352904261 1.5640825033187866 -1.68333608308901 0.10154173269436806 -0.08364456975720369 0.43506133259320107 -2.458736797740379 -1.2195809282476395 -0.9580156952738379
0.8102954030036926 -0.4692259591868897 -1.600528597831726 -1.9313045940794886 1.5640634298324585 -1.6833203474627894 0.10154298497698197 -0.0836458424503032 0.435058625797893 -2.4587746855658557 -1.219559479390933 -0.9580034431506528
0.8103143572807312 -0.46920986593280034 -1.600541114807129 -1.9313045940794886 1.5640438795089722 -1.6833022276507776 0.1015442220914706 -0.08364689392301011 0.43505594480043897 -2.45877973361281 -1.2195521023892248 -0.9580119343008766
0.8102799654006958 -0.4692295354655762 -1.600553035736084 -1.9313351116576136 1.564075231552124 -1.683317009602682 0.10154422831930364 -0.0836431685476051 0.43504924906360865 -2.4588188050661834 -1.2195596241656501 -0.9579279821355217
0.8102954030036926 -0.4692295354655762 -1.6005494594573975 -1.931307931939596 1.5640597343444824 -1.6833236853228968 0.10154638747821865 -0.08364276204032005 0.43505344564262044 -2.4587954831849452 -1.2195728924222873 -0.9579735982696342
0.8102989196777344 -0.46921344221148686 -1.600528597831726 -1.9313045940794886 1.5640438795089722 -1.6833236853228968 0.10154213450389027 -0.08364929622001407 0.4350587491689083 -2.4587784872909273 -1.2195606839951196 -0.9580323048484355
0.8102954030036926 -0.46919794500384526 -1.6005566120147705 -1.931326528588766 1.5640789270401 -1.683305565510885 0.10153961582544893 -0.08364731591090713 0.4350498082933114 -2.4587821046203304 -1.2195494937327838 -0.9579622717680037
0.8103073239326477 -0.4692259591868897 -1.6005566120147705 -1.931326528588766 1.5640438795089722 -1.683343235646383 0.10154841311069243 -0.08364258191031226 0.435049546091664 -2.4588065727677137 -1.2196177103880659 -0.9579602429100136
0.8102989196777344 -0.4692414563945313 -1.6005446910858154 -1.9313231907286585 1.5640789270401 -1.6833022276507776 0.10154701560657864 -0.08363948913454143 0.435052510275261 -2.458799660355222 -1.219558554285761 -0.9579265506600415
0.8103143572807312 -0.4692259591868897 -1.600560188293457 -1.9313045940794886 1.5640438795089722 -1.6833203474627894 0.10154964203241337 -0.08364120045153364 0.4350514650023564 -2.4587968417101234 -1.219588445689287 -0.9579744502719987
0.8103108406066895 -0.4692027133754273 -1.6005876064300537 -1.9313045940794886 1.5640634298324585 -1.683343235646383 0.10154678283783489 -0.08364165068282044 0.4350454662146981 -2.458777432485514 -1.2196196346378074 -0.9579624690476528
0.8103143572807312 -0.4692295354655762 -1.6005375385284424 -1.9313198528685511 1.564075231552124 -1.6833022276507776 0.1015454031620791 -0.08364146597106657 0.4350546627254889 -2.4587745384062942 -1.2195675559526873 -0.9579520447532955
0.810314416885376 -0.46921344221148686 -1.600528597831726 -1.9313165150084437 1.5640634298324585 -1.6833327452289026 0.10154201511059671 -0.08364659980493161 0.4350572620097148 -2.4587535861238194 -1.2195971793971563 -0.9580024410200998
0.8102834820747375 -0.46919794500384526 -1.600572109222412 -1.9313112697997035 1.5640634298324585 -1.6832965056048792 0.10154164791589948 -0.08364741622275919 0.4350481956176281 -2.4588088626851885 -1.2195217243147356 -0.9579737262901689
0.8103143572807312 -0.4692414563945313 -1.6005446910858154 -1.9313198528685511 1.5640597343444824 -1.68333608308901 0.10154961519305067 -0.08363910719873269 0.43505292909360527 -2.458787833687471 -1.2196172364132334 -0.9579489926514351
0.8103108406066895 -0.4692450326732178 -1.600563883781433 -1.9313351116576136 1.564056158065796 -1.6833327452289026 0.1015524000259088 -0.08363670467890008 0.4350466436144338 -2.4588209892615 -1.2196213166705971 -0.9579059375652766
0.8103024363517761 -0.4692259591868897 -1.6005339622497559 -1.9313231907286585 1.5640475749969482 -1.683317009602682 0.1015450867216586 -0.08364564868927485 0.43505509750567334 -2.458799772605148 -1.219568697232554 -0.9579832377962625
0.8102799654006958 -0.46920986593280034 -1.6005566120147705 -1.931277414361471 1.5640438795089722 -1.6833236853228968 0.1015434603825455 -0.0836481726978408 0.4350558130874215 -2.458792592978704 -1.2195385104568146 -0.9580405339967956
0.8102989196777344 -0.4692259591868897 -1.600541114807129 -1.9313198528685511 1.5640597343444824 -1.6833203474627894 0.10154487080415756 -0.08364430374078591 0.43505388868780515 -2.4587937762399528 -1.2195723732890906 -0.9579718154333019
0.8103298544883728 -0.4692295354655762 -1.600553035736084 -1.931326528588766 1.564067006111145 -1.6832893530475062 0.10154903149854536 -0.08363853921151111 0.4350503187617861 -2.4587884596217866 -1.2195738800160143 -0.9579238600026811
0.810329794883728 -0.4692259591868897 -1.6005685329437256 -1.9313198528685511 1.5640597343444824 -1.6832898298846644 0.10155072694411964 -0.08363773232470431 0.4350476705996639 -2.458798072904116 -1.2195751245505326 -0.9579228640415755
0.8103108406066895 -0.46920986593280034 -1.6005566120147705 -1.9313198528685511 1.5640367269515991 -1.6833270231830042 0.10154610525978806 -0.08364591546663978 0.4350505324493699 -2.4588003046552713 -1.2195909778150522 -0.9579874995949259
0.8103143572807312 -0.4692259591868897 -1.6005840301513672 -1.9313231907286585 1.5640597343444824 -1.6832860151873987 0.10155125355137509 -0.08363739126423081 0.4350437405420718 -2.458825335700754 -1.219559220198034 -0.9579032935562308
0.8103108406066895 -0.4692295354655762 -1.600541114807129 -1.9313045940794886 1.5640789270401 -1.6833236853228968 0.10154543895788751 -0.0836409878006393 0.4350557501394603 -2.4587582930735827 -1.2195889855880726 -0.9579699609684091
0.8103108406066895 -0.4692450326732178 -1.600541114807129 -1.931338449517721 1.564056158065796 -1.6833017508136194 0.10154964898972005 -0.08363959137764133 0.435051391963382 -2.4588194768661498 -1.219573051123418 -0.9579211672452755
0.8103108406066895 -0.4692295354655762 -1.6005685329437256 -1.9313198528685511 1.5640475749969482 -1.6832893530475062 0.10155064827787397 -0.08363969546216611 0.43504763847117167 -2.4588269207288787 -1.2195527491673537 -0.9579320298172173
0.8103227615356445 -0.4692569536021729 -1.6005446910858154 -1.931326528588766 1.5640789270401 -1.6833236853228968 0.10155200327075811 -0.08363392063551552 0.4350519462325506 -2.4587843169770642 -1.2196204085073203 -0.9579033152226882
0.8102989196777344 -0.46921344221148686 -1.6005756855010986 -1.9313165150084437 1.5640789270401 -1.6832898298846644 0.10154531104998502 -0.08364128788525625 0.4350465805066101 -2.4588018594297743 -1.219540599701721 -0.9579277532184084
0.8102989196777344 -0.46919436872515874 -1.6005446910858154 -1.931307931939596 1.564056158065796 -1.6832898298846644 0.10153948288283321 -0.08365044741824063 0.4350548645564598 -2.4587811638919232 -1.219517156008264 -0.9580143212740506
0.8102954030036926 -0.4692223829082032 -1.6005566120147705 -1.9313045940794886 1.5640475749969482 -1.6832745710956019 0.10154668563050631 -0.0836440726854405 0.43505230968020736 -2.4588221128821774 -1.2195039079568515 -0.9579734059894209
0.810329794883728 -0.4692450326732178 -1.6005446910858154 -1.9313198528685511 1.5640597343444824 -1.6833327452289026 0.10155160469247217 -0.08363680548147649 0.43505289480395765 -2.458778555062367 -1.2196311803686952 -0.9579397933569844
0.8102954030036926 -0.4692295354655762 -1.600553035736084 -1.931326528588766 1.564056158065796 -1.6833122412311 0.10154687110725188 -0.08364272672337407 0.4350503206830351 -2.458817939427796 -1.2195646066625152 -0.9579465419785748
0.810279905796051 -0.4692533773234864 -1.6005685329437256 -1.9313422642149867 1.5640438795089722 -1.6832860151873987 0.10155274377252393 -0.08363840234221986 0.43504462114722975 -2.4588888182132345 -1.2195290797683334 -0.9578863457234505
0.8103108406066895 -0.4692295354655762 -1.600563883781433 -1.9313198528685511 1.564075231552124 -1.6833270231830042 0.1015482546401946 -0.08363852143087967 0.43504868795619417 -2.4587860661755725 -1.2196059390910852 -0.9579278178126306
0.8103073239326477 -0.46921344221148686 -1.600553035736084 -1.931326528588766 1.5640597343444824 -1.6833275000201624 0.10154448795293705 -0.08364459203946342 0.43505047427472554 -2.4587881431558385 -1.2195934511291706 -0.9579641985886644
0.8103143572807312 -0.4692450326732178 -1.6005685329437256 -1.931307931939596 1.5640367269515991 -1.683305565510885 0.1015548057521394 -0.08363672764108093 0.4350489754546175 -2.458829454297776 -1.219578007646222 -0.9579387430949304
0.8102989196777344 -0.4692450326732178 -1.6005375385284424 -1.9313012562193812 1.564075231552124 -1.6833270231830042 0.10154731922914383 -0.0836396671824784 0.43505682872246454 -2.4587760298435373 -1.2195825435764982 -0.9579662612033114
0.8103143572807312 -0.4692295354655762 -1.600553035736084 -1.9313422642149867 1.5640597343444824 -1.683305565510885 0.10154806545292089 -0.08364073197128594 0.43504836159703386 -2.458812212211623 -1.21958272752324 -0.9579184274321862
0.8102834820747375 -0.46919794500384526 -1.600541114807129 -1.931326528588766 1.5640789270401 -1.683317009602682 0.10153676817544949 -0.08365046851894159 0.43505332277235553 -2.4587772252999596 -1.2195463025822189 -0.9579869788336579
0.8103073239326477 -0.4692259591868897 -1.6005566120147705 -1.9313112697997035 1.5640597343444824 -1.6832860151873987 0.10154750774703246 -0.0836414224682874 0.43505144238088195 -2.458804441196508 -1.219537923723238 -0.9579523454944561
0.8102763891220093 -0.4692450326732178 -1.6005375385284424 -1.9313317737975062 1.5640634298324585 -1.6833203474627894 0.10154592204534348 -0.08364300945570963 0.4350530325890816 -2.4588282603994953 -1.2195572062973445 -0.9579421662019942
0.8102954030036926 -0.46920986593280034 -1.6005375385284424 -1.9312926731505335 1.5640438795089722 -1.6833203474627894 0.10154232562256658 -0.08364914782292707 0.4350582395238689 -2.4587782555682343 -1.2195499946687653 -0.9580402161532405
0.8102953433990479 -0.4692295354655762 -1.600560188293457 -1.9313165150084437 1.5640634298324585 -1.6833236853228968 0.10154733427698565 -0.08364127453134328 0.4350499435665975 -2.458805560901698 -1.2195799964084804 -0.9579478136082418
0.8103073239326477 -0.4692605298808594 -1.600541114807129 -1.9313165150084437 1.5640475749969482 -1.6833203474627894 0.10155316524676394 -0.08363709388247972 0.43505397483182706 -2.458818288873598 -1.2195905597184462 -0.9579407471404946
0.8102954030036926 -0.4692295354655762 -1.6005566120147705 -1.9313012562193812 1.5640716552734375 -1.68333608308901 0.10154651406102189 -0.08364104182429895 0.4350526522822705 -2.4587810285026404 -1.2195914783609207 -0.957967798307134
0.8102954030036926 -0.4692450326732178 -1.600560188293457 -1.9313045940794886 1.5640789270401 -1.683305565510885 0.10154945132659686 -0.08363698443681042 0.4350512759035204 -2.4588017014897905 -1.219559209452396 -0.9579277573306798
0.8103143572807312 -0.4692414563945313 -1.600572109222412 -1.9313045940794886 1.5640320777893066 -1.6833270231830042 0.10155487599344717 -0.08363727543783103 0.4350486149460404 -2.458822992429136 -1.219604997512237 -0.9579516553223529
0.8102954030036926 -0.4692523044398804 -1.600572109222412 -1.931307931939596 1.5640475749969482 -1.6833203474627894 0.10155434627936372 -0.08363602286220947 0.4350480926725728 -2.458838000157727 -1.2195820690715564 -0.9579268306827117
0.8103108406066895 -0.4692295354655762 -1.6005375385284424 -1.9313231907286585 1.5640597343444824 -1.6833122412311 0.10154610673565816 -0.08364284073441856 0.4350542500331946 -2.4587890937059633 -1.2195759202491987 -0.9579625770736253
0.8103143572807312 -0.4692295354655762 -1.600572109222412 -1.9313198528685511 1.5640789270401 -1.6833089033709925 0.10154928518915951 -0.0836368987858299 0.43504682185536725 -2.4587924534529852 -1.2195888647731874 -0.9579096679045092
0.8103179335594177 -0.4692414563945313 -1.6005756855010986 -1.9313351116576136 1.5640789270401 -1.683281723652975 0.10155219033561122 -0.08363379322038111 0.4350439973507807 -2.4588206873005256 -1.2195668686252996 -0.9578647186028939
0.8102989196777344 -0.4692295354655762 -1.6005483865737915 -1.9313198528685511 1.5640634298324585 -1.6833089033709925 0.10154619175449009 -0.0836424236962296 0.4350522046246558 -2.458802377690743 -1.219561245249039 -0.9579531790910113
0.8103024363517761 -0.4692414563945313 -1.6005446910858154 -1.931307931939596 1.564075231552124 -1.6833327452289026 0.10154770402425212 -0.08363921437281938 0.43505441003379336 -2.4587778885844163 -1.2195976740843821 -0.9579545361630197
0.8102954030036926 -0.4692295354655762 -1.600541114807129 -1.9313351116576136 1.5640634298324585 -1.6833236853228968 0.10154488072783974 -0.08364384448059087 0.4350519546528745 -2.458805160223335 -1.219579973972272 -0.9579483810000962
0.810279905796051 -0.4692295354655762 -1.6005250215530396 -1.931326528588766 1.5640634298324585 -1.68333608308901 0.10154174643979119 -0.08364734923888778 0.43505667259639325 -2.4587966796267193 -1.2195709148922798 -0.9579852849831393
0.8103143572807312 -0.4692332309535523 -1.600553035736084 -1.9313112697997035 1.5640438795089722 -1.6833022276507776 0.10155014294904549 -0.08364067100155782 0.43505218654943933 -2.4588083260584623 -1.2195664373720616 -0.9579615612644381
0.8102989196777344 -0.4692414563945313 -1.600541114807129 -1.9313045940794886 1.564075231552124 -1.6832745710956019 0.1015470153846703 -0.08363998633648709 0.43505563652207097 -2.4587981712124143 -1.2195132000031699 -0.9579485533021131
0.8102954030036926 -0.4692450326732178 -1.6005566120147705 -1.9313422642149867 1.5640475749969482 -1.683317009602682 0.10155074152047577 -0.08363980028967688 0.43504740411184767 -2.4588471055431396 -1.2195816585403616 -0.9579121001649663
