UniversalRobots/RTDE_Python_Client_Library/csv_data/jointData.csv
timestamp,actual_q_0,actual_q_1,actual_q_2,actual_q_3,actual_q_4,actual_q_5,actual_TCP_pose_0,actual_TCP_pose_1,actual_TCP_pose_2,actual_TCP_pose_3,actual_TCP_pose_4,actual_TCP_pose_5
1742159332.5706675,0.0035703182220458984,-1.5758143864073695,-0.0004043630324304104,-3.1556865177550257,-1.5819323698626917,0.004968881607055664,0.09111624427746574,-0.12912104397653051,0.7301289658998894,0.007241747728898843,0.021963448093089113,1.5853276084751762
1742159332.5788374,0.0035858154296875,-1.5758077106871546,-0.00039185001514852047,-3.1556712589659632,-1.5819361845599573,0.004965293221175671,0.09110834568568824,-0.1291192204449107,0.7301320221106432,0.007211427450491195,0.02193944399067835,1.5853395430492936
1742159332.5868468,0.00356309418566525,-1.5758143864073695,-0.0004115104675292969,-3.155689855615133,-1.5819481054889124,0.004965293221175671,0.09111808816759494,-0.12911975467468584,0.7301280174452299,0.007237621333546339,0.021984004238580362,1.5853169159713347
1742159332.5946794,0.0035822391510009766,-1.575799127618307,-0.0004270267963875085,-3.1556745968260707,-1.581928555165426,0.0049533722922205925,0.09111510154475067,-0.1291204334986385,0.7301293737120972,0.0072409198740322235,0.02195696574992332,1.5853239921067994
1742159332.602839,0.003592967987060547,-1.575799127618307,-0.0004115176561754197,-3.1556745968260707,-1.5819323698626917,0.004980802536010742,0.0911112945368592,-0.12911901496656678,0.7301307556432053,0.007225900969875954,0.02194783702715117,1.5853621841972882
1742159332.6108415,0.003566741943359375,-1.575811048547262,-0.00041877315379679203,-3.1556865177550257,-1.581944767628805,0.0049724699929356575,0.0911186579634032,-0.12911983049878734,0.7301279673362382,0.007240776015594096,0.021981855112945984,1.5853277132589008
1742159332.6188378,0.003554821014404297,-1.5757924518980921,-0.0004115104675292969,-3.155689855615133,-1.5819361845599573,0.004968881607055664,0.09110435185442302,-0.12912201433390572,0.730130022214102,0.007229823558268599,0.021957389955768025,1.5853121745224525
1742159332.6268713,0.003573894500732422,-1.5758077106871546,-0.0004270267963875085,-3.1556745968260707,-1.5819323698626917,0.004987978842109442,0.0911189821525836,-0.1291207087667502,0.7301285901529087,0.00724518860613613,0.0219666144021836,1.5853502686068333
1742159332.6351662,0.0035858154296875,-1.5757838688292445,-0.0004115104675292969,-3.1556555233397425,-1.5819357077227991,0.004965293221175671,0.09109923003944795,-0.1291193143879993,0.7301338078220286,0.007196130358867989,0.021923394881147654,1.5853395495355878
1742159332.6429453,0.0035703254397958517,-1.5757700405516566,-0.0004079222562722862,-3.1556745968260707,-1.5819485823260706,0.004977142438292503,0.09109033110786426,-0.12911915295644738,0.7301336997018035,0.00718748421670114,0.021934789329663588,1.585336049109768
1742159332.6509378,0.0035667491611093283,-1.575780530969137,-0.0004151704197283834,-3.1556712589659632,-1.581963841115133,0.0049533722922205925,0.0910979365386945,-0.12911757806192392,0.7301323750083097,0.007186583901054359,0.021958041560680323,1.5853087963658081
1742159332.6589918,0.0035703182220458984,-1.5757771931090296,-0.0004115104675292969,-3.1556931934752406,-1.5819323698626917,0.004968881607055664,0.09109793956788009,-0.12912109606184075,0.7301311194834371,0.0072232438491767375,0.021945168927240567,1.5853276689165752
1742159332.666945,0.003566741943359375,-1.5757924518980921,-0.0004151704197283834,-3.1556555233397425,-1.5819252173053187,0.004968881607055664,0.09110296666397263,-0.12912231554962417,0.7301327130957745,0.007214303848576961,0.021924633436484955,1.5853239722525911
1742159332.6748762,0.003570311004295945,-1.5757924518980921,-0.0004115104675292969,-3.1556745968260707,-1.581963841115133,0.004965293221175671,0.0911044693611888,-0.12911723158228378,0.7301313276008753,0.007195839700380336,0.021967165508373947,1.5853242660064943
1742159332.6829364,0.0035858154296875,-1.5757957897581996,-0.0004114961193408817,-3.1556745968260707,-1.5819485823260706,0.0049724699929356575,0.0911084145514012,-0.12911768437538684,0.7301310427170209,0.007210431410364014,0.02195788960580933,1.5853468266349673
1742159332.690917,0.0035703182220458984,-1.5757838688292445,-0.0003804204461630434,-3.1556745968260707,-1.5819323698626917,0.004980802536010742,0.09108914549148356,-0.12912116283361103,0.7301349199035231,0.007189548551587414,0.02191130352749954,1.5853395701100244
1742159332.6989965,0.0035703182220458984,-1.575780530969137,-0.00040794131928123534,-3.1556865177550257,-1.5819676558123987,0.0049652839079499245,0.09109782436846166,-0.12911677607421368,0.730131680897269,0.007189952891614545,0.021967420756805092,1.585324325147718
1742159332.7069385,0.0035703182220458984,-1.575811048547262,-0.0003990837140008807,-3.1556745968260707,-1.5819485823260706,0.004984390921890736,0.09111108411665178,-0.1291190875235102,0.730130766640558,0.007212992439808365,0.02195999632810203,1.5853432325568995
1742159332.7149663,0.003577449358999729,-1.5757924518980921,-0.0004026647366117686,-3.1556712589659632,-1.581928555165426,0.004968881607055664,0.09110206958461765,-0.12912093021283544,0.7301324493623694,0.007214047948679544,0.021929925166501996,1.5853347268839115
1742159332.722976,0.003554816357791424,-1.5757957897581996,-0.0003918814763892442,-3.1556931934752406,-1.5819013754474085,0.004968888591974974,0.09110016130250631,-0.12912630785820337,0.7301312195228548,0.0072470536991857066,0.02191989707102964,1.5853119214980929
1742159332.731082,0.003570303786545992,-1.5757771931090296,-0.0003991127014160156,-3.1556812725462855,-1.5819414297686976,0.0049569676630198956,0.09109233481661531,-0.12912002412994777,0.7301332611055321,0.00719682451460479,0.021933144095041563,1.5853158003241354
1742159332.7381577,0.0035512447357177734,-1.5757957897581996,-0.0004027009126730263,-3.155677934686178,-1.581928555165426,0.004980802536010742,0.09110143723810024,-0.1291233014616706,0.7301315586228515,0.007222354821703914,0.021937658940936567,1.585320446404198
1742159332.7468905,0.0035894012544304132,-1.575811048547262,-0.0003804445150308311,-3.1556745968260707,-1.581963841115133,0.004984402563422918,0.0911072950934185,-0.12911550931812238,0.7301324155409027,0.0071860664814854805,0.021957466546145686,1.5853624478613015
1742159332.754886,0.0035512589383870363,-1.575811048547262,-0.0004115104675292969,-3.155689855615133,-1.581944767628805,0.004965281579643488,0.09111463405852134,-0.1291212491536891,0.7301283242214488,0.007237735604783627,0.02197868778857119,1.5853050495026197
1742159332.7629857,0.003566741943359375,-1.5757957897581996,-0.00037332065403461456,-3.155689855615133,-1.5819137732135218,0.004984383471310139,0.09109507325088567,-0.12912373731592305,0.7301331567914363,0.007220084201813792,0.021912491559252782,1.5853394375238556
1742159332.7708936,0.0035857963375747204,-1.5758077106871546,-0.0004115104675292969,-3.1556712589659632,-1.581963841115133,0.004965293221175671,0.09111488662382759,-0.12911579503809906,0.7301302344399772,0.007205118782685773,0.021976597169313775,1.5853397242174043
1742159332.7790127,0.003573889611288905,-1.5758143864073695,-0.0004151777538936585,-3.1556745968260707,-1.5819361845599573,0.004956989549100399,0.09111887333573802,-0.12912024852411522,0.730129038834867,0.007237736646409142,0.021965557081672554,1.5853192992412755
1742159332.787017,0.0035703182220458984,-1.5757924518980921,-0.00038040592335164547,-3.1556712589659632,-1.581951920186178,0.004965293221175671,0.09109367540103513,-0.12911875204439918,0.7301344126907402,0.007178092267777669,0.021930745745229734,1.5853241914984846
1742159332.7948933,0.0035703182220458984,-1.5757838688292445,-0.0003991127014160156,-3.1556745968260707,-1.5819323698626917,0.00495336065068841,0.09109539807177361,-0.12912113040281217,0.7301332495516528,0.0072039624873127565,0.021925997747836812,1.5853121224169455
1742159332.8028886,0.0035858154296875,-1.575811048547262,-0.00042700767517089844,-3.1556745968260707,-1.581963841115133,0.004956989549100399,0.09112240736228655,-0.12911575498531186,0.7301282539872264,0.007222496466930804,0.021994023399599074,1.5853314330100827
1742159332.8108888,0.0035703254397958517,-1.5757996044554652,-0.0004079440841451287,-3.1556931934752406,-1.5819323698626917,0.004965293221175671,0.09110970553390745,-0.12912105709231078,0.7301294035157224,0.007238090642694691,0.021959941921876048,1.585324055750003
1742159332.818923,0.0035822391510009766,-1.5757838688292445,-0.0004115104675292969,-3.1556745968260707,-1.5819485823260706,0.004980802536010742,0.0911010650315668,-0.12911803393087243,0.7301321237114927,0.007201161931312479,0.021948525826408712,1.585351600375767
1742159332.8269207,0.003554821014404297,-1.575811048547262,-0.00040789577178657055,-3.1556712589659632,-1.5819323698626917,0.0049724699929356575,0.09111164539430197,-0.12912247787055592,0.7301302892156076,0.007230122686411784,0.021951456208971327,1.5853156866489182
1742159332.838825,0.003566741943359375,-1.5757924518980921,-0.00039544058381579816,-3.1556865177550257,-1.581937615071432,0.004956960678100586,0.09110010944486803,-0.12912078532180649,0.7301317490367745,0.007213140882789449,0.02194334545521162,1.5853121877110339
1742159332.842295,0.0035667468328028917,-1.575780530969137,-0.0003918645379599184,-3.1556555233397425,-1.581944767628805,0.004965293221175671,0.0910882555887611,-0.1291199807030572,0.7301358564161966,0.007171043865523839,0.021912337594953438,1.5853205619548936
1742159332.8507638,0.0035703182220458984,-1.5758115253844203,-0.0004151704197283834,-3.1556745968260707,-1.581944767628805,0.004956960678100586,0.09111674531668414,-0.12911952665789983,0.730129289800536,0.0072287363918156185,0.021970023364588698,1.5853157680161567
1742159332.8589346,0.0035822391510009766,-1.5757767162718714,-0.0003954527492169291,-3.1556745968260707,-1.5819137732135218,0.004968881607055664,0.09109159966989086,-0.12912234652427573,0.7301342464016387,0.007210161212582982,0.02190298470673942,1.5853394355516213
1742159332.8669415,0.0035583972930908203,-1.5757800541319789,-0.0004306794435251504,-3.15565886119985,-1.5819323698626917,0.004987978842109442,0.09110030478134598,-0.12912219129217703,0.7301321524899245,0.007214031466467297,0.02193527586201179,1.5853347943481169
1742159332.8751807,0.003554821014404297,-1.5757838688292445,-0.0003804204461630434,-3.1556712589659632,-1.5819485823260706,0.0049724699929356575,0.09108672056587339,-0.12912059015925614,0.7301351942212898,0.007174197059006829,0.02192130044733695,1.5853158590908087
1742159332.8827455,0.0035703182220458984,-1.5757996044554652,-0.0003954527492169291,-3.1556555233397425,-1.5819757620440882,0.0049724699929356575,0.09110090824087272,-0.12911580886623375,0.7301337699778133,0.007164543200709886,0.021954464570029107,1.5853315123590628
1742159332.890258,0.0035858252085745335,-1.5757800541319789,-0.0003990980621892959,-3.1556745968260707,-1.581928555165426,0.004965293221175671,0.09109519436709676,-0.1291201933973191,0.7301336013632135,0.007203934725861572,0.021920096155447634,1.5853395377603239
1742159332.898262,0.0035548543091863394,-1.575791975060934,-0.0004115251067560166,-3.1556745968260707,-1.581944767628805,0.004984390921890736,0.09110222549320036,-0.1291209806133139,0.7301313906793345,0.007210901664552578,0.02195171408234998,1.5853277643374402
1742159332.9064224,0.003573894500732422,-1.5757957897581996,-0.0003918645379599184,-3.1556745968260707,-1.5819252173053187,0.004968881607055664,0.09110033642738992,-0.12912167099202745,0.7301328229557621,0.007213453849841825,0.021924051421195648,1.5853311500945269
1742159332.9143605,0.003570311004295945,-1.575791975060934,-0.00039185001514852047,-3.155677934686178,-1.5819409529315394,0.004987978842109442,0.09109804912200684,-0.12912006990318772,0.7301328609727594,0.0072009008464255534,0.02193600386448696,1.5853467907031116
1742159332.9222574,0.003551230300217867,-1.5757957897581996,-0.0004151777538936585,-3.1556745968260707,-1.5819605032550257,0.004968881607055664,0.09110516627827862,-0.1291193664583868,0.7301307004954333,0.007204234850956432,0.02196991300437359,1.5853087430398833
1742159332.9302626,0.003566741943359375,-1.5757957897581996,-0.0004151704197283834,-3.1556712589659632,-1.5819209257708948,0.004968881607055664,0.09110680916088658,-0.12912281335261624,0.7301310370972962,0.007232671719028907,0.021936301243259643,1.5853239527597338
1742159332.9387653,0.00358222471550107,-1.5757957897581996,-0.0004151704197283834,-3.1556555233397425,-1.5818823019610804,0.004984390921890736,0.09110694689862214,-0.12912616325743045,0.7301324572510887,0.00725082097534136,0.02189364896733343,1.5853546353315573
1742159332.946948,0.0035786035005003214,-1.5757957897581996,-0.0004270196077413857,-3.155677934686178,-1.5819323698626917,0.004965293221175671,0.0911130998551474,-0.12912029873995348,0.7301293809699192,0.007238066800399073,0.021959941575719472,1.5853323144745832
1742159332.9546003,0.0035512829199433327,-1.5757996044554652,-0.0003768322349060327,-3.1556712589659632,-1.5819099585162562,0.004965293221175671,0.09109420758134502,-0.12912562597360208,0.7301341290168598,0.007214210244141018,0.021900475019129884,1.5853048331518018
1742159332.9624245,0.0035822391510009766,-1.5757996044554652,-0.00044252871884964406,-3.1556436024107875,-1.5819357077227991,0.004968881607055664,0.09111679698196352,-0.12911957163024457,0.7301306506734964,0.007223747963871458,0.021950655089038238,1.5853395127903058
1742159332.9705865,0.003570311004295945,-1.5758005581297816,-0.0003991127014160156,-3.155689855615133,-1.581944767628805,0.0049724699929356575,0.09110688163236579,-0.12911955554724786,0.7301303847701787,0.007219567402292725,0.021960849824444826,1.5853313092383612
1742159332.9785922,0.0035703040193766356,-1.5757957897581996,-0.0004270196077413857,-3.1556931934752406,-1.581928555165426,0.004968881607055664,0.09111388238447372,-0.12912150151412563,0.7301280491766717,0.007253173698662345,0.021968933117487627,1.585327591986722
1742159332.9864347,0.0035512589383870363,-1.5758067570128382,-0.0004115104675292969,-3.1557017765440882,-1.5819605032550257,0.004949784372001886,0.09111357906203278,-0.12911931047011982,0.7301276527372319,0.007231101894293562,0.021997096192292547,1.585289691359784
1742159332.9949768,0.0035703182220458984,-1.5757767162718714,-0.0004270196077413857,-3.155689855615133,-1.581963841115133,0.004976057913154364,0.09110240955358914,-0.12911721385709107,0.7301300341763738,0.0072077429474306535,0.021979044868989495,1.58533507237323
1742159333.0029857,0.0035738754086196423,-1.575791975060934,-0.0004115104675292969,-3.155689855615133,-1.581928555165426,0.005000209901481867,0.09110654556522191,-0.1291212153021209,0.7301300739242189,0.0072356495304057465,0.021951134065581232,1.5853624981931602
1742159333.0102232,0.0035548137966543436,-1.5757957897581996,-0.0004115104675292969,-3.1556745968260707,-1.5819323698626917,0.004968888591974974,0.09110443572034699,-0.12912249776037507,0.7301310593379443,0.007223496767047253,0.021944967937940492,1.585312123383447
1742159333.0192263,0.0035894298925995827,-1.5757957897581996,-0.0003954527492169291,-3.1556555233397425,-1.5819485823260706,0.004972476977854967,0.09110120264073361,-0.12911740980358563,0.7301341463811671,0.0071827773657079635,0.021930259967634026,1.585350432132575
1742159333.0262525,0.0035703182220458984,-1.5757996044554652,-0.0003991127014160156,-3.155689855615133,-1.581928555165426,0.004984390921890736,0.09110635046397488,-0.12912154574523496,0.7301304892515319,0.0072317442602870576,0.02194736591280399,1.5853431163610208
1742159333.0352645,0.00358224636875093,-1.575811048547262,-0.000423431396484375,-3.1556931934752406,-1.5819323698626917,0.004968896042555571,0.09112304201930234,-0.1291199212373132,0.7301269801490392,0.007259268641319159,0.021981153586986633,1.5853395554048373
1742159333.042945,0.0035703182220458984,-1.5757996044554652,-0.0003991127014160156,-3.1556745968260707,-1.581951920186178,0.0049497769214212894,0.0911044729862443,-0.12911870070426276,0.7301317994006998,0.007200928556005207,0.021953687017879708,1.5853086622152945
1742159333.0509412,0.003566741943359375,-1.5757838688292445,-0.0004079222562722862,-3.1556812725462855,-1.581928555165426,0.0049724699929356575,0.09109869686559041,-0.12912189954029496,0.7301318820223794,0.007219421151565106,0.021935154977530902,1.5853276302986676
1742159333.0592215,0.003582253586500883,-1.5757800541319789,-0.00042700767517089844,-3.1557051144041957,-1.5819323698626917,0.004968896042555571,0.09110776367229943,-0.1291199593768835,0.7301284309929237,0.007246960194490106,0.021969070339594696,1.5853396212035482
1742159333.0671682,0.003566741943359375,-1.5757996044554652,-0.0004151487664785236,-3.155677934686178,-1.5819409529315394,0.0049497936852276325,0.09110979291853953,-0.1291203395090189,0.7301300861060798,0.007224880757887267,0.02196027977977015,1.5853050181462072
1742159333.075114,0.003573894500732422,-1.5757800541319789,-0.0004187586309853941,-3.15565886119985,-1.5819323698626917,0.004980802536010742,0.09109831829550999,-0.12912080017299296,0.7301332178427724,0.007204389472717411,0.021926021793917554,1.5853431194324028
1742159333.08259,0.0035822319332510233,-1.5757647953429164,-0.000395445415051654,-3.155689855615133,-1.581944767628805,0.004984378814697266,0.09108651645197229,-0.12911854709337753,0.7301339590742396,0.007188449843896738,0.02193000273312781,1.5853551923831068
1742159333.090601,0.0035858154296875,-1.5757957897581996,-0.0004151487664785236,-3.1557051144041957,-1.5819485823260706,0.004949798807501793,0.09111333561704808,-0.12911763515393745,0.7301280442967079,0.007236984675991778,0.021984859306124507,1.5853241896815695
1742159333.0985987,0.0035703182220458984,-1.5757996044554652,-0.0004027009126730263,-3.1556712589659632,-1.581951920186178,0.004984364379197359,0.09110526862382506,-0.12911869916098662,0.7301317709604579,0.007201553563246558,0.02195385036847079,1.5853432429032428
1742159333.1066008,0.0035703182220458984,-1.5757957897581996,-0.0004342173342593014,-3.1556745968260707,-1.581944767628805,0.004968881607055664,0.09111401829896815,-0.12911952485636535,0.7301290162082305,0.007231471455187523,0.021972636019216327,1.5853277045135072
1742159333.1146035,0.003608837490901351,-1.5757957897581996,-0.00037682487163692713,-3.15565886119985,-1.5819323698626917,0.004968896042555571,0.09109790142714193,-0.12911765854621715,0.7301355366737434,0.007183256746341421,0.021905667792292773,1.5853661473506302
1742159333.1226058,0.003566741943359375,-1.5757996044554652,-0.0004151487664785236,-3.1556555233397425,-1.5819485823260706,0.004953386727720499,0.0911070671532186,-0.12911943495463973,0.7301320398555672,0.007201322027389161,0.02194857824461329,1.5853086428673815
1742159333.1306274,0.003566741943359375,-1.5758186779417933,-0.0003954721905756742,-3.1556745968260707,-1.581951920186178,0.004953379742801189,0.09111382156089538,-0.12911899499777213,0.7301303929938866,0.007213202122509005,0.021965756897320134,1.58530866181607
1742159333.1381323,0.0035822391510009766,-1.5757767162718714,-0.0004027009126730263,-3.1556745968260707,-1.581944767628805,0.004972476977854967,0.09109398724051461,-0.12911853149277291,0.7301335645110213,0.007191473622234431,0.021933009626953597,1.5853432604943793
1742159333.1471438,0.003577485214918852,-1.575791975060934,-0.00041519213118590415,-3.15565886119985,-1.5819485823260706,0.004965286236256361,0.09110446219291778,-0.12911846657922754,0.7301324364227451,0.007197983967521655,0.02194532955450341,1.585331299704342
1742159333.1551642,0.00355123751796782,-1.5757767162718714,-0.0003804300504270941,-3.1556745968260707,-1.5819099585162562,0.0049724699929356575,0.09108257603263234,-0.12912566441018425,0.7301355929939047,0.007201673534883707,0.021887985290945038,1.585312000763987
1742159333.1627762,0.003582210745662451,-1.5757838688292445,-0.0004306554910726845,-3.1557051144041957,-1.5819605032550257,0.004949784372001886,0.09111115038288355,-0.12911649790283342,0.730127727527471,0.007230431134682088,0.02199702540779125,1.5853206722685826
1742159333.1707735,0.0035893917083740234,-1.5757800541319789,-0.0004270196077413857,-3.155689855615133,-1.581928555165426,0.004980802536010742,0.09110684425957973,-0.12911979844469276,0.7301297701283099,0.007238077632947992,0.021954081014410085,1.5853586190823432
1742159333.178773,0.0035739063750952482,-1.5757957897581996,-0.0004079485952388495,-3.1556745968260707,-1.5819676558123987,0.004984390921890736,0.09110566751604424,-0.12911643558570596,0.7301313386598749,0.007192851102075946,0.02196999364683029,1.5853469830415574
1742159333.186752,0.0035703182220458984,-1.575791975060934,-0.0004115251067560166,-3.155689855615133,-1.5819252173053187,0.0049724699929356575,0.09110609512730496,-0.12912194885108086,0.7301300762962866,0.007237997130626298,0.021948517514445286,1.5853311774349916
1742159333.194606,0.0035858154296875,-1.5757996044554652,-0.0004115104675292969,-3.1556745968260707,-1.581928555165426,0.004949784372001886,0.09111064884978981,-0.12912013369446979,0.7301307171998017,0.0072289808641249394,0.021945180804144447,1.5853239858577204
1742159333.2027745,0.003566741943359375,-1.575839181939596,-0.0004306626215111464,-3.1556555233397425,-1.5819323698626917,0.004968881607055664,0.09113515899521459,-0.12912131851755554,0.7301270772149474,0.007257792213534763,0.02197905298081151,1.5853239498600196
1742159333.2102392,0.0035738872829824686,-1.5757800541319789,-0.0004079222562722862,-3.155689855615133,-1.581944767628805,0.0049533722922205925,0.09109843499108736,-0.12911925518270723,0.7301314589719112,0.007210054932480585,0.021951726469186767,1.5853158156978044
1742159333.2184846,0.003570311004295945,-1.5757800541319789,-0.0004115104675292969,-3.15565886119985,-1.581963841115133,0.0049533722922205925,0.0910953936058972,-0.12911727827230451,0.7301338307985638,0.0071735578780389685,0.021945031459088573,1.5853123457961757
1742159333.2268374,0.003554821014404297,-1.5757957897581996,-0.0004187344457022846,-3.15565886119985,-1.581904713307516,0.004968881607055664,0.09110497847148209,-0.1291258995865796,0.7301318218742062,0.007238661318314924,0.02191650584174035,1.5853118951482106
1742159333.2348487,0.0035703182220458984,-1.5757800541319789,-0.00041515828343108296,-3.1556812725462855,-1.5819605032550257,0.004965293221175671,0.09109933542500369,-0.1291176493404228,0.7301315463706761,0.00719679423671762,0.02196295823484455,1.5853242727965067
1742159333.2425666,0.003554821014404297,-1.5757800541319789,-0.0004079222562722862,-3.1556745968260707,-1.5819361845599573,0.004965293221175671,0.0910941336819514,-0.1291220664219939,0.7301328043806893,0.007205185463665007,0.02193281024573736,1.5853085888905312
1742159333.250741,0.0035703182220458984,-1.575791975060934,-0.0004115104675292969,-3.15565886119985,-1.581944767628805,0.004965293221175671,0.09110230982614882,-0.12911959389954727,0.7301327696659695,0.007198160811313747,0.02193939584539593,1.5853241127909645
1742159333.25872,0.0035822391510009766,-1.5757800541319789,-0.0004115104675292969,-3.155677934686178,-1.5819409529315394,0.004968881607055664,0.09109927312185134,-0.1291189728265294,0.7301321862180491,0.0072066427029276155,0.021942186181912196,1.585339632199248
1742159333.2667189,0.0035703254397958517,-1.5757996044554652,-0.0003991127014160156,-3.155689855615133,-1.581951920186178,0.004968881607055664,0.09110632357639434,-0.1291186786425687,0.730130463450356,0.007213129421888569,0.02196572010834539,1.5853277906272354
1742159333.2747219,0.0035667610354721546,-1.5757838688292445,-0.0003918886068277061,-3.155677934686178,-1.5819137732135218,0.004968881607055664,0.09109294905292865,-0.12912374374640073,0.7301336233845378,0.007215773080655562,0.021908325806778955,1.5853239526158502
1742159333.2827191,0.003554821014404297,-1.575791975060934,-0.0003918886068277061,-3.1556745968260707,-1.5819485823260706,0.004968881607055664,0.09109564826324984,-0.12912054962255975,0.7301331413255681,0.0071922208007776725,0.02193929811971401,1.5853122584890633
1742159333.2905657,0.003554821014404297,-1.5757800541319789,-0.000423431396484375,-3.155689855615133,-1.581928555165426,0.004968881607055664,0.09110118019825057,-0.12912295420120387,0.7301300908177867,0.007235449902887329,0.021951040502836368,1.5853121310360159
1742159333.2987158,0.0035929752048105,-1.5757838688292445,-0.0004115104675292969,-3.1556621990599574,-1.581944767628805,0.0049724699929356575,0.09110095293137176,-0.12911754127345512,0.7301332133608054,0.007194236537648639,0.02193582083402662,1.5853539609909895
1742159333.306564,0.0035858035553246737,-1.5758115253844203,-0.0004079461214132607,-3.155689855615133,-1.5819605032550257,0.004965293221175671,0.09111815912500325,-0.12911617634537856,0.7301285820991532,0.007222544641850765,0.021988847150739704,1.5853397232259054
1742159333.314777,0.003582253586500883,-1.5757767162718714,-0.0004115104675292969,-3.155677934686178,-1.5819323698626917,0.004965293221175671,0.09109735529872846,-0.12912003114188308,0.7301324987091344,0.007210733022871706,0.021932832349522875,1.5853359989422107
1742159333.3227234,0.003573894500732422,-1.5757996044554652,-0.0003876686096191406,-3.1556745968260707,-1.581944767628805,0.004968881607055664,0.09110111522795575,-0.1291192722404556,0.7301328300315086,0.007197737562241259,0.021939097275958983,1.585331292755821
1742159333.3308794,0.003566741943359375,-1.5757996044554652,-0.0003954527492169291,-3.1556555233397425,-1.581944767628805,0.004968881607055664,0.09110048337596106,-0.1291199370942727,0.7301338042799973,0.007188982691218542,0.021930107613301865,1.585324115799222
1742159333.3388655,0.0035894298925995827,-1.5757957897581996,-0.0004151704197283834,-3.1556745968260707,-1.5819409529315394,0.004980802536010742,0.09111011938948765,-0.12911828465014044,0.7301307227646662,0.007219410607870255,0.0219548039170111,1.5853587143548291
1742159333.3471792,0.003566741943359375,-1.5757996044554652,-0.0004115104675292969,-3.155677934686178,-1.581944767628805,0.004984390921890736,0.0911085713770182,-0.1291198778259516,0.7301304070624457,0.007219416891411907,0.021960397760299077,1.5853396438547835
1742159333.3551779,0.0035893917083740234,-1.575791975060934,-0.0004079222562722862,-3.1556745968260707,-1.5818975607501429,0.004965293221175671,0.09110553610767957,-0.12912363176526184,0.7301317646846006,0.00724472170192247,0.021912060844569998,1.5853428498938105
1742159333.362233,0.0035667300689965487,-1.5757957897581996,-0.0003991271078120917,-3.1556712589659632,-1.5819171110736292,0.0049724699929356575,0.09110144569885299,-0.12912331024106363,0.7301324750912804,0.007223070733557896,0.021920705642642792,1.585327506736396
1742159333.3712318,0.0035512447357177734,-1.5757957897581996,-0.0004270122735761106,-3.155689855615133,-1.5819323698626917,0.004980802536010742,0.09111100981513487,-0.12912277475188802,0.7301283378770209,0.007247873320650869,0.02196915394361684,1.5853204789660866
1742159333.3791866,0.0035703182220458984,-1.575791975060934,-0.00041515828343108296,-3.1556745968260707,-1.581937615071432,0.004984390921890736,0.09110544600535303,-0.12912044298073125,0.7301310738769935,0.007219254242988877,0.02194905380522559,1.5853431724032445
1742159333.3872528,0.0035858273040503263,-1.5757800541319789,-0.0003990980621892959,-3.1556745968260707,-1.581944767628805,0.004968881607055664,0.09109517530425604,-0.12911820424475273,0.7301335834672465,0.007191189939215366,0.02193282324072052,1.585343249683267
1742159333.395192,0.0035893917083740234,-1.5757800541319789,-0.000384065875550732,-3.1556745968260707,-1.5819171110736292,0.004949784372001886,0.09109064023971006,-0.1291212986551548,0.7301349572521257,0.00720088530117362,0.021899339029323193,1.585327515876879
1742159333.4031947,0.0035703182220458984,-1.5758115253844203,-0.00041150327888317406,-3.1556745968260707,-1.5819323698626917,0.004965293221175671,0.09111553343221222,-0.12912105399114227,0.7301296312490692,0.007235722808040708,0.021957404729100398,1.5853240083304982
1742159333.411186,0.003566741943359375,-1.5758115253844203,-0.00040268898010253906,-3.1556712589659632,-1.5819323698626917,0.0049724699929356575,0.09111171869031198,-0.12912139980749412,0.730130711274718,0.007226273954375045,0.021947820550796103,1.5853276083413803
1742159333.4181778,0.0035703182220458984,-1.5757957897581996,-0.0004151632310822606,-3.15565886119985,-1.581928555165426,0.004980809520930052,0.09110575659828682,-0.12912156894966245,0.7301321147816757,0.007217027967446509,0.02193251692559274,1.5853394995902315
1742159333.4271235,0.0035858154296875,-1.5757800541319789,-0.00040793418884277344,-3.1556931934752406,-1.5819252173053187,0.004984364379197359,0.09110040705695042,-0.12912056228266158,0.7301311872433276,0.007228355560841722,0.021939081759016207,1.5853585908047247
1742159333.43423,0.0035667347256094217,-1.5757996044554652,-0.0004307084309402853,-3.1556621990599574,-1.581944767628805,0.004968888591974974,0.09111308466529153,-0.12911986726489522,0.7301300689460691,0.00722202571487663,0.021963061945916174,1.58532410980123
1742159333.4428916,0.0035512757021933794,-1.5757957897581996,-0.00042704143561422825,-3.1556745968260707,-1.5819171110736292,0.004965303000062704,0.0911091920731488,-0.12912466521362834,0.7301296880860074,0.007247773147522174,0.021945161916521468,1.5853048791195563
1742159333.4500797,0.003566741943359375,-1.5757957897581996,-0.0004115104675292969,-3.155677934686178,-1.5819252173053187,0.0049688671715557575,0.09110638903084,-0.12912228384670232,0.7301307749859931,0.007231637997212128,0.021942065926042705,1.585323979547006
1742159333.4590714,0.0035703182220458984,-1.5757957897581996,-0.00043424611794762313,-3.155689855615133,-1.5819252173053187,0.004968881607055664,0.09111590082153119,-0.12912190185667485,0.7301276992031215,0.007258886661283223,0.021969352639604547,1.5853275744048694
1742159333.4661777,0.0035703324247151613,-1.5757767162718714,-0.00040268898010253906,-3.155677934686178,-1.5819605032550257,0.004965293221175671,0.0910928317481958,-0.12911768099048085,0.7301332559479772,0.007181704532880757,0.021947914906187842,1.5853242927065625
1742159333.4741712,0.00358222471550107,-1.5758148632445277,-0.0004151704197283834,-3.1556745968260707,-1.5819137732135218,0.004968896042555571,0.09112024952739481,-0.1291222375444418,0.7301290208975304,0.007255843968621279,0.02194837742863175,1.5853393704315948
1742159333.482608,0.0035512447357177734,-1.575791975060934,-0.00039546488551422954,-3.15565886119985,-1.5819605032550257,0.004980809520930052,0.09109446109411652,-0.12911942878798258,0.7301341861955405,0.007173470694287992,0.021939015679421244,1.5853206796761017
1742159333.4906108,0.003566741943359375,-1.5757800541319789,-0.00042700767517089844,-3.1556745968260707,-1.5819137732135218,0.004968881607055664,0.09110208365693719,-0.12912369684399377,0.7301311234491028,0.007237838397381929,0.02193027809200023,1.5853239216678028
1742159333.4986093,0.0035858105402439833,-1.5757814846434535,-0.0004151777538936585,-3.15565886119985,-1.581951920186178,0.004968881607055664,0.09109946288848217,-0.1291173195570875,0.7301333863952911,0.00718701356800649,0.021939767097498935,1.5853432604121858
1742159333.5066009,0.0035703182220458984,-1.5758115253844203,-0.0004306554910726845,-3.1556712589659632,-1.5819137732135218,0.004984390921890736,0.0911215573065841,-0.12912330690165208,0.7301282321662771,0.007263105415436357,0.02195519717651221,1.5853429537011976
1742159333.5146093,0.0035858035553246737,-1.5757957897581996,-0.0004198503738734871,-3.15565886119985,-1.581928555165426,0.004968881607055664,0.09110932392213708,-0.12912014997481402,0.7301316958823492,0.00722042745974583,0.02193630732143469,1.5853430550276504
1742159333.5225978,0.0035583972930908203,-1.5757957897581996,-0.00039546488551422954,-3.1556812725462855,-1.581944767628805,0.004984390921890736,0.09110032569073542,-0.12912066873601083,0.7301318951623417,0.007206451139362849,0.021947386143289213,1.585331315191361
1742159333.5306299,0.0035858226474374533,-1.575791975060934,-0.0004151655884925276,-3.1556745968260707,-1.581944767628805,0.004984390921890736,0.0911074418464728,-0.12911815293187676,0.7301310653250017,0.00721346371283345,0.021954778322691562,1.5853587298466776
1742159333.5376973,0.003573894500732422,-1.5757800541319789,-0.000395445415051654,-3.155689855615133,-1.5819605032550257,0.004965293221175671,0.09109424368905396,-0.129117345724402,0.7301325565667256,0.007187946057492754,0.02195427670847371,1.5853278660720351
1742159333.5462167,0.0035631037317216396,-1.575780530969137,-0.00041149588651023805,-3.155677934686178,-1.5819485823260706,0.004980802536010742,0.09109706410766412,-0.12911977912401504,0.7301321358033122,0.007201323792188896,0.021948405113733045,1.5853324746119752
1742159333.5542188,0.00355482823215425,-1.5757800541319789,-0.0003918886068277061,-3.155689855615133,-1.5819485823260706,0.004980816971510649,0.09109060630603014,-0.12912055115281731,0.7301328875970128,0.007194919537654206,0.02194198880187185,1.58532423562639
1742159333.5622604,0.0035667610354721546,-1.575784822503561,-0.0003954527492169291,-3.155677934686178,-1.5819171110736292,0.004965286236256361,0.09109468869416444,-0.1291233261830021,0.7301332146341831,0.007216661605575174,0.02191449515705415,1.5853203796583968
1742159333.570392,0.0035667468328028917,-1.5757957897581996,-0.0003991127014160156,-3.15565886119985,-1.5819485823260706,0.004968881607055664,0.09109990271837799,-0.12911946519802092,0.7301335270827366,0.007188466032023103,0.021935620539967168,1.5853241573910062
1742159333.5782604,0.0035703182220458984,-1.5757957897581996,-0.00039912728243507445,-3.1556712589659632,-1.5819409529315394,0.004984390921890736,0.09110188068491976,-0.12912005840971488,0.7301324487806767,0.007204372567632242,0.021939442219101414,1.5853431941357325
1742159333.5863757,0.0035857963375747204,-1.5757996044554652,-0.00039912707870826125,-3.1556745968260707,-1.5819252173053187,0.004968881607055664,0.09110650814248812,-0.12912056647503836,0.7301318275973798,0.007222076098761094,0.02193282437734568,1.5853430428609394
1742159333.5945857,0.0035703182220458984,-1.575791975060934,-0.00041515828343108296,-3.1556745968260707,-1.5819485823260706,0.004965298343449831,0.09110543294723923,-0.12911909750653214,0.7301310617624358,0.007210375287586062,0.021957675809054653,1.5853241631102546
1742159333.6025827,0.0035667538177222013,-1.5757767162718714,-0.0003991127014160156,-3.1556712589659632,-1.5818904081927698,0.004968896042555571,0.09109044759824277,-0.12912662187393917,0.730134237263813,0.007229012167969299,0.02188477643377577,1.5853237847621182
1742159333.6103652,0.0035822391510009766,-1.5757957897581996,-0.0004270341305527836,-3.155677934686178,-1.5819099585162562,0.004980802536010742,0.09111360086471641,-0.1291227169059606,0.7301294043672337,0.007255904691497796,0.021942371703981303,1.585351289810077
1742159333.6179955,0.0035703182220458984,-1.5757957897581996,-0.0004079124191775918,-3.15565886119985,-1.581928555165426,0.00496531231328845,0.09110333120540523,-0.12912158152965691,0.7301327627867615,0.007211124129062,0.021926832088544713,1.5853240058993896
1742159333.6270285,0.0035703182220458984,-1.5758077106871546,-0.0003804445150308311,-3.1556712589659632,-1.581921402608053,0.004968881607055664,0.09110254715130627,-0.12912246560807303,0.7301330576884223,0.007214289051520952,0.021918776671113478,1.5853275281794974
1742159333.6350312,0.0035703040193766356,-1.5757767162718714,-0.0003954527492169291,-3.1556745968260707,-1.5819357077227991,0.004984371829777956,0.09109003245679338,-0.12912074275644478,0.7301342222214221,0.007193164411304518,0.021920118628474834,1.5853431550052381
1742159333.6425972,0.0035703182220458984,-1.575791975060934,-0.0004115104675292969,-3.1556745968260707,-1.5819485823260706,0.004953391384333372,0.09110421275913229,-0.12911910383538855,0.7301313877722108,0.0072073558341255,0.02195481811917743,1.5853122580897108
1742159333.6505902,0.003566741943359375,-1.575791975060934,-0.00037686823634430766,-3.1556745968260707,-1.5819171110736292,0.0049724578857421875,0.0910922006219462,-0.1291233506372129,0.7301345182936044,0.007205121317270671,0.021902870302216788,1.5853275246201164
1742159333.6585846,0.0036015985533595085,-1.5757957897581996,-0.0004115104675292969,-3.1556745968260707,-1.5819171110736292,0.004968888591974974,0.09111049481097701,-0.12912010728404125,0.7301310761586076,0.007235065619075802,0.021933298291660346,1.5853587912444194
1742159333.6668193,0.0035667538177222013,-1.5757800541319789,-0.0004079270293004811,-3.1556745968260707,-1.5819361845599573,0.004984371829777956,0.0910956760602656,-0.12912097939612968,0.7301328039541456,0.0072052984270468065,0.021932882112635693,1.5853395988619086
1742159333.674853,0.0035822391510009766,-1.5757957897581996,-0.00040789812919683754,-3.1556745968260707,-1.5819485823260706,0.004976034164428711,0.09110674926865038,-0.12911801646039664,0.7301313642740206,0.007207672178372565,0.021955038418013287,1.585346815895053
1742159333.6828363,0.0035822391510009766,-1.5757800541319789,-0.0004270196077413857,-3.155677934686178,-1.5819409529315394,0.004987978842109442,0.09110446090599843,-0.12911894585670466,0.7301308001719274,0.007219102846118869,0.021954354066548585,1.5853587226089199
1742159333.690835,0.0035822391510009766,-1.5758115253844203,-0.0004115104675292969,-3.15564026455068,-1.581928555165426,0.004965305328369141,0.09111291788782018,-0.12912048398784073,0.7301326407005996,0.007211681138294455,0.021927395398759292,1.585335873356577
1742159333.6988385,0.0035980341490358114,-1.5758077106871546,-0.0003954527492169291,-3.1556712589659632,-1.5819361845599573,0.0049533722922205925,0.09111112846091682,-0.12911810092391884,0.7301317001360765,0.00721400423970625,0.02194236111675452,1.585339839442812
1742159333.706832,0.0035703182220458984,-1.5757767162718714,-0.00043067955994047225,-3.1556931934752406,-1.5819209257708948,0.004984371829777956,0.09110408950171332,-0.1291224677241238,0.730129462229693,0.007247197215235012,0.021950853448849283,1.5853430654931806
1742159333.714846,0.003563118167221546,-1.575791975060934,-0.0003991127014160156,-3.1556745968260707,-1.5819209257708948,0.004965298343449831,0.09109916895546342,-0.12912317420275735,0.7301325262641769,0.007219606515957389,0.021923313412830017,1.5853167618226052
1742159333.7228816,0.0035548328887671232,-1.5758148632445277,-0.0004342751344665885,-3.155677934686178,-1.581944767628805,0.004984371829777956,0.09112347079101375,-0.12912089329525805,0.7301269868258762,0.007249542543360549,0.021990158149741965,1.585327684561746
1742159333.730958,0.003563118167221546,-1.5757996044554652,-0.000395445415051654,-3.1556745968260707,-1.5819171110736292,0.004980802536010742,0.09110235803176839,-0.1291236334306666,0.7301321655543218,0.007225934880721296,0.021923411129715353,1.5853322266460208
1742159333.7383645,0.003551268484443426,-1.575811048547262,-0.00042344574467279017,-3.155677934686178,-1.5819171110736292,0.005000171717256308,0.09111721543821615,-0.12912463728300907,0.7301283317096161,0.007260026929942131,0.02195691536111685,1.5853397211433204
1742159333.7466452,0.0035738826263695955,-1.5757838688292445,-0.0003991127014160156,-3.1556745968260707,-1.5819137732135218,0.004968881607055664,0.09109588045988712,-0.12912308715774196,0.7301332700483257,0.007218780628490877,0.02191141128962691,1.5853310672921348
1742159333.754658,0.0035893679596483707,-1.575791975060934,-0.0004425430961418897,-3.155689855615133,-1.5819485823260706,0.0049569676630198956,0.09111890235925126,-0.12911729282316192,0.7301272781894871,0.007243654587043671,0.021991355974504096,1.5853348883612544
1742159333.7626624,0.0035583972930908203,-1.5758115253844203,-0.0003882979799527675,-3.15565886119985,-1.5819605032550257,0.0049843573942780495,0.09110429112666585,-0.1291187509479359,0.7301330517660898,0.007183232223864226,0.021948761169943952,1.5853313534493632
1742159333.7707276,0.0035858035553246737,-1.5758077106871546,-0.000395445415051654,-3.155689855615133,-1.5819557348834437,0.004980802536010742,0.09111177776116369,-0.1291167906954627,0.7301300509934432,0.007213619565701439,0.021972286931863604,1.5853552064057426
1742159333.7780838,0.0035703182220458984,-1.5758148632445277,-0.0004270267963875085,-3.155677934686178,-1.5819676558123987,0.004968881607055664,0.09112301847837792,-0.12911668683216518,0.7301276094003271,0.00722543244840724,0.022002549161733,1.5853278548415128
1742159333.7870708,0.0035703182220458984,-1.5757957897581996,-0.0004115104675292969,-3.155667921105856,-1.5819137732135218,0.004984397906810045,0.09110565059346055,-0.12912337604392243,0.7301316643106495,0.007232957799443549,0.02192519134104956,1.5853429883676806
1742159333.7941434,0.003551268484443426,-1.5757800541319789,-0.0003991127014160156,-3.155689855615133,-1.5819485823260706,0.004968881607055664,0.09109256312580233,-0.12912086292395666,0.73013224202937,0.007200509703361001,0.021947644810209364,1.5853087385212015
1742159333.8023553,0.0035738826263695955,-1.5757800541319789,-0.0003954527492169291,-3.155708452264303,-1.5819605032550257,0.004965315107256174,0.0910964988900022,-0.12911732069905596,0.730130927735992,0.00720254334193822,0.021968960993711466,1.585327897394828
1742159333.8102946,0.003570325206965208,-1.5758115253844203,-0.0004151704197283834,-3.155689855615133,-1.581921402608053,0.004984390921890736,0.09111862365939662,-0.12912237106276506,0.7301279795787027,0.007259466360123416,0.02196370608923081,1.5853430451684198
1742159333.8191411,0.0035822391510009766,-1.5758077106871546,-0.00043067955994047225,-3.1556931934752406,-1.581951920186178,0.004968881607055664,0.0911235123460485,-0.12911751748767727,0.7301266137872274,0.0072469279846488965,0.021999578183712436,1.5853396832493816
1742159333.8261478,0.0035822391510009766,-1.5758148632445277,-0.00039186436333693564,-3.1556745968260707,-1.5819757620440882,0.004965293221175671,0.09111238168518432,-0.12911467190394163,0.7301310354046713,0.007188526148763548,0.021978748168869352,1.5853362572430472
1742159333.8341486,0.0035822249483317137,-1.5757838688292445,-0.0004151777538936585,-3.155665536920065,-1.5819757620440882,0.004968881607055664,0.09110115925563589,-0.1291147071342599,0.7301325590922988,0.007175365075096486,0.021965601288104417,1.585339857890153
1742159333.8423874,0.0035667538177222013,-1.5758029423155726,-0.0003804204461630434,-3.1556745968260707,-1.581944767628805,0.004965293221175671,0.09109969863572401,-0.12911992870735234,0.730133174731367,0.007194686040909829,0.02193597726429351,1.5853205619615274
1742159333.8505564,0.0035703254397958517,-1.5757957897581996,-0.0004115394549444318,-3.1557051144041957,-1.58195668855776,0.0049724699929356575,0.09111011862550177,-0.12911805826428346,0.7301283579195391,0.0072281710224094,0.021988273343354514,1.5853314329533488
1742159333.858559,0.0035822319332510233,-1.5758115253844203,-0.00037682487163692713,-3.155689855615133,-1.5819361845599573,0.0049533722922205925,0.09110731699549564,-0.12911953934466805,0.7301313903647134,0.007217075022829403,0.02194529783506588,1.5853240605224488
1742159333.86639,0.0035703182220458984,-1.5758115253844203,-0.00040434839320369065,-3.1557051144041957,-1.5819485823260706,0.004984390921890736,0.09111682009124704,-0.1291190346347986,0.7301275808283798,0.0072414659373110195,0.021988592123029893,1.58534326435996
1742159333.8746192,0.0035822249483317137,-1.5758115253844203,-0.00041151774348691106,-3.1556865177550257,-1.5819323698626917,0.004968881607055664,0.09111852069509796,-0.12911995233004755,0.7301285862123318,0.0072450116384246786,0.021966902541598173,1.5853395161130643
1742159333.8826191,0.0035858035553246737,-1.5758077106871546,-0.00041872981819324195,-3.1556865177550257,-1.581944767628805,0.004980802536010742,0.09111917477878155,-0.1291181003396511,0.7301282742977391,0.007238014734773855,0.021979325993549854,1.585355111154058
1742159333.8906186,0.0035858105402439833,-1.5757996044554652,-0.0004270267963875085,-3.15565886119985,-1.5819605032550257,0.004984390921890736,0.09111389284199309,-0.12911620981759794,0.7301306728429575,0.007204086916690742,0.02197000881582839,1.585358802175652
1742159333.8994224,0.003573877736926079,-1.5757800541319789,-0.0004151631146669388,-3.1556712589659632,-1.581928555165426,0.0049724699929356575,0.09109862084272802,-0.1291212585372753,0.7301324579409689,0.007214190632161173,0.021929993639109992,1.5853347573245637
1742159333.9064028,0.003573877736926079,-1.5757767162718714,-0.0004115104675292969,-3.1556745968260707,-1.5819323698626917,0.004996621981263161,0.09109586918796543,-0.1291207988387194,0.7301327909416111,0.007208572309061972,0.021930124073898428,1.5853589469995224
1742159333.9145544,0.00356309674680233,-1.5757996044554652,-0.0003918790025636554,-3.1556745968260707,-1.581944767628805,0.004968881607055664,0.09110112939973528,-0.1291202486255948,0.7301324537659625,0.007201165886988791,0.02194233200530795,1.5853204939156227
1742159333.9225595,0.0035703182220458984,-1.5757957897581996,-0.0004151704197283834,-3.1556745968260707,-1.5819361845599573,0.004965305328369141,0.09110765738413747,-0.12912061088194413,0.730130728029202,0.007223176849389886,0.02195094213545519,1.5853240712450938
1742159333.9307396,0.003558411495760083,-1.5757957897581996,-0.0004115104675292969,-3.155689855615133,-1.5819137732135218,0.004980788100510836,0.09110677202537933,-0.12912443006806273,0.730129743868139,0.007250243572744814,0.021942427362474863,1.5853274971117428
1742159333.9386528,0.0035822391510009766,-1.5757957897581996,-0.0004187345621176064,-3.1556745968260707,-1.581921402608053,0.004984371829777956,0.09111040643366107,-0.12912133205222193,0.7301304257908516,0.0072377563441084715,0.021942202904603372,1.5853549446781359
1742159333.9469552,0.0035857916809618473,-1.5758077106871546,-0.0004187442536931485,-3.1556865177550257,-1.581928555165426,0.004980795551091433,0.09111919740859721,-0.1291200903581888,0.7301282909029608,0.007250813758787268,0.02196660801654478,1.5853549702011875
1742159333.9549496,0.0035822249483317137,-1.575791975060934,-0.00039546488551422954,-3.155689855615133,-1.5819361845599573,0.0049569751136004925,0.09110224735778634,-0.1291195465203686,0.730131499496977,0.007216376334911754,0.021944604884138973,1.5853276781726067
1742159333.962949,0.0035703182220458984,-1.5757957897581996,-0.0004187345621176064,-3.1556621990599574,-1.5819323698626917,0.0049724578857421875,0.09110735127771981,-0.12912109008022468,0.7301314991607698,0.007219354764743391,0.021940955967217422,1.5853311793958635
1742159333.9709542,0.0035703182220458984,-1.5758077106871546,-0.00039910536725074053,-3.1556555233397425,-1.581928555165426,0.0049652839079499245,0.09110687320205474,-0.12912157782184125,0.7301327597947143,0.007210975278684076,0.021926628070734776,1.585323959323605
1742159333.978949,0.003573870752006769,-1.5757681332030238,-0.00040268898010253906,-3.1556555233397425,-1.5819409529315394,0.004984371829777956,0.09108563246359973,-0.12911980563485728,0.730136018752432,0.007172953566106647,0.021908158589845173,1.585346749008985
1742159333.9869518,0.0035703182220458984,-1.5757767162718714,-0.00041515828343108296,-3.1557051144041957,-1.581928555165426,0.004968888591974974,0.0911003336301645,-0.12912154194898778,0.7301297972547597,0.007238106339504074,0.021954073811956937,1.5853276599321084
1742159333.9949498,0.0035548661835491657,-1.575791975060934,-0.0004425430961418897,-3.1556712589659632,-1.581963841115133,0.004968881607055664,0.09111217517347689,-0.12911859059732145,0.7301288895765683,0.007217515911796842,0.02198842139330174,1.58531239536008
1742159334.0029497,0.003573870752006769,-1.5758148632445277,-0.0004187345621176064,-3.1557017765440882,-1.581944767628805,0.004968896042555571,0.09112362072281664,-0.12911915200255103,0.7301262883543648,0.007255616922704003,0.021996909200870534,1.5853312793856287
1742159334.0109556,0.003573870752006769,-1.5758077106871546,-0.0003991127014160156,-3.1556745968260707,-1.5819137732135218,0.004968888591974974,0.09110966405711178,-0.12912304085040321,0.7301311055108167,0.007237613289318585,0.021930104238662408,1.5853310266264788
1742159334.0189483,0.0035703182220458984,-1.5757957897581996,-0.0004151632310822606,-3.1556555233397425,-1.5819323698626917,0.004965286236256361,0.09110534743995533,-0.12912110564077597,0.7301324028077989,0.007211214517232713,0.021932886441429097,1.5853240018920225
1742159334.0271294,0.0035512924659997225,-1.5757996044554652,-0.0003840923309326172,-3.1556831798949183,-1.5819171110736292,0.004965298343449831,0.09109807389110859,-0.12912471837589748,0.730132428680089,0.00722364788837163,0.021921201245461184,1.5853049121390106
1742159334.034479,0.0035857916809618473,-1.5758115253844203,-0.0004306554910726845,-3.1556931934752406,-1.5819605032550257,0.004965293221175671,0.09112615835083958,-0.12911613322182805,0.7301262600387979,0.007243073646531132,0.022009314901207576,1.5853397063666017
1742159334.042495,0.0035667656920850277,-1.575791975060934,-0.0004270267963875085,-3.155689855615133,-1.581928555165426,0.00496531231328845,0.09111081770432329,-0.1291218361387532,0.7301286871512286,0.007247539793001894,0.02196329184008894,1.5853204867001929
1742159334.051192,0.0035822391510009766,-1.5758115253844203,-0.0003991127014160156,-3.155689855615133,-1.581928555165426,0.004968881607055664,0.09111478224463541,-0.12912043591168332,0.7301294068934834,0.007240855870325059,0.021956800792132546,1.5853395102562364
1742159334.0593312,0.003570325206965208,-1.5758115253844203,-0.00041515828343108296,-3.1556712589659632,-1.5819485823260706,0.004968881607055664,0.0911163330096722,-0.12911906273362367,0.7301295789165727,0.007223241833840975,0.021970367430773175,1.5853277202907592
1742159334.0670912,0.003573870752006769,-1.5757957897581996,-0.00037682504625990987,-3.15565886119985,-1.5819485823260706,0.004972464870661497,0.09109336729713005,-0.12911885490168315,0.730135518754592,0.007170860280673897,0.02191816383163606,1.585334872302196
1742159334.0749972,0.0035822391510009766,-1.5758115253844203,-0.0003991127014160156,-3.15565886119985,-1.581928555165426,0.004953405819833279,0.09111102513696367,-0.12912047943363658,0.7301321205577989,0.0072163522344967515,0.02193234533221651,1.5853240002486788
1742159334.0829954,0.003563142381608486,-1.5757996044554652,-0.0004115104675292969,-3.1556555233397425,-1.581963841115133,0.004965305328369141,0.09110536721638537,-0.12911789723892966,0.7301323481361625,0.007186595901632942,0.021957670967662428,1.5853170773578957
1742159334.0909994,0.003563142381608486,-1.5757800541319789,-0.0004151704197283834,-3.1556745968260707,-1.581928555165426,0.004968881607055664,0.09109764173503566,-0.12912223181396096,0.7301321650541773,0.007216879434675777,0.02193256484981214,1.5853204380239474
1742159334.0989993,0.0035667656920850277,-1.57578768352651,-0.00040268898010253906,-3.15565886119985,-1.581921402608053,0.004949808120727539,0.09109644681243181,-0.12912280779491,0.7301339733974995,0.007206093239699381,0.021910744273164307,1.5853049104725427
1742159334.1069958,0.0035857916809618473,-1.5758115253844203,-0.0004306554910726845,-3.1556712589659632,-1.5819323698626917,0.004965305328369141,0.09112353310281865,-0.1291196154641973,0.7301282116703252,0.007248054204001567,0.021969912772251677,1.585339481856096
1742159334.1149962,0.0035703182220458984,-1.5757838688292445,-0.0003918886068277061,-3.1556712589659632,-1.581944767628805,0.004980795551091433,0.09109256222477993,-0.1291196266478058,0.7301341736532333,0.007186195477581747,0.02192740867211756,1.585339647935828
1742159334.12299,0.0035857795737683773,-1.5757767162718714,-0.0004306554910726845,-3.1556712589659632,-1.5819361845599573,0.004972464870661497,0.09110340078409312,-0.12911921800359882,0.7301313680045614,0.007217635936792387,0.02194561155346052,1.585346709799053
1742159334.1310055,0.0035822391510009766,-1.575791975060934,-0.00040268898010253906,-3.1556745968260707,-1.5819323698626917,0.004949815105646849,0.0911028205219887,-0.1291200220812827,0.7301321940443243,0.007213024638170451,0.02193524289382312,1.5853204839687645
1742159334.1390097,0.0035822391510009766,-1.5757838688292445,-0.0004306554910726845,-3.15565886119985,-1.5819323698626917,0.0049688671715557575,0.09110558087634958,-0.12912001169590226,0.7301318083021616,0.007216559369017604,0.021938417201541174,1.5853395186340984
1742159334.1465414,0.0035857916809618473,-1.5757767162718714,-0.00040435791015625,-3.155677934686178,-1.581928555165426,0.004984371829777956,0.0910954241568981,-0.12912018926761232,0.7301331421033931,0.007208293792307025,0.021924232939399345,1.5853585887048065
1742159334.1545546,0.0035703254397958517,-1.575799127618307,-0.0003991127014160156,-3.155689855615133,-1.5819361845599573,0.004965298343449831,0.0911060666103403,-0.1291206100523247,0.7301305241266314,0.007225121298865549,0.02195299351362663,1.5853240899702774
1742159334.162587,0.0035893202293664217,-1.575811048547262,-0.00040793418884277344,-3.1556931934752406,-1.5819485823260706,0.004968881607055664,0.09111875231777011,-0.1291173146662522,0.7301283473964773,0.0072341880771924485,0.021981760212802938,1.5853467427551586
1742159334.1707675,0.0035703182220458984,-1.575784822503561,-0.000423431396484375,-3.155689855615133,-1.581937615071432,0.0049843573942780495,0.09110592746052348,-0.12912042142502833,0.7301296479029735,0.007232101193022657,0.02196198643519654,1.585343163602735
1742159334.1785958,0.0035703324247151613,-1.575791975060934,-0.0004115104675292969,-3.1556712589659632,-1.581951920186178,0.004987971857190132,0.09110380600465508,-0.12911869773153928,0.7301316763195408,0.007202518020977462,0.021954784519313198,1.5853468724121835
1742159334.1865873,0.003582210745662451,-1.5757957897581996,-0.0003918645379599184,-3.1556745968260707,-1.5819323698626917,0.004965286236256361,0.09110140170548978,-0.12912003589166657,0.7301328150674411,0.0072076863641563635,0.021929724458200277,1.5853359244472025
1742159334.1947126,0.0035703182220458984,-1.575780530969137,-0.00041515828343108296,-3.1556712589659632,-1.5819485823260706,0.00496531231328845,0.09109841147507838,-0.12911912491195116,0.7301323929726099,0.0071987169597689075,0.021946068537362702,1.5853241902615007
1742159334.2029507,0.0035893511958420277,-1.575780530969137,-0.0004115104675292969,-3.1556865177550257,-1.581951920186178,0.004968881607055664,0.09110149447589656,-0.12911696643554957,0.7301313793451205,0.007205032239686793,0.02195799289151235,1.585346835328382
1742159334.211111,0.0035703324247151613,-1.5757957897581996,-0.00041877315379679203,-3.1556745968260707,-1.5819395224200647,0.004968881607055664,0.09110886034975854,-0.1291201938451709,0.7301304023545645,0.0072234281511892465,0.021956389986530572,1.585327685256516
1742159334.21896,0.003605112200602889,-1.5757838688292445,-0.0004079222562722862,-3.1556865177550257,-1.5819485823260706,0.0049533722922205925,0.09110426313084379,-0.12911593963284185,0.7301314006814725,0.007207128624387142,0.021955284940323564,1.585347058343492
1742159334.2269638,0.0035857916809618473,-1.5757838688292445,-0.00039185001514852047,-3.1556812725462855,-1.5819605032550257,0.004968881607055664,0.09109574233023454,-0.12911627265458106,0.7301332830190926,0.007181313488290621,0.021947746217499436,1.5853433367473813
1742159334.2349691,0.0035703182220458984,-1.575811048547262,-0.00038040592335164547,-3.1556745968260707,-1.5819361845599573,0.0049533722922205925,0.09110485118153279,-0.12912064089974373,0.7301324495630633,0.007207669338913785,0.021935612992786353,1.5853121293852976
1742159334.2426045,0.0035822391510009766,-1.575799127618307,-0.00038826896343380213,-3.1556745968260707,-1.5819676558123987,0.004968881607055664,0.09110209050994673,-0.12911570398962538,0.730132794351115,0.007179698012336388,0.02195722072841505,1.585339809147603
1742159334.2504857,0.003570311004295945,-1.575811048547262,-0.0003876396222040057,-3.15565886119985,-1.5819485823260706,0.004987978842109442,0.09110534767339695,-0.12911913010940232,0.7301331670787867,0.007191663271633097,0.021938587334814533,1.5853467994527857
1742159334.2585,0.0035703182220458984,-1.575811048547262,-0.000423431396484375,-3.1556865177550257,-1.581951920186178,0.004984390921890736,0.09112066937285271,-0.12911861906728492,0.7301275430695483,0.007238915524696046,0.021991145754862468,1.5853432617815766
1742159334.2664993,0.0035703182220458984,-1.5757996044554652,-0.0003803915751632303,-3.1556745968260707,-1.5819323698626917,0.004968896042555571,0.09109823405212857,-0.12912113163899863,0.730133494024245,0.00720181296471667,0.021923625027507963,1.5853276408163568
1742159334.27449,0.0035667777992784977,-1.5758077106871546,-0.00039185001514852047,-3.1556712589659632,-1.5819409529315394,0.0049688746221363544,0.09110588186993483,-0.1291203699196994,0.7301320168460887,0.007207899161098143,0.02194305952710817,1.5853241233429183
1742159334.2824879,0.0035703182220458984,-1.575799127618307,-0.0003918572037946433,-3.155689855615133,-1.5819485823260706,0.004968888591974974,0.09110362396829856,-0.12911910232709578,0.7301311588531125,0.00720966348875351,0.021957027951477692,1.5853277687863625
1742159334.2904887,0.0035703182220458984,-1.575799127618307,-0.00041151780169457197,-3.1557017765440882,-1.581928555165426,0.004980802536010742,0.09111166925061666,-0.1291215084478071,0.7301283801175851,0.0072504615952006125,0.021966144769147662,1.5853395373337655
1742159334.2986538,0.0035667656920850277,-1.575799127618307,-0.0003991127014160156,-3.1556555233397425,-1.5819485823260706,0.004984371829777956,0.09110143045555086,-0.1291194615399607,0.7301335162795332,0.007188668723796086,0.021935594283248205,1.585339656992153
1742159334.3066683,0.0035703182220458984,-1.5757838688292445,-0.0004425430961418897,-3.1556745968260707,-1.581944767628805,0.004968881607055664,0.09110991070533515,-0.12911953408129329,0.730129354444875,0.007228621460173464,0.021969827496893364,1.5853277190978783
1742159334.314493,0.0035857795737683773,-1.575780530969137,-0.00040791506762616336,-3.1556745968260707,-1.5819323698626917,0.0049724699929356575,0.09109840891877168,-0.1291197132693961,0.7301327659449122,0.007208342416064972,0.02193038446440407,1.5853466931118805
1742159334.3226616,0.00355483777821064,-1.575811048547262,-0.0004026935785077512,-3.155689855615133,-1.5819171110736292,0.0049688746221363544,0.09111217982623594,-0.12912433125527495,0.7301291427601481,0.007252603113929357,0.02195007125762529,1.585312016298894
1742159334.330872,0.003573858644813299,-1.5757957897581996,-0.0004115251067560166,-3.1556745968260707,-1.5819252173053187,0.004984371829777956,0.0911069082380041,-0.12912164012463262,0.7301310659178506,0.007229145192067981,0.021939480984202814,1.5853465960916575
1742159334.3389268,0.0035857795737683773,-1.575780530969137,-0.00043067955994047225,-3.1556745968260707,-1.5819361845599573,0.004984371829777956,0.09110601906388494,-0.1291192056648024,0.7301307272862515,0.007223429581975535,0.02195124906049564,1.5853586142776668
1742159334.3472054,0.0035703182220458984,-1.5757924518980921,-0.00042700767517089844,-3.15565886119985,-1.5819676558123987,0.004980788100510836,0.0911077420784514,-0.1291167581196484,0.7301313160478787,0.007192892133347881,0.02196990107973487,1.5853397722054672
1742159334.3552034,0.0035667777992784977,-1.5757957897581996,-0.0004270267963875085,-3.155677934686178,-1.5819099585162562,0.004953391384333372,0.09111160198883218,-0.1291241256426647,0.730129405022743,0.00725572487596329,0.02194227947834517,1.5853084193029312
1742159334.3631997,0.0035703182220458984,-1.5757957897581996,-0.00037682504625990987,-3.155677934686178,-1.5819290320025843,0.004968881607055664,0.09109524401409069,-0.12912155021131622,0.7301338704945893,0.0072012384496477995,0.021917847362860832,1.5853276121692563
1742159334.371643,0.0035667777992784977,-1.5757957897581996,-0.0003990981786046177,-3.1556745968260707,-1.581944767628805,0.004977147560566664,0.09110181388593243,-0.12911990832674125,0.7301321549341142,0.007203908402111509,0.021945029783302594,1.5853324433000215
1742159334.378922,0.0035893202293664217,-1.575846334496969,-0.0004115104675292969,-3.1556745968260707,-1.5819414297686976,0.004991538356989622,0.09113810471644819,-0.12911814160095766,0.7301264595705091,0.0072562028151300206,0.02199192658070522,1.5853692693084556
1742159334.3867815,0.0035667777992784977,-1.575780530969137,-0.0003991127014160156,-3.1556931934752406,-1.5819175879107874,0.0049688671715557575,0.09109528289822753,-0.12912324692619728,0.7301319407061495,0.0072277970296826,0.021926420804440624,1.585324002968219
1742159334.3947637,0.0035548568703234196,-1.575780530969137,-0.0004306554910726845,-3.1556745968260707,-1.581951920186178,0.0049569676630198956,0.09110199954859834,-0.12912009242586026,0.7301307120537673,0.007210979713529184,0.0219633955654946,1.5853004083799533
1742159334.402761,0.0035857795737683773,-1.5758429966368617,-0.0004115104675292969,-3.1556621990599574,-1.5819361845599573,0.004953377414494753,0.09113422110701505,-0.12911913184759627,0.730127854027531,0.007247553775477424,0.02197540449339501,1.585327521250118
1742159334.4103231,0.0035703182220458984,-1.5758148632445277,-0.0004115104675292969,-3.155689855615133,-1.5819481054889124,0.004984371829777956,0.0911192966316384,-0.12911909548413777,0.7301279741464396,0.007238154563627235,0.021984414992756777,1.5853432166761239
1742159334.4191687,0.0035667777992784977,-1.5758429966368617,-0.0004306554910726845,-3.1556865177550257,-1.5819323698626917,0.004949815105646849,0.0911411237869141,-0.1291212642326441,0.730124017506513,0.007284889128428214,0.022006514255767384,1.5853049488269424
1742159334.4273565,0.0035893202293664217,-1.5757957897581996,-0.0004115104675292969,-3.1556745968260707,-1.5819395224200647,0.0049497936852276325,0.09110888269017692,-0.12911847651132718,0.7301310514434268,0.00721728231981776,0.021950823918754272,1.5853275879466038
1742159334.4343581,0.0035703182220458984,-1.5758077106871546,-0.0004115104675292969,-3.1556745968260707,-1.5819013754474085,0.004968881607055664,0.09111336712676202,-0.12912486398101142,0.7301300111156181,0.007257205012096089,0.02193008212612438,1.585327368977326
1742159334.443051,0.0035548568703234196,-1.5757957897581996,-0.0004115104675292969,-3.1556745968260707,-1.581944767628805,0.004984371829777956,0.09110442654443461,-0.12912097286503732,0.7301310456501258,0.007213903108833925,0.021954693446264814,1.5853277421364471
1742159334.4510639,0.0035667966585606337,-1.5758077106871546,-0.0003991127014160156,-3.15565886119985,-1.5819171110736292,0.0049688671715557575,0.09110683918282632,-0.129123297939571,0.7301324795197665,0.007222704422586162,0.02192025766967999,1.5853239388451204
1742159334.4590983,0.0035857795737683773,-1.5757957897581996,-0.0003991127014160156,-3.155689855615133,-1.5819485823260706,0.004987955093383789,0.09110611734860456,-0.1291176877583446,0.7301308134775027,0.007212823060457882,0.02196020009379821,1.5853622972358272
1742159334.4671626,0.0035667777992784977,-1.575799127618307,-0.00041515828343108296,-3.1556931934752406,-1.581963841115133,0.004953391384333372,0.09111134742026888,-0.1291175078280618,0.730128767256112,0.007218473439833084,0.021989926024483165,1.5853088416677474
1742159334.4751656,0.0035667966585606337,-1.575818201104635,-0.00041515828343108296,-3.1556712589659632,-1.5819409529315394,0.004953379742801189,0.09111974630426116,-0.129120306981812,0.7301289811684231,0.007234382069862419,0.02196959686397658,1.5853086233980347
1742159334.4830506,0.0035857725888490677,-1.575811048547262,-0.00042700767517089844,-3.1556712589659632,-1.5819605032550257,0.004968881607055664,0.09112200120781414,-0.12911617306944856,0.7301285499332996,0.007222653365164979,0.021988760918539574,1.5853432527724027
1742159334.4910588,0.0035667777992784977,-1.5757924518980921,-0.00040793418884277344,-3.1556745968260707,-1.5819323698626917,0.004984383471310139,0.09110285436054677,-0.12912142059868664,0.7301316819964587,0.0072181057826458395,0.021939613021361923,1.585339587361583
1742159334.4990573,0.003578625852242112,-1.5757957897581996,-0.0004115104675292969,-3.155689855615133,-1.5819485823260706,0.004980802536010742,0.09110934069352379,-0.12911831795866477,0.7301297054684794,0.007222586579317697,0.0219698923375351,1.5853479868744527
1742159334.5070708,0.0035703182220458984,-1.5757957897581996,-0.0003991127014160156,-3.155667921105856,-1.5819171110736292,0.004968881607055664,0.09110149957583931,-0.12912298806149497,0.7301327686112152,0.007220361786018411,0.02191808563280454,1.5853275027459721
1742159334.5150506,0.0035703182220458984,-1.575780530969137,-0.00041515828343108296,-3.1557051144041957,-1.5819485823260706,0.004968888591974974,0.09110251539567522,-0.12911907742162257,0.7301294288207553,0.007225323171274688,0.021972789011393705,1.5853278048870285
1742159334.5230548,0.0035703040193766356,-1.5757957897581996,-0.0003991127014160156,-3.1556555233397425,-1.5819099585162562,0.004968881607055664,0.09110000338305008,-0.1291238842298353,0.7301338619091864,0.007216276039797231,0.021902683998061983,1.585327420851189
1742159334.530933,0.0035822109784930944,-1.575780530969137,-0.00040268898010253906,-3.1556745968260707,-1.581928555165426,0.004968881607055664,0.09109620456318133,-0.12912051544092093,0.730133237180661,0.00720722231286971,0.021923263858148717,1.5853395098323573
1742159334.53891,0.0035857795737683773,-1.5757957897581996,-0.000423431396484375,-3.1556865177550257,-1.5819485823260706,0.004968881607055664,0.09111384726813238,-0.12911765012887813,0.7301289322765467,0.007229154963663188,0.02197667336799137,1.5853432115077388
1742159334.5469246,0.0035667824558913708,-1.575780530969137,-0.000423431396484375,-3.1556745968260707,-1.5819137732135218,0.004980802536010742,0.091101168331109,-0.12912369840791582,0.7301313997751799,0.007235536752888598,0.02192783682808865,1.5853358832577844
1742159334.5549247,0.0035822109784930944,-1.575799127618307,-0.000395445415051654,-3.1556712589659632,-1.581944767628805,0.004968881607055664,0.09110411006080242,-0.12911850670916727,0.7301324705705065,0.007200792308052121,0.02194225082690115,1.5853396028128732
1742159334.5629253,0.003570325206965208,-1.575780530969137,-0.00040793418884277344,-3.1556712589659632,-1.5819171110736292,0.004968881607055664,0.0910960333887843,-0.12912299773564276,0.7301330732882217,0.00721788506467389,0.021915684030729524,1.5853275328903298
1742159334.5709136,0.0035584254655987024,-1.575811048547262,-0.0003991127014160156,-3.1556931934752406,-1.581951920186178,0.005000209901481867,0.09111180850507375,-0.12911973547462002,0.7301291321408776,0.0072252823352415615,0.021977230117044593,1.5853472047932196
1742159334.5789216,0.0035703182220458984,-1.5757957897581996,-0.0003991127014160156,-3.155689855615133,-1.581944767628805,0.004968881607055664,0.09110412554573853,-0.12911956435764663,0.7301308176929627,0.007215757855855266,0.021957113353170053,1.5853277353419184
1742159334.5869193,0.003570325206965208,-1.5757767162718714,-0.00040793418884277344,-3.1556712589659632,-1.5819485823260706,0.004965293221175671,0.09109379029434866,-0.1291191443837809,0.730133384861645,0.007190006083757834,0.021937404839657802,1.5853241865082255
1742159334.5949218,0.0035892962478101254,-1.575811048547262,-0.0004187345621176064,-3.1556865177550257,-1.581928555165426,0.0049724699929356575,0.09112157658089876,-0.12911976437680264,0.7301279886810182,0.007253307893670545,0.02196924572675679,1.5853501444108304
1742159334.6029172,0.0035822391510009766,-1.5757957897581996,-0.0004114961193408817,-3.15565886119985,-1.5819137732135218,0.004965293221175671,0.09110608681511989,-0.12912230271759234,0.7301324588021809,0.007225490719572586,0.021918119379203484,1.585335794766772
1742159334.6109207,0.0035703182220458984,-1.5758077106871546,-0.0004151704197283834,-3.155696531335348,-1.581928555165426,0.004980788100510836,0.09111721784100073,-0.12912149242603146,0.7301277335712096,0.00725600639704044,0.021971602412529732,1.585339502641173
1742159334.618956,0.003566789673641324,-1.575799127618307,-0.0003882763267029077,-3.1556712589659632,-1.5819485823260706,0.004968881607055664,0.09109971627489559,-0.12911945607678277,0.7301331070280153,0.007192283321354246,0.021939514062721568,1.5853242135355796
1742159334.626947,0.003566789673641324,-1.575818201104635,-0.0004151777538936585,-3.1556745968260707,-1.5819171110736292,0.004984378814697266,0.09112018489725318,-0.12912322784821667,0.730128713473137,0.0072561929682905405,0.021953508909714866,1.5853394382606543
1742159334.6349416,0.0035857795737683773,-1.575799127618307,-0.0004151631146669388,-3.155689855615133,-1.5819605032550257,0.004953391384333372,0.0911134018570596,-0.12911619069944147,0.7301290627683515,0.007218301134351297,0.02198480072782284,1.5853278136560427
1742159334.6429405,0.003573846770450473,-1.575780530969137,-0.000395445415051654,-3.1556712589659632,-1.581944767628805,0.004965298343449831,0.09109227766077134,-0.12911930568174573,0.7301341588149024,0.0071861436018901634,0.021927616852797063,1.5853276834427261
1742159334.6509311,0.003566789673641324,-1.575780530969137,-0.0004115104675292969,-3.155689855615133,-1.581963841115133,0.004968896042555571,0.09109897180144617,-0.12911755463855284,0.7301310739165203,0.0071984740339267085,0.02196983757373074,1.5853243826090715
1742159334.6591268,0.0035703182220458984,-1.575811048547262,-0.0004115251067560166,-3.1556712589659632,-1.581937615071432,0.004968881607055664,0.09111485417845662,-0.12912041609448585,0.730129959051538,0.007228650280473289,0.0219585295616402,1.585327632948581
1742159334.6671386,0.0035822391510009766,-1.575799127618307,-0.0004270149511285126,-3.155689855615133,-1.581928555165426,0.004968896042555571,0.09111694720433715,-0.12912041209322644,0.7301280387697555,0.007253068663862608,0.021968991323608515,1.5853395322375485
1742159334.6751285,0.0035822391510009766,-1.5757924518980921,-0.0003918790025636554,-3.1556712589659632,-1.581928555165426,0.004968896042555571,0.09109908021839938,-0.12912051260742746,0.7301334132361579,0.007205494061634897,0.021921487151432124,1.5853395350341999
1742159334.68312,0.0035358904860913754,-1.575811048547262,-0.0003954600542783737,-3.1556865177550257,-1.5819171110736292,0.0049879406578838825,0.091106909055179,-0.12912607469595438,0.7301300814989234,0.0072446964591629335,0.021941619121512636,1.5853121342044656
1742159334.6911237,0.0035892962478101254,-1.575799127618307,-0.00041151774348691106,-3.155689855615133,-1.5819051901446741,0.004968881607055664,0.09111270254010619,-0.12912266249947332,0.7301294496049077,0.007259205306103357,0.021938523763907924,1.5853464047992503
1742159334.6982777,0.0035822391510009766,-1.5757957897581996,-0.0004234603838995099,-3.1556745968260707,-1.5819209257708948,0.004953391384333372,0.0911119877764503,-0.12912138233311676,0.73013000394543,0.007241488664054498,0.02194555791883824,1.5853239602092704
1742159334.7071369,0.003573846770450473,-1.5757957897581996,-0.00040791506762616336,-3.155677934686178,-1.581944767628805,0.004953391384333372,0.09110608048044049,-0.12911924433633806,0.7301310747369162,0.007213125988569531,0.02195464860436527,1.5853157573154333
1742159334.7142863,0.003585767699405551,-1.5757957897581996,-0.0003954721905756742,-3.1556745968260707,-1.5819247404681605,0.004968881607055664,0.09110307683550627,-0.1291206415515594,0.7301325010801746,0.007216556840205468,0.021926588790096624,1.5853430177655221
1742159334.7223325,0.0035703182220458984,-1.5757767162718714,-0.0004270267963875085,-3.1556745968260707,-1.581944767628805,0.004980788100510836,0.09110058501716156,-0.12911957520360515,0.730131390588664,0.0072108770644917775,0.021952028256518343,1.5853396416665984
1742159334.730519,0.003566789673641324,-1.5757996044554652,-0.0003918790025636554,-3.1556745968260707,-1.5819209257708948,0.0049533843994140625,0.09110163460659877,-0.12912283713919429,0.7301324800721508,0.0072197488795470895,0.02192364608640179,1.5853085111720837
1742159334.73892,0.0035822391510009766,-1.5757957897581996,-0.0004342246102169156,-3.15565886119985,-1.5819323698626917,0.004968881607055664,0.09111366729221475,-0.12911998173723516,0.7301304069744793,0.007228790575814818,0.02195056650281612,1.5853395138653177
1742159334.747208,0.003554868744686246,-1.5757838688292445,-0.000395445415051654,-3.1556555233397425,-1.5819757620440882,0.004972479306161404,0.09108981278199191,-0.12911724742904993,0.730135199134693,0.007152262306994704,0.02194201941965289,1.5853160959158499
1742159334.75437,0.003573841881006956,-1.575780530969137,-0.00039545775507576764,-3.1556745968260707,-1.5819757620440882,0.004968881607055664,0.09109264886232918,-0.1291154989957363,0.7301338311833404,0.007164368328918609,0.02195459432889804,1.5853314976969657
1742159334.7622035,0.0035394192673265934,-1.5757767162718714,-0.00039546488551422954,-3.1556931934752406,-1.5819323698626917,0.004968881607055664,0.09108830688490216,-0.12912393944249484,0.7301325966869282,0.007210520684002038,0.021931990037501597,1.5852967783008798
1742159334.7703621,0.0035703182220458984,-1.5757957897581996,-0.0004115251067560166,-3.1556712589659632,-1.5819252173053187,0.004984371829777956,0.09110604647918354,-0.12912196736296988,0.7301313581566989,0.007226561543328947,0.02193682286820468,1.585343052071839
1742159334.778225,0.0035703182220458984,-1.5757800541319789,-0.00038828334072604775,-3.1556712589659632,-1.58195668855776,0.004965305328369141,0.09108913643469654,-0.12911817800552353,0.7301348289216283,0.00717075113681306,0.02193095515739748,1.5853242546901596
1742159334.7860942,0.0035822391510009766,-1.575799127618307,-0.0003804373845923692,-3.155689855615133,-1.581944767628805,0.004968881607055664,0.09110134781427283,-0.12911850412765882,0.7301321836164245,0.0072035468574212684,0.021945144242913085,1.585339657864693
1742159334.7942007,0.0035549160093069077,-1.5757924518980921,-0.0003804205625783652,-3.1556745968260707,-1.5819361845599573,0.0049843573942780495,0.09109211490090287,-0.12912208083521826,0.7301341365415613,0.007193515587537699,0.021920924175575774,1.585327739174082
1742159334.8020918,0.0035667824558913708,-1.5757957897581996,-0.0004151777538936585,-3.1556865177550257,-1.58195668855776,0.004965298343449831,0.09110862392661268,-0.12911840083519815,0.7301296609899319,0.007216398683372176,0.02197643243992369,1.585320696308275
1742159334.810094,0.0035822391510009766,-1.575811048547262,-0.0004062652587890625,-3.155667921105856,-1.5819323698626917,0.004968881607055664,0.0911142356443888,-0.12911998723284734,0.7301307271844432,0.0072259012993378825,0.02194772544740276,1.5853395121613942
1742159334.8180938,0.003585748840123415,-1.575780530969137,-0.00040793418884277344,-3.155689855615133,-1.5819323698626917,0.004968881607055664,0.09110026101846025,-0.12911969460317732,0.7301314283047724,0.007220287061246044,0.021942445418610495,1.5853430914440225
1742159334.8260922,0.0035703321918845177,-1.5757957897581996,-0.000423431396484375,-3.155667921105856,-1.581928555165426,0.004956953693181276,0.09110962232698315,-0.12912154062307868,0.7301305826119083,0.007230371699243335,0.021946174794694958,1.5853156658503325
1742159334.8341007,0.0035703182220458984,-1.5757957897581996,-0.0004115104675292969,-3.1556745968260707,-1.581928555165426,0.004965286236256361,0.09110644222136631,-0.129121553213995,0.7301310635457875,0.007226307817328473,0.021942077887673554,1.5853239962256545
1742159334.8418736,0.003570304252207279,-1.5757957897581996,-0.0004115104675292969,-3.1556555233397425,-1.5819361845599573,0.004953379742801189,0.09110411924637762,-0.12912064525989245,0.7301327250463794,0.0072051826046267455,0.021933019898384417,1.5853121120164588
1742159334.8508823,0.0035667945630848408,-1.575780530969137,-0.0003804445150308311,-3.1556745968260707,-1.5818942228900355,0.004949822556227446,0.09108681403351837,-0.12912617029076096,0.7301352627401357,0.0072166844374195625,0.02187874899874128,1.5853047869567352
1742159334.8588872,0.0035703182220458984,-1.575780530969137,-0.0003840923309326172,-3.1556745968260707,-1.581944767628805,0.0049533722922205925,0.09108842905604995,-0.12911964211971683,0.7301348810948332,0.007179701403168064,0.021921319601365643,1.5853122376013515
1742159334.8668845,0.0035892724990844727,-1.575780530969137,-0.0004306554910726845,-3.1556865177550257,-1.5819099585162562,0.004980788100510836,0.09110793833645696,-0.12912208816838555,0.7301297146157472,0.0072533720367187506,0.021940073464306202,1.5853583395480124
1742159334.8748982,0.0035513639450073242,-1.5758077106871546,-0.00042700767517089844,-3.1556831798949183,-1.5819099585162562,0.0049533722922205925,0.0911171336124084,-0.1291254991566687,0.7301278650510756,0.007269394900836556,0.021955648396880745,1.5852929748644289
1742159334.8828804,0.0035703182220458984,-1.575780530969137,-0.00040268898010253906,-3.155689855615133,-1.5819252173053187,0.004968881607055664,0.0910965226113393,-0.1291219869047339,0.7301319049394636,0.00722194581839883,0.021932608251719294,1.5853276098343756
1742159334.89088,0.0035703182220458984,-1.5757957897581996,-0.000423431396484375,-3.1557051144041957,-1.5819137732135218,0.004968881607055664,0.09111414658554697,-0.12912330318928647,0.7301273424096705,0.007271356191758683,0.021963918787035765,1.5853275094795125
1742159334.8989792,0.0035738348960876465,-1.5757957897581996,-0.00037686823634430766,-3.1556555233397425,-1.5819171110736292,0.004968881607055664,0.09109300996886166,-0.12912272370278596,0.7301358418381428,0.00719305588114038,0.02189085527936546,1.585331013789846
1742159334.906198,0.0035513639450073242,-1.5757996044554652,-0.00039546488551422954,-3.1556745968260707,-1.5819605032550257,0.004965293221175671,0.09110079522772278,-0.12911938082635036,0.7301321159053885,0.007191656794377518,0.021957427025834485,1.5853052901691433
1742159334.914198,0.0035667945630848408,-1.575780530969137,-0.00039546488551422954,-3.1556745968260707,-1.581963841115133,0.004965293221175671,0.09109175551603677,-0.12911760341066145,0.7301338437534334,0.007173803999782339,0.02194519560830535,1.5853207731990362
1742159334.9231832,0.0035822391510009766,-1.5757957897581996,-0.00039546488551422954,-3.155689855615133,-1.5819409529315394,0.004984383471310139,0.0911044491247933,-0.1291189526370281,0.7301311479082517,0.007215956388699029,0.02195132387529667,1.5853551295965869
1742159334.9302244,0.0035979854874312878,-1.5757957897581996,-0.00041515828343108296,-3.15565886119985,-1.5819485823260706,0.004984390921890736,0.09110930343647679,-0.12911659130939848,0.7301320931128241,0.00720099449792993,0.02194841885497875,1.585370897179658
1742159334.9392302,0.0035857558250427246,-1.575811048547262,-0.0004115104675292969,-3.155689855615133,-1.5819171110736292,0.0049724699929356575,0.09111912126710961,-0.12912149884045598,0.7301283547296409,0.00725929134826807,0.02195719857922562,1.585346524552176
1742159334.946923,0.0035822391510009766,-1.5758077106871546,-0.00039546488551422954,-3.155689855615133,-1.5819099585162562,0.0049724699929356575,0.09111137861883573,-0.12912273131217306,0.7301300997608784,0.007249676899903405,0.021936342111411728,1.5853429656897817
1742159334.9549866,0.0035668015480041504,-1.575811048547262,-0.0003918886068277061,-3.1556865177550257,-1.5819171110736292,0.004968881607055664,0.09110970579614061,-0.1291232646150742,0.7301304006880799,0.007241343408704274,0.021939031466428942,1.5853239870887086
1742159334.9629319,0.0035548806190490723,-1.5757996044554652,-0.0004115104675292969,-3.155689855615133,-1.5819395224200647,0.004968881607055664,0.0911084911043886,-0.12912158527334983,0.7301293691242086,0.007232840038743724,0.02196561892758333,1.5853122485301916
1742159334.9708724,0.0035668015480041504,-1.5757924518980921,-0.0003991127014160156,-3.1556831798949183,-1.581928555165426,0.004965293221175671,0.0911009516282178,-0.12912188968468488,0.7301317231028712,0.00722066311991951,0.021936476643461,1.5853205062100086
1742159334.9789176,0.0035857558250427246,-1.5757957897581996,-0.00039546488551422954,-3.155677934686178,-1.581928555165426,0.004965286236256361,0.0911034729264701,-0.12912016996661274,0.7301322052932088,0.007216118241902939,0.021932214797660006,1.5853394431176016
1742159334.986939,0.0035857558250427246,-1.5757767162718714,-0.00040793418884277344,-3.1556745968260707,-1.5819323698626917,0.004968881607055664,0.09109620662473225,-0.1291197230080987,0.7301331105354756,0.007205301635315845,0.021927410487717968,1.5853430868171168
1742159334.9949152,0.0035703182220458984,-1.5757767162718714,-0.0004115104675292969,-3.155689855615133,-1.5819485823260706,0.00494976993650198,0.09109723994938562,-0.1291191127288985,0.7301314371071943,0.007207231930003175,0.02195490063510887,1.5853086768611608
1742159335.0027635,0.0035892724990844727,-1.575811048547262,-0.00042700767517089844,-3.1556745968260707,-1.5819252173053187,0.004980816971510649,0.0911228998023375,-0.12912017837624098,0.730128296657504,0.007253212330078121,0.021963707150218798,1.5853584254638258
1742159335.01079,0.0035513639450073242,-1.575780530969137,-0.00041149614844471216,-3.1556745968260707,-1.5819171110736292,0.004953350871801376,0.09109518113047423,-0.12912471417632004,0.7301324627381949,0.007223316408713832,0.021920999015703515,1.5852930448653517
1742159335.0189276,0.0035513639450073242,-1.575811048547262,-0.0004270196077413857,-3.155677934686178,-1.5819209257708948,0.004984397906810045,0.09111841867184194,-0.12912415441585517,0.7301280080681495,0.007259646856739654,0.02196272701697831,1.5853240708268799
1742159335.0269427,0.0035857558250427246,-1.5757924518980921,-0.0004115104675292969,-3.1556712589659632,-1.5819171110736292,0.004980802536010742,0.09110611465578004,-0.12912156205245243,0.7301316714419618,0.007230110606741117,0.021927934325272663,1.5853548639052821
1742159335.035027,0.0035668015480041504,-1.575799127618307,-0.0003991127014160156,-3.1556745968260707,-1.581921402608053,0.004968881607055664,0.09110377953650377,-0.12912276596258704,0.73013187637851,0.0072248863073028635,0.02192931803183779,1.5853240210068544
1742159335.0428927,0.003582232166081667,-1.5757957897581996,-0.00038468814454972744,-3.1556745968260707,-1.5819171110736292,0.004984397906810045,0.09109902215548725,-0.12912191838392964,0.7301334732004734,0.00721429025730906,0.021912097639705218,1.585354944873961
1742159335.0509028,0.0035857558250427246,-1.575780530969137,-0.0004115104675292969,-3.1556745968260707,-1.5819361845599573,0.004953379742801189,0.09109960396316172,-0.1291192411853645,0.7301324404280334,0.007207940983625207,0.021936213802107855,1.5853276072618034
1742159335.0589242,0.0035703182220458984,-1.575791975060934,-0.0003918645379599184,-3.1556745968260707,-1.581963841115133,0.004972462542355061,0.09109762304135625,-0.12911726595673975,0.7301331265966791,0.007180054722506549,0.021951360295740317,1.5853314501605429
1742159335.0669136,0.0035703182220458984,-1.5757957897581996,-0.0004026790848001838,-3.155677934686178,-1.581951920186178,0.004953365307301283,0.09110386493249852,-0.12911869740892032,0.7301315347724168,0.007203389903966223,0.021956129292833592,1.5853122585599557
1742159335.07493,0.0035979854874312878,-1.5757838688292445,-0.00036443446879275143,-3.1556712589659632,-1.581928555165426,0.004984397906810045,0.09108697045916914,-0.12911914316452758,0.7301366447509029,0.007177098186298967,0.021893301374506714,1.5853708048918145
1742159335.0829108,0.0035703182220458984,-1.5757957897581996,-0.0004079007194377482,-3.15565886119985,-1.5818975607501429,0.004968881607055664,0.09110336419221045,-0.12912538397809345,0.7301327979549405,0.007235604340676371,0.02190248556977313,1.5853273421965497
1742159335.0912094,0.003570325206965208,-1.5757957897581996,-0.00041519213118590415,-3.155689855615133,-1.581928555165426,0.004968881607055664,0.09110952427450761,-0.12912152478595856,0.7301293985332303,0.007241226625794838,0.02195701088128757,1.585327614139856
1742159335.0991962,0.0035857628099620342,-1.5757957897581996,-0.0004151777538936585,-3.1556745968260707,-1.581928555165426,0.004956946242600679,0.09110966313935505,-0.12912013971555392,0.7301307357911806,0.007228946187044113,0.021945065187417834,1.5853310990563834
1742159335.1072016,0.0035857558250427246,-1.5757957897581996,-0.0004115104675292969,-3.1556745968260707,-1.5819795767413538,0.0049653006717562675,0.09110837469122661,-0.12911388735512475,0.7301310071181613,0.007185910443354533,0.0219822396672667,1.5853398307182547
1742159335.1151173,0.0035703182220458984,-1.575780530969137,-0.00037683951086364686,-3.1556745968260707,-1.581928555165426,0.004965286236256361,0.0910860222736956,-0.12912164366527967,0.7301355470769189,0.007186911304124595,0.021902888257380577,1.5853240322371973
1742159335.1230896,0.003585750935599208,-1.5757957897581996,-0.0004151777538936585,-3.1556621990599574,-1.5819323698626917,0.004968881607055664,0.09110815420800417,-0.12911969022051561,0.7301318170406117,0.007216352919396777,0.021938267399555542,1.585343036654859
1742159335.1304305,0.003570304252207279,-1.575811048547262,-0.0004151777538936585,-3.1556745968260707,-1.5819209257708948,0.004965305328369141,0.09111649865194942,-0.1291224538090335,0.7301293587482648,0.0072472708771968266,0.021950930921420943,1.5853239195929067
1742159335.1392698,0.0035857558250427246,-1.5757957897581996,-0.0004151777538936585,-3.15565886119985,-1.581928555165426,0.0049724699929356575,0.09110775477281827,-0.12912016245449984,0.7301321134837544,0.007216785743492329,0.021932635612421578,1.5853465973302134
1742159335.147119,0.0035703182220458984,-1.575780530969137,-0.00042704143561422825,-3.15565886119985,-1.5819171110736292,0.004956953693181276,0.09110092098968288,-0.12912298261223812,0.7301324511513012,0.007223084302770781,0.021920909619659378,1.5853155770972645
1742159335.1543424,0.0035857369657605886,-1.575811048547262,-0.00039543103775940835,-3.155677934686178,-1.581944767628805,0.004984378814697266,0.09111226230848742,-0.12911815234837204,0.7301308050639237,0.0072155853732195465,0.02195686982292756,1.5853586150042116
1742159335.1631231,0.003570311237126589,-1.5757957897581996,-0.0004026790848001838,-3.15564026455068,-1.5819323698626917,0.004968881607055664,0.09109932088618497,-0.12912114934130703,0.7301348543863481,0.0071894395258799435,0.021911036935763364,1.5853275774834614
1742159335.1701198,0.0035857369657605886,-1.5757924518980921,-0.000395445415051654,-3.1556745968260707,-1.5819676558123987,0.004968881607055664,0.09110108281348607,-0.12911538615736395,0.7301327590793508,0.007180049804329117,0.021957645303348587,1.5853433140028268
1742159335.1781187,0.0035738160368055105,-1.5757957897581996,-0.0003954600542783737,-3.1556865177550257,-1.5819013754474085,0.0049724578857421875,0.09110300244620358,-0.12912458011529973,0.7301314841901596,0.0072444915981990776,0.021917562171330444,1.5853344805356744
1742159335.1866136,0.0035668134223669767,-1.5757957897581996,-0.0004026790848001838,-3.1556865177550257,-1.5819137732135218,0.004968881607055664,0.09110449823214084,-0.12912368458359066,0.7301308253904158,0.007240433303843487,0.021932920756311706,1.5853239925112552
1742159335.1944788,0.0035822391510009766,-1.5757924518980921,-0.00036438406095840037,-3.155689855615133,-1.5819605032550257,0.004965305328369141,0.09109209937219705,-0.12911661488256393,0.7301342067745216,0.007173158823949763,0.02193966064545323,1.5853362155718955
1742159335.2024868,0.003573843976482749,-1.575811048547262,-0.0004151631146669388,-3.1556712589659632,-1.5819485823260706,0.0049724578857421875,0.09111651326398507,-0.12911874305483817,0.7301296217821441,0.0072228766980873835,0.021970018668273673,1.5853348157178502
1742159335.2104843,0.00357382302172482,-1.5757957897581996,-0.00039186436333693564,-3.1556745968260707,-1.5819323698626917,0.004968888591974974,0.09110031862065793,-0.12912080002082943,0.7301328150830463,0.007207812935986798,0.021929666628408756,1.5853311393010172
1742159335.2184842,0.0035822391510009766,-1.575811048547262,-0.0003954600542783737,-3.1556712589659632,-1.581944767628805,0.004987955093383789,0.09111101115719326,-0.12911848036489917,0.7301313869490619,0.007210448100375391,0.02195159809238784,1.5853586858671553
1742159335.2266598,0.0035703182220458984,-1.575799127618307,-0.0004026790848001838,-3.1556712589659632,-1.5819485823260706,0.0049533843994140625,0.09110498959422685,-0.1291191096377721,0.7301318198932818,0.007203421592725439,0.02195085636307213,1.585312240021743
1742159335.2348514,0.0035857439506798983,-1.5758029423155726,-0.0004270267963875085,-3.155677934686178,-1.5819485823260706,0.004968881607055664,0.09111814041670058,-0.12911764490831404,0.730128712978771,0.007230906240183414,0.0219783296822534,1.5853431541006777
1742159335.2425325,0.003551387693732977,-1.575780530969137,-0.0003954600542783737,-3.1556931934752406,-1.581963841115133,0.004984378814697266,0.09109201889654402,-0.1291189807986882,0.7301322160431339,0.007188773719763952,0.02195975753762951,1.5853244731790994
1742159335.2507732,0.0035703182220458984,-1.5757800541319789,-0.0003954600542783737,-3.15565886119985,-1.5819485823260706,0.004965305328369141,0.09109004381675913,-0.12911917742597545,0.7301352819758878,0.007173077508420674,0.021920440507895954,1.5853241770737367
1742159335.2587254,0.0035703182220458984,-1.5757957897581996,-0.00043897671275772154,-3.15565886119985,-1.5819605032550257,0.004965298343449831,0.09111368412341755,-0.12911760820916243,0.7301299511517229,0.00721042426975474,0.021976309968828083,1.5853242200453526
1742159335.26671,0.0035822391510009766,-1.575811048547262,-0.0003990837140008807,-3.15565886119985,-1.5819323698626917,0.004987955093383789,0.09111073519077531,-0.12912001244309423,0.7301321622347171,0.00721335716686662,0.02193492374779405,1.5853585772918333
1742159335.2747219,0.0035703182220458984,-1.5757957897581996,-0.00040791506762616336,-3.1556712589659632,-1.5819409529315394,0.004976034164428711,0.09110482019121494,-0.1291200431631259,0.730131663426702,0.007211203249744276,0.021946347786897403,1.5853348344189386
1742159335.2827659,0.0035857628099620342,-1.5757996044554652,-0.0004152064793743193,-3.1556745968260707,-1.581944767628805,0.004968888591974974,0.0911118590286538,-0.12911814309546216,0.730130368977611,0.007219337314435396,0.021960800794947423,1.58534315702159
1742159335.2907178,0.0035703182220458984,-1.5757957897581996,-0.0004151777538936585,-3.1556621990599574,-1.581904713307516,0.004980816971510649,0.09110619445715276,-0.12912448918689984,0.7301318475069547,0.007238463573890419,0.021916443353426168,1.585339331604552
1742159335.2987185,0.0035548924934118986,-1.5757924518980921,-0.0004115104675292969,-3.1556712589659632,-1.5819409529315394,0.004949808120727539,0.09110210114970534,-0.12912144888445584,0.73013164514707,0.007211242309314939,0.021946466924846263,1.58529318817592
1742159335.3067102,0.0035703182220458984,-1.5757957897581996,-0.00041515828343108296,-3.15565886119985,-1.5819137732135218,0.004996631294488907,0.0911057725423441,-0.12912338242384144,0.7301321315123407,0.007228872434571461,0.021920897580331073,1.5853552095684182
1742159335.3147783,0.0035857439506798983,-1.575780530969137,-0.00037682487163692713,-3.1556865177550257,-1.581928555165426,0.0049497936852276325,0.09108945425192863,-0.12912022186263805,0.7301345047360066,0.007195914238538664,0.021912397154526298,1.5853239790220417
1742159335.3226986,0.00357382302172482,-1.575784822503561,-0.00040791506762616336,-3.1556745968260707,-1.581928555165426,0.004984385799616575,0.09109935095424819,-0.1291212619441647,0.7301323805560048,0.007215002837941891,0.021930667890966857,1.5853466173273694
1742159335.3307927,0.0035822391510009766,-1.5758077106871546,-0.0004198577080387622,-3.1556712589659632,-1.5819252173053187,0.004968881607055664,0.09111726550494406,-0.12912084304301621,0.7301295310603427,0.007242245142269537,0.02195280106305497,1.5853394617743286
1742159335.3387384,0.003547813044860959,-1.5757838688292445,-0.00039546488551422954,-3.1556712589659632,-1.581944767628805,0.004984371829777956,0.09109085261074129,-0.12912167049149498,0.7301338540714796,0.0071892831950544096,0.021930065967493657,1.5853207185819351
1742159335.347018,0.003551387693732977,-1.575811048547262,-0.0004115104675292969,-3.1556865177550257,-1.5819485823260706,0.004968881607055664,0.09111424154618553,-0.1291207741055206,0.730128612257255,0.0072321497340219,0.0219790470829544,1.5853088030548828
1742159335.3550236,0.0035668134223669767,-1.5758148632445277,-0.0004043630324304104,-3.1557017765440882,-1.5819323698626917,0.004968881607055664,0.09111791704993373,-0.1291213409766867,0.730127586592116,0.007254131625217613,0.021975842562183875,1.5853241202286419
1742159335.3630214,0.00358924875035882,-1.5757957897581996,-0.0003876614209730178,-3.15565886119985,-1.5819485823260706,0.00496531231328845,0.09109897766547338,-0.1291174351831592,0.7301345504140551,0.0071791677110575975,0.02192677908688863,1.5853430933808863
1742159335.3710244,0.0035738300066441298,-1.5757957897581996,-0.00040268898010253906,-3.155667921105856,-1.581951920186178,0.004984400235116482,0.09110310783244664,-0.12911839150457902,0.7301324105939164,0.007195877348449028,0.021948238789046847,1.5853467922195952
1742159335.3790143,0.0035703182220458984,-1.5757957897581996,-0.0004270267963875085,-3.1556745968260707,-1.5819209257708948,0.004968881607055664,0.09111164147705703,-0.12912246227586918,0.730129685191964,0.007244605716265954,0.02194827007443037,1.5853275279172188
1742159335.3870177,0.00357382302172482,-1.5757996044554652,-0.0004115104675292969,-3.15565886119985,-1.5819485823260706,0.004968881607055664,0.09110716906391793,-0.12911879144814264,0.7301320727816435,0.00720118632315716,0.021948393895156095,1.5853312229583993
1742159335.3949988,0.00358924875035882,-1.575799127618307,-0.00039546488551422954,-3.1556712589659632,-1.5819485823260706,0.004972436465322971,0.09110502072723053,-0.12911739751120443,0.7301324646150316,0.007197771113841221,0.021945305826730613,1.5853502235696648
1742159335.4030325,0.0035703182220458984,-1.5757767162718714,-0.00037686823634430766,-3.155652185479635,-1.581928555165426,0.004965305328369141,0.09108110943637733,-0.12912168262800272,0.7301378527731,0.007166336808118874,0.021882230343701348,1.5853240312696024
1742159335.4110086,0.0035857439506798983,-1.575811048547262,-0.0004115104675292969,-3.1556931934752406,-1.5819361845599573,0.004965298343449831,0.09111950159113662,-0.12911915527897397,0.7301280414470054,0.007246780132486805,0.02197481286882214,1.5853394887943784
1742159335.419022,0.003566806437447667,-1.5757957897581996,-0.0003804445150308311,-3.1557237110533656,-1.5819137732135218,0.004984385799616575,0.09110156843423943,-0.12912367161368804,0.7301295560394552,0.007252265710134034,0.021944808406182494,1.585339539478749
1742159335.4266317,0.0035857439506798983,-1.575811048547262,-0.0003991127014160156,-3.155708452264303,-1.5819485823260706,0.004953391384333372,0.09111718942511772,-0.12911763444950722,0.730127799824924,0.007239053053134271,0.021986862246272745,1.585327697802235
1742159335.4345958,0.0035857439506798983,-1.5757957897581996,-0.00040793418884277344,-3.1556865177550257,-1.5819414297686976,0.00496531231328845,0.09110866743436076,-0.1291185578247297,0.7301303252378044,0.007222532128966875,0.02195888979421207,1.5853395589605035
1742159335.4431398,0.0035668322816491127,-1.5757924518980921,-0.0003918886068277061,-3.1556555233397425,-1.5819361845599573,0.004980816971510649,0.09109517749095106,-0.1291210022115485,0.7301347815957322,0.0071874335925473055,0.02191495571818696,1.5853360885295822
1742159335.451169,0.0035703182220458984,-1.5757957897581996,-0.00039546488551422954,-3.155689855615133,-1.5819605032550257,0.00496531231328845,0.09110288662256301,-0.12911764022368094,0.7301311262942594,0.0072004267648735415,0.02196660568736846,1.5853242857842087
1742159335.4585533,0.003585711121559143,-1.5757957897581996,-0.00039546488551422954,-3.1556745968260707,-1.5819252173053187,0.004968881607055664,0.0911030665179836,-0.12912058821982272,0.7301325012073386,0.007216175535281721,0.02192695706478783,1.5853429647743411
1742159335.4666,0.0035668322816491127,-1.5757957897581996,-0.00042700767517089844,-3.1556812725462855,-1.5819323698626917,0.004972464870661497,0.09111198056070242,-0.1291213665832096,0.7301290897886065,0.007240879724730438,0.02196248431579724,1.585327718876405
1742159335.4745438,0.003601485164836049,-1.5757767162718714,-0.00041515828343108296,-3.15565886119985,-1.5819600264178675,0.004968881607055664,0.09109871351471933,-0.1291149066987936,0.7301338120460211,0.007176681459178802,0.021942481454335843,1.585359002105457
1742159335.4825404,0.0035703321918845177,-1.5758148632445277,-0.00040435791015625,-3.1557051144041957,-1.5819137732135218,0.0049724457785487175,0.09111879642697465,-0.12912329713642212,0.7301273152901466,0.007271422142073262,0.02196389327730723,1.5853310663520532
1742159335.4905422,0.003582211211323738,-1.5757957897581996,-0.00041515828343108296,-3.1556621990599574,-1.5819209257708948,0.004968881607055664,0.09110770428844663,-0.12912141672444968,0.7301318313988605,0.007225399429276191,0.021929243333046605,1.5853394111167984
1742159335.498542,0.003551387693732977,-1.5758077106871546,-0.0004115104675292969,-3.1556712589659632,-1.5819605032550257,0.004956953693181276,0.09111044783711673,-0.1291193395934946,0.7301302381347924,0.007207995439100789,0.0219737528907433,1.5852969529617316
1742159335.5070605,0.0035668183118104935,-1.5757838688292445,-0.00039911994826979935,-3.1556865177550257,-1.581928555165426,0.004968881607055664,0.0910963981870819,-0.12912190048927188,0.7301322094259042,0.007216550830556769,0.021932385500609653,1.5853241277862868
1742159335.5141943,0.0035668322816491127,-1.5757957897581996,-0.00040793418884277344,-3.1556621990599574,-1.5819252173053187,0.0049688746221363544,0.09110329696697547,-0.1291223038833415,0.7301324722892562,0.007216470300199741,0.02192683788630171,1.585324060971679
1742159335.5227118,0.0035822391510009766,-1.575780530969137,-0.00041512236930429935,-3.1556555233397425,-1.5819600264178675,0.004968881607055664,0.09109801754279082,-0.12911665711074252,0.7301337611820917,0.007177239493773922,0.021942682178130102,1.5853397475344044
1742159335.5307338,0.003566825296729803,-1.5757767162718714,-0.00039544329047203064,-3.1556865177550257,-1.5819409529315394,0.004984366707503796,0.0910910189495111,-0.1291203994442469,0.7301331736052807,0.007198407871280637,0.02193361575423025,1.5853397242694303
1742159335.5388958,0.0035703182220458984,-1.5757957897581996,-0.0004306699556764215,-3.1556745968260707,-1.581963841115133,0.004968881607055664,0.09111280900354225,-0.12911719105604935,0.7301293121742164,0.007213629598016812,0.021984825913381353,1.5853278493149674
1742159335.5467575,0.0035703182220458984,-1.5757957897581996,-0.0004306553746573627,-3.155689855615133,-1.5819485823260706,0.004965317435562611,0.09111467191608605,-0.12911904164126628,0.7301279943552172,0.007237582931862284,0.021984880062630306,1.5853241878345237
1742159335.5547743,0.0035618902184069157,-1.575780530969137,-0.0004115177143830806,-3.1556865177550257,-1.58195668855776,0.004968881607055664,0.09109794551486743,-0.1291188831216227,0.7301313734236743,0.007201551123079784,0.021961560337591442,1.5853194114270956
1742159335.5645883,0.003566825296729803,-1.575799127618307,-0.000430641055572778,-3.15565886119985,-1.581944767628805,0.004984366707503796,0.09111239351128818,-0.12911986475609896,0.7301304105069085,0.007219161461222108,0.021959992209744,1.5853396747160133
1742159335.5708833,0.0035703182220458984,-1.5757957897581996,-0.0004151655884925276,-3.1556865177550257,-1.5819137732135218,0.0049724457785487175,0.0911091274862352,-0.12912334361612174,0.7301297094404937,0.007250288724957374,0.021942747202246617,1.5853310561542135
1742159335.578295,0.003573811147361994,-1.575799127618307,-0.00041513884207233787,-3.1556555233397425,-1.5819600264178675,0.0049724457785487175,0.09110768726945423,-0.12911738788907567,0.7301320713787773,0.00719206859163904,0.021957217894724625,1.5853348564949485
1742159335.5869424,0.0035822391510009766,-1.575791975060934,-0.00040794131928123534,-3.1556712589659632,-1.581944767628805,0.004968881607055664,0.09110415802979048,-0.12911849666393904,0.73013200319836,0.007204997362085812,0.02194645580859722,1.585339636875493
